;FLAVOR:Marlin
;TIME:629
;Filament used: 0.863143m
;Layer height: 0.3
;MINX:73.6
;MINY:91.6
;MINZ:0.3
;MAXX:118.4
;MAXY:124.4
;MAXZ:13.8
;Generated with Cura_SteamEngine 4.4.1
M82 ;absolute extrusion mode
G21 ;metric values
G90 ;absolute positioning
M82 ;set extruder to absolute mode
M107 ;start with the fan off

M104 S200 T0 ; start heating T0 to what is set in Cura
M140 S60 ; start heating the bed to what is set in Cura
M190 S60 ; start heating the bed to what is set in Cura
M109 S200 T0 ; start heating T0 to what is set in Cura

G28 X0 Y0 ;move X/Y to min endstops
G28 Z0 ;move Z to min endstops
G1 Z15.0 F2400 ;move the platform down 15mm
G92 E0 ;zero the extruded length
G1 F200 E3 ;extrude 3mm of feed stock
G92 E0 ;zero the extruded length again
G1 F2400
G0 Y20 F2400
M117 Printing...
G5
G92 E0
G92 E0
G1 F2400 E-6
;LAYER_COUNT:46
;LAYER:0
M106 S255
M204 S3000
M205 X10 Y10
G1 F600 Z0.375
G0 F3000 X76.077 Y98.96 Z0.375
M204 S1800
M205 X8 Y8
;TYPE:SKIRT
G1 F600 Z0.3
G1 F2400 E0
G1 X76.665 Y98.553 E0.04995
G1 X77.295 Y98.213 E0.09995
G1 X77.959 Y97.947 E0.14991
G1 X78.478 Y97.795 E0.18768
G1 X81.177 Y97.129 E0.38185
G1 X83.733 Y96.424 E0.56705
G1 X86.238 Y95.654 E0.75009
G1 X88.746 Y94.804 E0.93505
G1 X91.254 Y93.876 E1.12184
G1 X93.685 Y92.898 E1.30486
G1 X94.684 Y92.462 E1.38099
G1 X94.773 Y92.424 E1.38775
G1 X95.514 Y92.114 E1.44385
G1 X96.188 Y91.875 E1.4938
G1 X96.885 Y91.713 E1.54378
G1 X97.652 Y91.627 E1.59769
G1 X97.998 Y91.609 E1.62189
G1 X98.33 Y91.6 E1.64509
G1 X111.293 Y91.6 E2.5505
G1 X111.385 Y91.601 E2.55693
G1 X112.083 Y91.611 E2.60569
G1 X112.796 Y91.661 E2.65561
G1 X113.5 Y91.79 E2.7056
G1 X114.184 Y91.998 E2.75553
G1 X114.841 Y92.28 E2.80547
G1 X115.463 Y92.634 E2.85546
G1 X116.041 Y93.055 E2.9054
G1 X116.569 Y93.538 E2.95539
G1 X117.039 Y94.076 E3.00528
G1 X117.447 Y94.664 E3.05527
G1 X117.786 Y95.294 E3.10524
G1 X118.053 Y95.957 E3.15516
G1 X118.244 Y96.647 E3.20517
G1 X118.357 Y97.353 E3.25511
G1 X118.388 Y97.83 E3.2885
G1 X118.397 Y98.15 E3.31085
G1 X118.4 Y98.33 E3.32343
G1 X118.4 Y111.264 E4.22682
G1 X118.399 Y111.352 E4.23297
G1 X118.389 Y112.079 E4.28375
G1 X118.34 Y112.793 E4.33374
G1 X118.211 Y113.496 E4.38366
G1 X118.004 Y114.181 E4.43364
G1 X117.722 Y114.838 E4.48358
G1 X117.368 Y115.46 E4.53357
G1 X116.948 Y116.038 E4.58347
G1 X116.465 Y116.566 E4.63345
G1 X115.927 Y117.037 E4.6834
G1 X115.339 Y117.445 E4.73338
G1 X114.709 Y117.785 E4.78339
G1 X114.046 Y118.052 E4.83331
G1 X113.522 Y118.205 E4.87144
G1 X110.823 Y118.871 E5.06561
G1 X108.267 Y119.576 E5.2508
G1 X105.762 Y120.346 E5.43384
G1 X103.254 Y121.196 E5.6188
G1 X100.746 Y122.124 E5.80559
G1 X98.315 Y123.102 E5.98861
G1 X97.323 Y123.535 E6.06421
G1 X97.235 Y123.573 E6.0709
G1 X96.487 Y123.886 E6.12754
G1 X95.812 Y124.125 E6.17755
G1 X95.116 Y124.287 E6.22747
G1 X94.348 Y124.373 E6.28144
G1 X94.002 Y124.391 E6.30564
G1 X93.67 Y124.4 E6.32884
G1 X80.707 Y124.4 E7.23426
G1 X80.624 Y124.399 E7.24005
G1 X79.926 Y124.39 E7.28881
G1 X79.213 Y124.341 E7.33873
G1 X78.509 Y124.213 E7.38871
G1 X77.824 Y124.007 E7.43867
G1 X77.167 Y123.725 E7.48861
G1 X76.545 Y123.372 E7.53856
G1 X75.966 Y122.952 E7.58852
G1 X75.437 Y122.47 E7.63851
G1 X74.966 Y121.932 E7.68845
G1 X74.558 Y121.345 E7.73838
G1 X74.218 Y120.715 E7.78838
G1 X73.95 Y120.052 E7.83833
G1 X73.758 Y119.363 E7.88829
G1 X73.644 Y118.657 E7.93824
G1 X73.611 Y118.162 E7.97289
G1 X73.602 Y117.825 E7.99643
G1 X73.6 Y117.654 E8.00838
G1 X73.6 Y104.698 E8.91331
G1 X73.601 Y104.605 E8.9198
G1 X73.611 Y103.916 E8.96793
G1 X73.661 Y103.203 E9.01786
G1 X73.791 Y102.499 E9.06786
G1 X73.998 Y101.815 E9.11777
G1 X74.28 Y101.158 E9.16771
G1 X74.634 Y100.536 E9.2177
G1 X75.055 Y99.958 E9.26764
G1 X75.538 Y99.43 E9.31763
G1 X76.077 Y98.96 E9.36757
M204 S3000
M205 X10 Y10
G0 F3000 X76.618 Y99.255
M204 S1800
M205 X8 Y8
G1 F2400 X77.196 Y98.892 E9.41525
G1 X77.813 Y98.598 E9.46298
G1 X78.612 Y98.339 E9.52165
G1 X81.316 Y97.672 E9.71618
G1 X83.87 Y96.967 E9.90124
G1 X86.404 Y96.188 E10.0864
G1 X88.955 Y95.324 E10.27452
G1 X91.437 Y94.405 E10.45938
G1 X93.91 Y93.41 E10.64557
G1 X94.908 Y92.975 E10.72161
G1 X94.989 Y92.94 E10.72777
G1 X95.73 Y92.63 E10.78387
G1 X96.375 Y92.404 E10.83161
G1 X97.041 Y92.255 E10.87928
G1 X97.681 Y92.186 E10.92424
G1 X98.027 Y92.168 E10.94844
G1 X98.33 Y92.16 E10.96961
G1 X111.293 Y92.16 E11.87503
G1 X111.377 Y92.161 E11.88089
G1 X112.075 Y92.171 E11.92965
G1 X112.756 Y92.22 E11.97734
G1 X113.427 Y92.349 E12.02506
G1 X114.078 Y92.556 E12.07278
G1 X114.701 Y92.837 E12.12051
G1 X115.287 Y93.189 E12.16826
G1 X115.827 Y93.607 E12.21596
G1 X116.315 Y94.085 E12.26367
G1 X116.744 Y94.617 E12.3114
G1 X117.108 Y95.195 E12.35911
G1 X117.402 Y95.812 E12.40685
G1 X117.621 Y96.459 E12.45456
G1 X117.764 Y97.127 E12.50227
G1 X117.829 Y97.846 E12.5527
G1 X117.838 Y98.166 E12.57506
G1 X117.84 Y98.33 E12.58651
G1 X117.84 Y111.264 E13.48991
G1 X117.839 Y111.344 E13.49549
G1 X117.829 Y112.071 E13.54628
G1 X117.78 Y112.753 E13.59403
G1 X117.652 Y113.424 E13.64175
G1 X117.445 Y114.075 E13.68946
G1 X117.165 Y114.698 E13.73717
G1 X116.813 Y115.284 E13.78491
G1 X116.396 Y115.825 E13.83262
G1 X115.918 Y116.313 E13.88033
G1 X115.386 Y116.742 E13.92807
G1 X114.808 Y117.106 E13.97578
G1 X114.191 Y117.4 E14.02352
G1 X113.388 Y117.661 E14.08249
G1 X110.684 Y118.328 E14.27702
G1 X108.13 Y119.033 E14.46208
G1 X105.596 Y119.812 E14.64724
G1 X103.045 Y120.676 E14.83536
G1 X100.563 Y121.595 E15.02022
G1 X98.103 Y122.585 E15.20543
G1 X97.1 Y123.022 E15.28185
G1 X97.018 Y123.056 E15.28805
G1 X96.27 Y123.369 E15.34469
G1 X95.626 Y123.596 E15.39238
G1 X94.959 Y123.745 E15.44011
G1 X94.319 Y123.814 E15.48508
G1 X93.973 Y123.832 E15.50928
G1 X93.67 Y123.84 E15.53045
G1 X80.632 Y123.84 E16.4411
G1 X79.934 Y123.831 E16.48986
G1 X79.252 Y123.782 E16.53762
G1 X78.581 Y123.654 E16.58533
G1 X77.93 Y123.448 E16.63302
G1 X77.306 Y123.168 E16.68079
G1 X76.72 Y122.817 E16.7285
G1 X76.179 Y122.4 E16.77621
G1 X75.69 Y121.922 E16.82397
G1 X75.261 Y121.391 E16.87165
G1 X74.896 Y120.813 E16.9194
G1 X74.602 Y120.197 E16.96707
G1 X74.381 Y119.55 E17.01483
G1 X74.237 Y118.882 E17.06256
G1 X74.171 Y118.147 E17.1141
G1 X74.162 Y117.81 E17.13765
G1 X74.16 Y117.654 E17.14854
G1 X74.16 Y104.698 E18.05347
G1 X74.161 Y104.613 E18.05941
G1 X74.171 Y103.924 E18.10754
G1 X74.22 Y103.243 E18.15523
G1 X74.35 Y102.572 E18.20297
G1 X74.556 Y101.921 E18.25066
G1 X74.837 Y101.298 E18.29839
G1 X75.189 Y100.712 E18.34614
G1 X75.607 Y100.172 E18.39384
G1 X76.086 Y99.684 E18.4416
G1 X76.618 Y99.255 E18.48933
M204 S3000
M205 X10 Y10
G0 F3000 X76.631 Y99.952
M204 S1800
M205 X8 Y8
G1 F2400 X77.155 Y99.568 E18.53471
G1 X77.722 Y99.251 E18.58008
G1 X78.323 Y99.006 E18.62541
G1 X78.746 Y98.883 E18.65618
G1 X81.421 Y98.223 E18.84862
G1 X84.048 Y97.498 E19.03897
G1 X86.604 Y96.712 E19.22574
G1 X89.109 Y95.864 E19.41046
G1 X91.663 Y94.919 E19.60067
G1 X94.136 Y93.924 E19.78686
G1 X95.132 Y93.489 E19.86277
G1 X95.205 Y93.457 E19.86834
G1 X95.946 Y93.147 E19.92444
G1 X96.56 Y92.934 E19.96983
G1 X97.195 Y92.797 E20.0152
G1 X97.71 Y92.745 E20.05136
G1 X98.056 Y92.727 E20.07556
G1 X98.33 Y92.72 E20.0947
G1 X111.293 Y92.72 E21.00012
G1 X111.369 Y92.721 E21.00543
G1 X112.067 Y92.731 E21.05419
G1 X112.714 Y92.78 E21.09951
G1 X113.351 Y92.908 E21.14489
G1 X113.967 Y93.114 E21.19025
G1 X114.554 Y93.394 E21.23568
G1 X115.101 Y93.743 E21.281
G1 X115.602 Y94.157 E21.32639
G1 X116.047 Y94.63 E21.37175
G1 X116.432 Y95.154 E21.41717
G1 X116.749 Y95.721 E21.46254
G1 X116.994 Y96.322 E21.50787
G1 X117.163 Y96.949 E21.55323
G1 X117.269 Y97.862 E21.61743
G1 X117.278 Y98.182 E21.63979
G1 X117.28 Y98.33 E21.65013
G1 X117.28 Y111.337 E22.55862
G1 X117.27 Y112.064 E22.6094
G1 X117.221 Y112.711 E22.65472
G1 X117.093 Y113.348 E22.7001
G1 X116.887 Y113.965 E22.74554
G1 X116.608 Y114.551 E22.79087
G1 X116.259 Y115.099 E22.83625
G1 X115.845 Y115.599 E22.88159
G1 X115.372 Y116.045 E22.927
G1 X114.849 Y116.43 E22.97236
G1 X114.282 Y116.748 E23.01776
G1 X113.681 Y116.993 E23.06309
G1 X113.254 Y117.117 E23.09415
G1 X110.579 Y117.777 E23.28659
G1 X107.952 Y118.502 E23.47694
G1 X105.396 Y119.288 E23.66371
G1 X102.891 Y120.136 E23.84843
G1 X100.337 Y121.081 E24.03864
G1 X97.877 Y122.071 E24.22385
G1 X96.876 Y122.508 E24.30014
G1 X96.802 Y122.54 E24.30577
G1 X96.054 Y122.853 E24.36241
G1 X95.441 Y123.066 E24.40773
G1 X94.805 Y123.203 E24.45318
G1 X94.29 Y123.255 E24.48933
G1 X93.944 Y123.273 E24.51353
G1 X93.67 Y123.28 E24.53267
G1 X80.639 Y123.28 E25.44284
G1 X79.941 Y123.271 E25.4916
G1 X79.293 Y123.222 E25.53699
G1 X78.656 Y123.095 E25.58235
G1 X78.04 Y122.89 E25.6277
G1 X77.453 Y122.611 E25.67309
G1 X76.905 Y122.262 E25.71847
G1 X76.404 Y121.849 E25.76382
G1 X75.957 Y121.377 E25.80923
G1 X75.572 Y120.854 E25.85459
G1 X75.254 Y120.287 E25.89999
G1 X75.008 Y119.686 E25.94535
G1 X74.838 Y119.059 E25.99073
G1 X74.731 Y118.132 E26.0559
G1 X74.722 Y117.795 E26.07945
G1 X74.72 Y117.654 E26.0893
G1 X74.72 Y104.698 E26.99423
G1 X74.721 Y104.621 E26.99961
G1 X74.731 Y103.932 E27.04774
G1 X74.78 Y103.285 E27.09306
G1 X74.908 Y102.648 E27.13844
G1 X75.114 Y102.032 E27.18381
G1 X75.394 Y101.445 E27.22923
G1 X75.744 Y100.898 E27.27459
G1 X76.158 Y100.398 E27.31993
G1 X76.631 Y99.952 E27.36534
M204 S3000
M205 X10 Y10
G1 F2400 E21.36534
;MESH:m4_screw_mount_v2.stl
G0 F3000 X80.654 Y103.335
G0 X80.654 Y104.654
G0 X88.695 Y108.442
G0 X89.548 Y109.289
G0 X90.935 Y112.907
M204 S1800
M205 X8 Y8
;TYPE:WALL-INNER
G1 F2400 E27.36534
G1 F1500 X90.407 Y112.697 E27.40503
G1 X90.378 Y112.685 E27.40722
G1 X90.509 Y112.438 E27.41927
G1 X90.721 Y111.729 E27.47096
G1 X90.793 Y110.998 E27.52227
G1 X90.718 Y110.249 E27.57484
G1 X90.498 Y109.536 E27.62696
G1 X90.147 Y108.883 E27.67874
G1 X89.671 Y108.307 E27.73093
G1 X89.095 Y107.839 E27.78277
G1 X88.438 Y107.491 E27.8347
G1 X87.727 Y107.279 E27.88652
G1 X86.986 Y107.207 E27.93852
G1 X86.247 Y107.284 E27.99042
G1 X85.536 Y107.502 E28.04236
G1 X84.883 Y107.853 E28.09414
G1 X84.318 Y108.32 E28.14534
G1 X83.846 Y108.893 E28.19719
G1 X83.496 Y109.549 E28.24912
G1 X83.28 Y110.26 E28.30102
G1 X83.207 Y111 E28.35296
G1 X83.28 Y111.74 E28.4049
G1 X83.496 Y112.451 E28.4568
G1 X83.624 Y112.692 E28.47586
G1 X83.598 Y112.702
G1 X83.085 Y112.91 E28.51452
G1 X82.466 Y113.448 E28.57181
G1 X82.022 Y114.183 E28.63178
G1 X81.956 Y114.422 E28.6491
G1 X81.791 Y115.03 E28.6931
G1 X81.773 Y115.812 E28.74774
G1 X81.914 Y116.493 E28.79631
G1 X81.926 Y116.549 E28.80031
G1 X81.95 Y116.6 E28.80425
G1 X81.926 Y116.6
G1 X81.4 Y116.6 E28.83183
G1 X81.4 Y116.549
G1 X81.4 Y115.812 E28.87309
G1 X81.4 Y115.03 E28.91035
G1 X81.4 Y114.4 E28.94778
G1 X81.4 Y105.4 E29.57639
G1 X92.6 Y105.4 E30.35867
G1 X92.6 Y114.3 E30.9803
G1 X92.6 Y115.084 E31.03506
G1 X92.6 Y116.026 E31.10086
G1 X92.6 Y116.6 E31.14095
G1 X92.065 Y116.6 E31.17832
G1 X92.104 Y116.461
G1 X92.227 Y116.026 E31.20254
G1 X92.242 Y115.084 E31.24549
G1 X92.044 Y114.325 E31.29048
G1 X92.018 Y114.228 E31.29749
G1 X91.561 Y113.455 E31.36021
G1 X90.935 Y112.907 E31.41832
M204 S3000
M205 X10 Y10
G0 F3000 X90.04 Y113.154
M204 S1800
M205 X8 Y8
G1 F1500 X89.691 Y113.153 E31.4427
G1 X89.392 Y113.152 E31.46359
G1 X89.649 Y112.836 E31.47606
G1 X89.692 Y112.784 E31.47705
G1 X89.705 Y112.759 E31.47902
G1 X89.988 Y112.225 E31.52123
G1 X90.169 Y111.62 E31.56534
G1 X90.23 Y110.999 E31.60892
G1 X90.166 Y110.36 E31.65377
G1 X89.979 Y109.753 E31.69814
G1 X89.68 Y109.197 E31.74223
G1 X89.275 Y108.707 E31.78663
G1 X88.784 Y108.308 E31.83082
G1 X88.225 Y108.012 E31.875
G1 X87.619 Y107.831 E31.91918
G1 X86.988 Y107.77 E31.96346
G1 X86.359 Y107.835 E32.00762
G1 X85.753 Y108.021 E32.0519
G1 X85.197 Y108.32 E32.09599
G1 X84.716 Y108.717 E32.13956
G1 X84.314 Y109.206 E32.18377
G1 X84.016 Y109.764 E32.22795
G1 X83.832 Y110.37 E32.27219
G1 X83.77 Y111 E32.3164
G1 X83.832 Y111.63 E32.36062
G1 X84.016 Y112.236 E32.40485
G1 X84.301 Y112.77 E32.44713
G1 X84.314 Y112.794 E32.44904
G1 X84.351 Y112.839 E32.45311
G1 X84.599 Y113.141 E32.4804
G1 X84.325 Y113.149 E32.48443
G1 X83.961 Y113.16 E32.50267
G1 X83.936 Y113.17 E32.50455
G1 X83.382 Y113.394 E32.54628
G1 X82.9 Y113.813 E32.59089
G1 X82.542 Y114.406 E32.63927
G1 X82.349 Y115.112 E32.6904
G1 X82.334 Y115.761 E32.73574
G1 X82.461 Y116.372 E32.77933
G1 X82.612 Y116.699 E32.80448
G1 X82.722 Y116.937 E32.8228
G1 X82.91 Y117.16 E32.84317
G1 X82.722 Y117.16 E32.84408
G1 X82.459 Y117.16 E32.8578
G1 X80.84 Y117.16 E32.97088
G1 X80.84 Y104.84 E33.83139
G1 X93.16 Y104.84 E34.6919
G1 X93.16 Y117.16 E35.5524
G1 X91.616 Y117.16 E35.66024
G1 X91.189 Y117.16 E35.69007
G1 X91.127 Y117.16 E35.6944
G1 X91.189 Y117.099 E35.69587
G1 X91.399 Y116.728 E35.71417
G1 X91.495 Y116.558 E35.7278
G1 X91.668 Y115.944 E35.77236
G1 X91.681 Y115.152 E35.82768
G1 X91.496 Y114.445 E35.87873
G1 X91.125 Y113.817 E35.92967
G1 X90.639 Y113.392 E35.97477
G1 X90.066 Y113.164 E36.01784
G1 X90.04 Y113.154 E36.01955
M204 S3000
M205 X10 Y10
G0 F3000 X88.893 Y112.879
M204 S1800
M205 X8 Y8
;TYPE:WALL-OUTER
G1 F1500 X89.223 Y112.473 E36.05609
G1 X89.467 Y112.012 E36.09252
G1 X89.617 Y111.511 E36.12905
G1 X89.667 Y111 E36.16491
G1 X89.614 Y110.471 E36.20205
G1 X89.46 Y109.97 E36.23866
G1 X89.213 Y109.511 E36.27506
G1 X88.879 Y109.107 E36.31168
G1 X88.473 Y108.777 E36.34822
G1 X88.012 Y108.533 E36.38465
G1 X87.511 Y108.383 E36.42118
G1 X86.99 Y108.333 E36.45773
G1 X86.471 Y108.386 E36.49417
G1 X85.97 Y108.54 E36.53078
G1 X85.511 Y108.787 E36.56719
G1 X85.114 Y109.114 E36.60311
G1 X84.782 Y109.519 E36.63969
G1 X84.536 Y109.979 E36.67613
G1 X84.384 Y110.48 E36.71269
G1 X84.333 Y111 E36.74919
G1 X84.384 Y111.52 E36.78568
G1 X84.536 Y112.021 E36.82225
G1 X84.782 Y112.481 E36.85869
G1 X85.114 Y112.886 E36.89526
G1 X85.439 Y113.152 E36.9246
G1 X85.519 Y113.218 E36.93184
G1 X85.979 Y113.464 E36.96828
G1 X86.48 Y113.616 E37.00484
G1 X87 Y113.667 E37.04134
G1 X87.52 Y113.616 E37.07783
G1 X88.021 Y113.464 E37.1144
G1 X88.481 Y113.218 E37.15084
G1 X88.551 Y113.161 E37.15714
G1 X88.893 Y112.879 E37.1881
M204 S3000
M205 X10 Y10
G0 F3000 X89.019 Y112.724
G0 X89.374 Y113.014
G0 X90.996 Y113.924
G0 X91.517 Y115.172
G0 X91.343 Y116.494
G0 X90.582 Y116.965
G0 X90.01 Y117.269
M204 S1800
M205 X8 Y8
G1 F1500 X90.227 Y117.166 E37.20488
G1 X90.413 Y117.077 E37.21928
G1 X90.74 Y116.755 E37.25134
G1 X90.974 Y116.341 E37.28455
G1 X91.109 Y115.862 E37.31931
G1 X91.12 Y115.219 E37.36423
G1 X90.974 Y114.662 E37.40445
G1 X90.689 Y114.179 E37.44362
G1 X90.343 Y113.877 E37.4757
G1 X89.932 Y113.714 E37.50658
G1 X88.572 Y113.712 E37.60157
G1 X88.481 Y113.712 E37.60624
G1 X88.021 Y113.711 E37.62711
G1 X87.52 Y113.71 E37.6375
G1 X87 Y113.709 E37.64188
G1 X86.48 Y113.708 E37.64644
G1 X85.979 Y113.706 E37.65808
G1 X85.518 Y113.704 E37.68109
G1 X85.414 Y113.704 E37.6879
G1 X84.603 Y113.701 E37.74455
G1 X84.078 Y113.717 E37.78123
G1 X83.679 Y113.878 E37.81128
G1 X83.334 Y114.178 E37.84322
G1 X83.062 Y114.629 E37.88
G1 X82.907 Y115.194 E37.92092
G1 X82.895 Y115.71 E37.95698
G1 X82.996 Y116.195 E37.99158
G1 X83.199 Y116.634 E38.02536
G1 X83.498 Y116.989 E38.05778
G1 X83.783 Y117.165 E38.08117
G1 X83.878 Y117.224 E38.08898
G1 X84.281 Y117.302 E38.11766
G1 X89.477 Y117.295 E38.48058
G1 X90.01 Y117.269 E38.51785
M204 S3000
M205 X10 Y10
G0 F3000 X90.19 Y117.184
G0 X90.251 Y117.72
M204 S1800
M205 X8 Y8
G1 F1500 X90.01 Y117.72 E38.53309
G1 X89.477 Y117.72 E38.56221
G1 X84.281 Y117.72 E38.83537
G1 X83.878 Y117.72 E38.85832
G1 X83.766 Y117.72 E38.86571
G1 X80.28 Y117.72 E39.1092
G1 X80.28 Y104.28 E40.04793
G1 X93.72 Y104.28 E40.98667
G1 X93.72 Y117.72 E41.9254
G1 X90.251 Y117.72 E42.1677
M204 S3000
M205 X10 Y10
G0 F3000 X90.051 Y117.72
G0 X90.051 Y117.62
G0 X91.057 Y116.998
G0 X92.05 Y113.202
M204 S1800
M205 X8 Y8
;TYPE:SKIN
G1 F1500 X91.989 Y113.099 E42.17606
G1 X91.226 Y112.431 E42.24689
G1 X91.1 Y112.381 E42.25636
G1 X91.263 Y111.835 E42.29616
G1 X91.345 Y110.998 E42.3549
G1 X91.26 Y110.139 E42.41519
G1 X91.008 Y109.322 E42.47491
G1 X90.606 Y108.575 E42.53416
G1 X90.06 Y107.914 E42.59404
G1 X89.4 Y107.378 E42.65342
G1 X88.648 Y106.98 E42.71285
G1 X87.833 Y106.737 E42.77225
G1 X86.984 Y106.655 E42.83183
