;FLAVOR:Marlin
;TIME:2211
;Filament used: 3.05831m
;Layer height: 0.3
;MINX:73.6
;MINY:71.6
;MINZ:0.3
;MAXX:137.401
;MAXY:138.895
;MAXZ:14.7
;Generated with Cura_SteamEngine 4.4.1
M82 ;absolute extrusion mode
G21 ;metric values
G90 ;absolute positioning
M82 ;set extruder to absolute mode
M107 ;start with the fan off

M104 S200 T0 ; start heating T0 to what is set in Cura
M140 S60 ; start heating the bed to what is set in Cura
M190 S60 ; start heating the bed to what is set in Cura
M109 S200 T0 ; start heating T0 to what is set in Cura

G28 X0 Y0 ;move X/Y to min endstops
G28 Z0 ;move Z to min endstops
G1 Z15.0 F2400 ;move the platform down 15mm
G92 E0 ;zero the extruded length
G1 F200 E3 ;extrude 3mm of feed stock
G92 E0 ;zero the extruded length again
G1 F2400
G0 Y20 F2400
M117 Printing...
G5
G92 E0
G92 E0
G1 F2400 E-6
;LAYER_COUNT:49
;LAYER:0
M106 S255
M204 S3000
M205 X10 Y10
G1 F600 Z0.375
G0 F3000 X92.845 Y74.223 Z0.375
M204 S1800
M205 X8 Y8
;TYPE:SKIRT
G1 F600 Z0.3
G1 F2400 E0
G1 X93.301 Y73.672 E0.04996
G1 X93.816 Y73.176 E0.0999
G1 X94.383 Y72.74 E0.14985
G1 X94.995 Y72.37 E0.1998
G1 X95.645 Y72.071 E0.24978
G1 X96.324 Y71.846 E0.29974
G1 X97.024 Y71.699 E0.3497
G1 X97.52 Y71.643 E0.38456
G1 X97.857 Y71.618 E0.40816
G1 X98.33 Y71.6 E0.44123
G1 X101.393 Y71.6 E0.65517
G1 X101.484 Y71.601 E0.66152
G1 X102.185 Y71.611 E0.71049
G1 X102.899 Y71.661 E0.76048
G1 X103.602 Y71.79 E0.8104
G1 X104.287 Y71.997 E0.86038
G1 X104.944 Y72.28 E0.91035
G1 X105.566 Y72.633 E0.9603
G1 X106.144 Y73.054 E1.01025
G1 X106.521 Y73.388 E1.04543
G1 X108.678 Y75.455 E1.25409
G1 X110.63 Y77.22 E1.4379
G1 X112.638 Y78.936 E1.62239
G1 X114.698 Y80.595 E1.80713
G1 X116.815 Y82.205 E1.9929
G1 X118.972 Y83.752 E2.1783
G1 X121.152 Y85.224 E2.36203
G1 X123.384 Y86.639 E2.54661
G1 X125.667 Y87.999 E2.73222
G1 X127.974 Y89.287 E2.91677
G1 X130.341 Y90.521 E3.10321
G1 X132.696 Y91.665 E3.28608
G1 X133.652 Y92.114 E3.35985
G1 X134.282 Y92.454 E3.40985
G1 X134.87 Y92.862 E3.45984
G1 X135.408 Y93.333 E3.50979
G1 X135.891 Y93.861 E3.55977
G1 X136.311 Y94.439 E3.60967
G1 X136.665 Y95.061 E3.65966
G1 X136.947 Y95.718 E3.7096
G1 X137.154 Y96.403 E3.75958
G1 X137.283 Y97.106 E3.8095
G1 X137.331 Y97.745 E3.85426
G1 X137.356 Y98.725 E3.92273
G1 X137.358 Y98.869 E3.93279
G1 X137.401 Y113.017 E4.92098
G1 X137.401 Y113.106 E4.92719
G1 X137.393 Y113.834 E4.97804
G1 X137.345 Y114.548 E5.02803
G1 X137.218 Y115.252 E5.07799
G1 X137.013 Y115.937 E5.12793
G1 X136.733 Y116.595 E5.17788
G1 X136.381 Y117.218 E5.22786
G1 X135.962 Y117.798 E5.27784
G1 X135.481 Y118.327 E5.32778
G1 X134.944 Y118.799 E5.37771
G1 X134.145 Y119.334 E5.44487
G1 X133.857 Y119.497 E5.46799
G1 X133.765 Y119.548 E5.47534
G1 X131.964 Y120.529 E5.61858
G1 X129.661 Y121.87 E5.80472
G1 X127.43 Y123.256 E5.98817
G1 X125.203 Y124.727 E6.17458
G1 X123.057 Y126.235 E6.35778
G1 X120.923 Y127.824 E6.54362
G1 X118.829 Y129.479 E6.73004
G1 X116.839 Y131.145 E6.91131
G1 X114.569 Y133.162 E7.12341
G1 X114.539 Y133.188 E7.12618
G1 X114.449 Y133.267 E7.13455
G1 X113.886 Y133.708 E7.1845
G1 X113.277 Y134.083 E7.23445
G1 X112.63 Y134.389 E7.28444
G1 X111.953 Y134.62 E7.33441
G1 X111.255 Y134.774 E7.38433
G1 X110.812 Y134.83 E7.41552
G1 X110.097 Y134.896 E7.46567
G1 X107.418 Y135.18 E7.65384
G1 X104.819 Y135.532 E7.83703
G1 X102.184 Y135.964 E8.02353
G1 X99.572 Y136.469 E8.20934
G1 X96.985 Y137.046 E8.39448
G1 X94.478 Y137.679 E8.57508
G1 X91.94 Y138.394 E8.75925
G1 X91.192 Y138.617 E8.81376
G1 X90.496 Y138.783 E8.86374
G1 X89.634 Y138.878 E8.92431
G1 X89.421 Y138.887 E8.9392
G1 X89.205 Y138.893 E8.9543
G1 X88.968 Y138.895 E8.97085
G1 X85.338 Y138.895 E9.22439
G1 X85.246 Y138.894 E9.23082
G1 X84.548 Y138.884 E9.27958
G1 X83.835 Y138.834 E9.3295
G1 X83.131 Y138.705 E9.37949
G1 X82.447 Y138.497 E9.42942
G1 X82.11 Y138.364 E9.45473
G1 X81.464 Y138.086 E9.50385
G1 X81.358 Y138.039 E9.51195
G1 X80.153 Y137.494 E9.60432
G1 X77.602 Y136.427 E9.79746
G1 X77.396 Y136.337 E9.81316
G1 X77.333 Y136.308 E9.818
G1 X76.701 Y135.973 E9.86796
G1 X76.11 Y135.569 E9.91797
G1 X75.568 Y135.103 E9.96789
G1 X75.082 Y134.578 E10.01786
G1 X74.657 Y134.003 E10.0678
G1 X74.299 Y133.384 E10.11775
G1 X74.012 Y132.729 E10.1677
G1 X73.8 Y132.045 E10.21771
G1 X73.666 Y131.343 E10.26763
G1 X73.612 Y130.674 E10.31451
G1 X73.603 Y130.355 E10.3368
G1 X73.6 Y130.175 E10.34937
G1 X73.6 Y118.212 E11.18494
G1 X73.601 Y118.121 E11.1913
G1 X73.627 Y116.29 E11.3192
G1 X73.628 Y116.202 E11.32535
G1 X73.647 Y115.524 E11.37272
G1 X73.645 Y112.872 E11.55796
G1 X73.602 Y111.087 E11.68267
G1 X73.6 Y110.933 E11.69343
G1 X73.6 Y97.943 E12.60073
G1 X73.601 Y97.852 E12.60708
G1 X73.611 Y97.15 E12.65612
G1 X73.661 Y96.436 E12.70611
G1 X73.79 Y95.733 E12.75604
G1 X73.997 Y95.048 E12.80602
G1 X74.28 Y94.391 E12.85598
G1 X74.633 Y93.769 E12.90594
G1 X75.054 Y93.191 E12.95588
G1 X75.537 Y92.663 E13.00586
G1 X75.849 Y92.379 E13.03533
G1 X76.383 Y91.922 E13.08442
G1 X76.454 Y91.862 E13.09091
G1 X77.442 Y91.041 E13.18064
G1 X79.459 Y89.266 E13.3683
G1 X81.376 Y87.48 E13.5513
G1 X83.271 Y85.61 E13.73726
G1 X85.106 Y83.695 E13.92251
G1 X86.879 Y81.736 E14.10705
G1 X88.6 Y79.725 E14.29193
G1 X90.268 Y77.657 E14.4775
G1 X91.859 Y75.567 E14.66096
G1 X92.125 Y75.198 E14.69273
G1 X92.845 Y74.223 E14.77739
M204 S3000
M205 X10 Y10
G0 F3000 X93.295 Y74.556
M204 S1800
M205 X8 Y8
G1 F2400 X93.732 Y74.031 E14.8251
G1 X94.228 Y73.561 E14.87283
G1 X94.775 Y73.151 E14.92057
G1 X95.366 Y72.809 E14.96827
G1 X95.994 Y72.538 E15.01604
G1 X96.648 Y72.342 E15.06373
G1 X97.561 Y72.201 E15.12825
G1 X97.898 Y72.176 E15.15186
G1 X98.33 Y72.16 E15.18205
G1 X101.393 Y72.16 E15.39599
G1 X101.476 Y72.161 E15.40179
G1 X102.177 Y72.171 E15.45075
G1 X102.859 Y72.22 E15.49851
G1 X103.53 Y72.349 E15.54624
G1 X104.181 Y72.556 E15.59395
G1 X104.804 Y72.837 E15.64169
G1 X105.389 Y73.189 E15.68937
G1 X106.134 Y73.793 E15.75636
G1 X108.276 Y75.845 E15.96355
G1 X110.267 Y77.646 E16.15106
G1 X112.279 Y79.366 E16.33594
G1 X114.366 Y81.047 E16.52312
G1 X116.485 Y82.658 E16.70904
G1 X118.634 Y84.199 E16.89374
G1 X120.858 Y85.7 E17.08115
G1 X123.101 Y87.123 E17.26668
G1 X125.374 Y88.477 E17.45148
G1 X127.72 Y89.787 E17.63915
G1 X130.088 Y91.021 E17.82566
G1 X132.434 Y92.161 E18.00784
G1 X133.414 Y92.621 E18.08345
G1 X134.015 Y92.947 E18.13121
G1 X134.573 Y93.341 E18.17892
G1 X135.082 Y93.798 E18.2267
G1 X135.533 Y94.31 E18.27435
G1 X135.922 Y94.872 E18.32209
G1 X136.242 Y95.476 E18.36984
G1 X136.49 Y96.112 E18.41752
G1 X136.662 Y96.774 E18.46529
G1 X136.771 Y97.759 E18.53451
G1 X136.796 Y98.739 E18.60298
G1 X136.798 Y98.87 E18.61213
G1 X136.841 Y113.018 E19.60032
G1 X136.841 Y113.1 E19.60605
G1 X136.833 Y113.828 E19.6569
G1 X136.785 Y114.51 E19.70465
G1 X136.658 Y115.181 E19.75235
G1 X136.454 Y115.833 E19.80007
G1 X136.175 Y116.457 E19.84781
G1 X135.825 Y117.044 E19.89554
G1 X135.409 Y117.585 E19.94321
G1 X134.933 Y118.075 E19.99093
G1 X134.402 Y118.506 E20.03869
G1 X133.87 Y118.846 E20.08279
G1 X133.582 Y119.009 E20.10591
G1 X133.498 Y119.056 E20.11263
G1 X131.677 Y120.047 E20.25743
G1 X129.378 Y121.387 E20.4433
G1 X127.129 Y122.784 E20.62822
G1 X124.89 Y124.262 E20.8156
G1 X122.719 Y125.788 E21.00095
G1 X120.582 Y127.379 E21.18704
G1 X118.499 Y129.026 E21.37251
G1 X116.45 Y130.741 E21.55914
G1 X114.197 Y132.743 E21.76966
G1 X114.17 Y132.767 E21.77218
G1 X114.08 Y132.846 E21.78055
G1 X113.541 Y133.266 E21.82827
G1 X112.956 Y133.62 E21.87603
G1 X112.335 Y133.903 E21.9237
G1 X111.684 Y134.112 E21.97145
G1 X110.761 Y134.273 E22.03689
G1 X109.999 Y134.343 E22.09034
G1 X107.354 Y134.624 E22.27612
G1 X104.728 Y134.979 E22.46121
G1 X102.091 Y135.412 E22.64786
G1 X99.454 Y135.922 E22.83546
G1 X96.863 Y136.499 E23.02086
G1 X94.333 Y137.138 E23.20312
G1 X91.834 Y137.842 E23.38446
G1 X91.032 Y138.081 E23.44291
G1 X90.367 Y138.237 E23.49062
G1 X89.611 Y138.319 E23.54374
G1 X89.398 Y138.328 E23.55863
G1 X89.2 Y138.333 E23.57246
G1 X88.963 Y138.335 E23.58901
G1 X85.338 Y138.335 E23.84221
G1 X85.254 Y138.334 E23.84808
G1 X84.556 Y138.324 E23.89683
G1 X83.875 Y138.275 E23.94452
G1 X83.204 Y138.146 E23.99225
G1 X82.331 Y137.849 E24.05665
G1 X81.685 Y137.571 E24.10578
G1 X81.589 Y137.529 E24.11309
G1 X80.362 Y136.975 E24.20713
G1 X77.818 Y135.91 E24.39976
G1 X77.63 Y135.828 E24.41408
G1 X77.567 Y135.799 E24.41893
G1 X76.964 Y135.477 E24.46667
G1 X76.403 Y135.088 E24.51436
G1 X75.891 Y134.635 E24.5621
G1 X75.436 Y134.126 E24.60979
G1 X75.043 Y133.567 E24.65752
G1 X74.718 Y132.966 E24.70524
G1 X74.465 Y132.331 E24.75298
G1 X74.289 Y131.671 E24.80069
G1 X74.171 Y130.659 E24.87186
G1 X74.162 Y130.34 E24.89415
G1 X74.16 Y130.175 E24.90567
G1 X74.16 Y118.212 E25.74124
G1 X74.161 Y118.129 E25.74704
G1 X74.187 Y116.298 E25.87494
G1 X74.188 Y116.218 E25.88053
G1 X74.207 Y115.54 E25.9279
G1 X74.205 Y112.859 E26.11516
G1 X74.162 Y111.074 E26.23987
G1 X74.16 Y110.933 E26.24972
G1 X74.16 Y97.943 E27.15703
G1 X74.161 Y97.86 E27.16282
G1 X74.171 Y97.158 E27.21186
G1 X74.22 Y96.476 E27.25962
G1 X74.349 Y95.805 E27.30734
G1 X74.556 Y95.154 E27.35506
G1 X74.837 Y94.531 E27.40279
G1 X75.189 Y93.946 E27.45048
G1 X75.606 Y93.405 E27.49819
G1 X76.213 Y92.804 E27.55785
G1 X76.747 Y92.347 E27.60694
G1 X76.811 Y92.292 E27.61284
G1 X77.849 Y91.429 E27.70712
G1 X79.832 Y89.684 E27.89162
G1 X81.755 Y87.893 E28.07516
G1 X83.673 Y86 E28.26339
G1 X85.504 Y84.09 E28.44819
G1 X87.305 Y82.1 E28.63566
G1 X89.034 Y80.08 E28.82137
G1 X90.706 Y78.007 E29.00739
G1 X92.312 Y75.898 E29.19255
G1 X92.58 Y75.525 E29.22463
G1 X92.623 Y75.466 E29.22973
G1 X93.295 Y74.556 E29.30874
M204 S3000
M205 X10 Y10
G0 F3000 X93.746 Y74.888
M204 S1800
M205 X8 Y8
G1 F2400 X94.163 Y74.391 E29.35405
G1 X94.638 Y73.948 E29.39942
G1 X95.164 Y73.567 E29.44478
G1 X95.733 Y73.253 E29.49017
G1 X96.336 Y73.012 E29.53553
G1 X96.964 Y72.846 E29.5809
G1 X97.602 Y72.759 E29.62588
G1 X97.939 Y72.734 E29.64948
G1 X98.33 Y72.72 E29.67681
G1 X101.393 Y72.72 E29.89075
G1 X101.468 Y72.721 E29.89598
G1 X102.169 Y72.731 E29.94495
G1 X102.817 Y72.78 E29.99034
G1 X103.454 Y72.908 E30.03572
G1 X104.07 Y73.114 E30.08109
G1 X104.656 Y73.393 E30.12642
G1 X105.204 Y73.743 E30.17184
G1 X105.747 Y74.197 E30.22127
G1 X107.927 Y76.285 E30.43211
G1 X109.886 Y78.057 E30.61662
G1 X111.931 Y79.805 E30.80452
G1 X114.012 Y81.481 E30.99115
G1 X116.138 Y83.099 E31.17776
G1 X118.337 Y84.675 E31.36672
G1 X120.538 Y86.161 E31.55221
G1 X122.807 Y87.6 E31.73987
G1 X125.092 Y88.961 E31.92564
G1 X127.466 Y90.287 E32.11557
G1 X129.806 Y91.506 E32.29985
G1 X132.197 Y92.668 E32.48553
G1 X133.177 Y93.128 E32.56115
G1 X133.746 Y93.44 E32.60647
G1 X134.274 Y93.819 E32.65187
G1 X134.751 Y94.261 E32.69729
G1 X135.17 Y94.757 E32.74264
G1 X135.525 Y95.301 E32.78801
G1 X135.81 Y95.885 E32.8334
G1 X136.021 Y96.499 E32.87875
G1 X136.156 Y97.134 E32.92409
G1 X136.211 Y97.773 E32.96889
G1 X136.236 Y98.753 E33.03736
G1 X136.238 Y98.872 E33.04567
G1 X136.281 Y113.02 E34.03386
G1 X136.281 Y113.094 E34.03903
G1 X136.273 Y113.822 E34.08988
G1 X136.226 Y114.47 E34.13526
G1 X136.099 Y115.107 E34.18063
G1 X135.896 Y115.724 E34.226
G1 X135.618 Y116.311 E34.27136
G1 X135.27 Y116.86 E34.31676
G1 X134.858 Y117.362 E34.36212
G1 X134.387 Y117.809 E34.40748
G1 X133.594 Y118.359 E34.47488
G1 X133.306 Y118.522 E34.498
G1 X133.23 Y118.564 E34.50406
G1 X131.405 Y119.557 E34.64918
G1 X129.104 Y120.899 E34.83523
G1 X126.818 Y122.318 E35.02316
G1 X124.578 Y123.797 E35.21064
G1 X122.398 Y125.329 E35.39675
G1 X120.221 Y126.951 E35.58637
G1 X118.133 Y128.601 E35.77225
G1 X116.096 Y130.305 E35.95774
G1 X113.825 Y132.324 E36.16998
G1 X113.8 Y132.346 E36.17231
G1 X113.71 Y132.425 E36.18067
G1 X113.196 Y132.823 E36.22608
G1 X112.638 Y133.154 E36.27139
G1 X112.043 Y133.415 E36.31677
G1 X111.42 Y133.6 E36.36217
G1 X110.71 Y133.715 E36.4124
G1 X109.948 Y133.785 E36.46585
G1 X107.289 Y134.068 E36.65262
G1 X104.632 Y134.427 E36.83989
G1 X101.997 Y134.859 E37.02639
G1 X99.37 Y135.367 E37.21328
G1 X96.714 Y135.959 E37.40334
G1 X94.188 Y136.596 E37.5853
G1 X91.658 Y137.31 E37.76891
G1 X90.872 Y137.544 E37.82619
G1 X90.239 Y137.691 E37.87158
G1 X89.587 Y137.759 E37.91737
G1 X89.374 Y137.768 E37.93226
G1 X89.196 Y137.773 E37.94469
G1 X88.959 Y137.775 E37.96125
G1 X85.338 Y137.775 E38.21416
G1 X85.262 Y137.774 E38.21947
G1 X84.564 Y137.764 E38.26823
G1 X83.917 Y137.715 E38.31355
G1 X83.28 Y137.587 E38.35893
G1 X82.553 Y137.335 E38.41267
G1 X81.907 Y137.057 E38.46179
G1 X81.819 Y137.018 E38.46852
G1 X80.618 Y136.475 E38.56058
G1 X78.034 Y135.394 E38.75622
G1 X77.864 Y135.319 E38.76919
G1 X77.801 Y135.29 E38.77404
G1 X77.229 Y134.983 E38.81938
G1 X76.699 Y134.607 E38.86477
G1 X76.219 Y134.17 E38.91011
G1 X75.796 Y133.677 E38.95548
G1 X75.437 Y133.135 E39.00089
G1 X75.147 Y132.554 E39.04624
G1 X74.931 Y131.941 E39.09164
G1 X74.792 Y131.307 E39.13697
G1 X74.731 Y130.643 E39.18355
G1 X74.722 Y130.324 E39.20584
G1 X74.72 Y130.175 E39.21624
G1 X74.72 Y118.212 E40.05182
G1 X74.721 Y118.137 E40.05705
G1 X74.747 Y116.306 E40.18496
G1 X74.748 Y116.234 E40.18999
G1 X74.767 Y115.556 E40.23736
G1 X74.765 Y112.844 E40.42678
G1 X74.722 Y111.06 E40.55142
G1 X74.72 Y110.933 E40.5603
G1 X74.72 Y97.943 E41.4676
G1 X74.721 Y97.868 E41.47284
G1 X74.731 Y97.166 E41.52188
G1 X74.78 Y96.518 E41.56727
G1 X74.908 Y95.881 E41.61265
G1 X75.114 Y95.265 E41.65801
G1 X75.393 Y94.679 E41.70335
G1 X75.743 Y94.131 E41.74876
G1 X76.157 Y93.631 E41.7941
G1 X76.577 Y93.229 E41.83471
G1 X77.111 Y92.772 E41.8838
G1 X77.169 Y92.723 E41.88911
G1 X78.198 Y91.868 E41.98255
G1 X80.199 Y90.106 E42.16877
G1 X82.169 Y88.271 E42.35682
G1 X84.075 Y86.391 E42.54381
G1 X85.91 Y84.476 E42.72906
G1 X87.733 Y82.462 E42.9188
G1 X89.452 Y80.454 E43.10342
G1 X91.139 Y78.361 E43.29118
G1 X92.782 Y76.204 E43.48057
G1 X93.035 Y75.852 E43.51085
G1 X93.074 Y75.798 E43.5155
G1 X93.746 Y74.888 E43.59451
M204 S3000
M205 X10 Y10
G1 F2400 E37.59451
G0 F3000 X97.339 Y116.759
G0 X100.436 Y117.446
M204 S1800
M205 X8 Y8
;TYPE:SUPPORT
G1 F2400 E43.59451
G1 F1500 X109.563 Y117.446 E44.232
G1 X109.72 Y117.621 E44.24842
G1 X109.72 Y127.92 E44.96777
G1 X109.82 Y128.02 E44.97765
G1 X109.82 Y128.186 E44.98924
G1 X100.18 Y128.186 E45.66256
G1 X100.18 Y128.02 E45.67415
G1 X100.28 Y127.92 E45.68403
G1 X100.28 Y117.62 E46.40345
G1 X100.436 Y117.446 E46.41977
M204 S3000
M205 X10 Y10
G0 F3000 X104.561 Y119.02
M204 S1800
M205 X8 Y8
G1 F1500 X104.108 Y119.141 E46.45252
G1 X103.632 Y119.379 E46.48969
G1 X103.02 Y119.901 E46.54587
G1 X102.603 Y120.707 E46.60926
G1 X102.515 Y121.366 E46.6557
G1 X102.548 Y122.043 E46.70304
G1 X102.896 Y122.82 E46.7625
G1 X103.22 Y123.195 E46.79712
G1 X103.558 Y123.5 E46.82892
G1 X104.234 Y123.875 E46.88291
G1 X105.211 Y123.973 E46.95149
G1 X105.964 Y123.775 E47.00588
G1 X106.63 Y123.373 E47.06021
G1 X107.222 Y122.678 E47.12398
G1 X107.509 Y121.692 E47.1957
G1 X107.427 Y120.905 E47.25097
G1 X107.261 Y120.434 E47.28585
G1 X107.059 Y120.07 E47.31493
G1 X106.718 Y119.66 E47.35217
G1 X106.386 Y119.41 E47.3812
G1 X105.993 Y119.181 E47.41297
G1 X105.374 Y118.99 E47.45822
G1 X104.932 Y118.99 E47.48909
G1 X104.561 Y119.02 E47.51509
M204 S3000
M205 X10 Y10
G0 F3000 X104 Y118.95
M204 S1800
M205 X8 Y8
G1 F1500 X104 Y117.666 E47.60477
M204 S3000
M205 X10 Y10
G0 F3000 X107.803 Y117.665
M204 S1800
M205 X8 Y8
G1 F1500 X109.498 Y118.644 E47.74149
M204 S3000
M205 X10 Y10
G0 F3000 X109.497 Y121.533
M204 S1800
M205 X8 Y8
G1 F1500 X107.436 Y122.723 E47.90771
M204 S3000
M205 X10 Y10
G0 F3000 X104.937 Y124.166
M204 S1800
M205 X8 Y8
G1 F1500 X100.499 Y126.728 E48.26564
M204 S3000
M205 X10 Y10
G0 F3000 X104 Y127.966
M204 S1800
M205 X8 Y8
G1 F1500 X104 Y123.998 E48.54279
M204 S3000
M205 X10 Y10
G0 F3000 X100.499 Y122.686
M204 S1800
M205 X8 Y8
G1 F1500 X109.499 Y127.882 E49.26865
M204 S3000
M205 X10 Y10
G1 F2400 E43.26865
G0 F3000 X94.11 Y131.166
G0 X89.234 Y131.485
M204 S1800
M205 X8 Y8
G1 F2400 E49.26865
G1 F1500 X89.205 Y132.215 E49.31967
G1 X84.794 Y132.215 E49.62777
G1 X84.792 Y131.485 E49.67875
G1 X89.234 Y131.485 E49.98901
M204 S3000
M205 X10 Y10
G0 F3000 X88 Y131.705
M204 S1800
M205 X8 Y8
G1 F1500 X88 Y131.995 E50.00927
M204 S3000
M205 X10 Y10
