;FLAVOR:Marlin
;TIME:724
;Filament used: 1.01787m
;Layer height: 0.3
;MINX:73.6
;MINY:91.6
;MINZ:0.3
;MAXX:118.4
;MAXY:124.4
;MAXZ:14.7
;Generated with Cura_SteamEngine 4.4.1
M82 ;absolute extrusion mode
G21 ;metric values
G90 ;absolute positioning
M82 ;set extruder to absolute mode
M107 ;start with the fan off

M104 S200 T0 ; start heating T0 to what is set in Cura
M140 S60 ; start heating the bed to what is set in Cura
M190 S60 ; start heating the bed to what is set in Cura
M109 S200 T0 ; start heating T0 to what is set in Cura

G28 X0 Y0 ;move X/Y to min endstops
G28 Z0 ;move Z to min endstops
G1 Z15.0 F2400 ;move the platform down 15mm
G92 E0 ;zero the extruded length
G1 F200 E3 ;extrude 3mm of feed stock
G92 E0 ;zero the extruded length again
G1 F2400
G0 Y20 F2400
M117 Printing...
G5
G92 E0
G92 E0
G1 F2400 E-6
;LAYER_COUNT:49
;LAYER:0
M106 S255
M204 S3000
M205 X10 Y10
G1 F600 Z0.375
G0 F3000 X76.077 Y98.96 Z0.375
M204 S1800
M205 X8 Y8
;TYPE:SKIRT
G1 F600 Z0.3
G1 F2400 E0
G1 X76.665 Y98.553 E0.04995
G1 X77.295 Y98.213 E0.09995
G1 X77.959 Y97.947 E0.14991
G1 X78.478 Y97.795 E0.18768
G1 X81.177 Y97.129 E0.38185
G1 X83.733 Y96.424 E0.56705
G1 X86.238 Y95.654 E0.75009
G1 X88.746 Y94.804 E0.93505
G1 X91.254 Y93.876 E1.12184
G1 X93.685 Y92.898 E1.30486
G1 X94.684 Y92.462 E1.38099
G1 X94.773 Y92.424 E1.38775
G1 X95.514 Y92.114 E1.44385
G1 X96.188 Y91.875 E1.4938
G1 X96.885 Y91.713 E1.54378
G1 X97.652 Y91.627 E1.59769
G1 X97.998 Y91.609 E1.62189
G1 X98.33 Y91.6 E1.64509
G1 X111.293 Y91.6 E2.5505
G1 X111.385 Y91.601 E2.55693
G1 X112.083 Y91.611 E2.60569
G1 X112.796 Y91.661 E2.65561
G1 X113.5 Y91.79 E2.7056
G1 X114.184 Y91.998 E2.75553
G1 X114.841 Y92.28 E2.80547
G1 X115.463 Y92.634 E2.85546
G1 X116.041 Y93.055 E2.9054
G1 X116.569 Y93.538 E2.95539
G1 X117.039 Y94.076 E3.00528
G1 X117.447 Y94.664 E3.05527
G1 X117.786 Y95.294 E3.10524
G1 X118.053 Y95.957 E3.15516
G1 X118.244 Y96.647 E3.20517
G1 X118.357 Y97.353 E3.25511
G1 X118.388 Y97.83 E3.2885
G1 X118.397 Y98.15 E3.31085
G1 X118.4 Y98.33 E3.32343
G1 X118.4 Y111.264 E4.22682
G1 X118.399 Y111.352 E4.23297
G1 X118.389 Y112.079 E4.28375
G1 X118.34 Y112.793 E4.33374
G1 X118.211 Y113.496 E4.38366
G1 X118.004 Y114.181 E4.43364
G1 X117.722 Y114.838 E4.48358
G1 X117.368 Y115.46 E4.53357
G1 X116.948 Y116.038 E4.58347
G1 X116.465 Y116.566 E4.63345
G1 X115.927 Y117.037 E4.6834
G1 X115.339 Y117.445 E4.73338
G1 X114.709 Y117.785 E4.78339
G1 X114.046 Y118.052 E4.83331
G1 X113.522 Y118.205 E4.87144
G1 X110.823 Y118.871 E5.06561
G1 X108.267 Y119.576 E5.2508
G1 X105.762 Y120.346 E5.43384
G1 X103.254 Y121.196 E5.6188
G1 X100.746 Y122.124 E5.80559
G1 X98.315 Y123.102 E5.98861
G1 X97.323 Y123.535 E6.06421
G1 X97.235 Y123.573 E6.0709
G1 X96.487 Y123.886 E6.12754
G1 X95.812 Y124.125 E6.17755
G1 X95.116 Y124.287 E6.22747
G1 X94.348 Y124.373 E6.28144
G1 X94.002 Y124.391 E6.30564
G1 X93.67 Y124.4 E6.32884
G1 X80.707 Y124.4 E7.23426
G1 X80.624 Y124.399 E7.24005
G1 X79.926 Y124.39 E7.28881
G1 X79.213 Y124.341 E7.33873
G1 X78.509 Y124.213 E7.38871
G1 X77.824 Y124.007 E7.43867
G1 X77.167 Y123.725 E7.48861
G1 X76.545 Y123.372 E7.53856
G1 X75.966 Y122.952 E7.58852
G1 X75.437 Y122.47 E7.63851
G1 X74.966 Y121.932 E7.68845
G1 X74.558 Y121.345 E7.73838
G1 X74.218 Y120.715 E7.78838
G1 X73.95 Y120.052 E7.83833
G1 X73.758 Y119.363 E7.88829
G1 X73.644 Y118.657 E7.93824
G1 X73.611 Y118.162 E7.97289
G1 X73.602 Y117.825 E7.99643
G1 X73.6 Y117.654 E8.00838
G1 X73.6 Y104.698 E8.91331
G1 X73.601 Y104.605 E8.9198
G1 X73.611 Y103.916 E8.96793
G1 X73.661 Y103.203 E9.01786
G1 X73.791 Y102.499 E9.06786
G1 X73.998 Y101.815 E9.11777
G1 X74.28 Y101.158 E9.16771
G1 X74.634 Y100.536 E9.2177
G1 X75.055 Y99.958 E9.26764
G1 X75.538 Y99.43 E9.31763
G1 X76.077 Y98.96 E9.36757
M204 S3000
M205 X10 Y10
G0 F3000 X76.618 Y99.255
M204 S1800
M205 X8 Y8
G1 F2400 X77.196 Y98.892 E9.41525
G1 X77.813 Y98.598 E9.46298
G1 X78.612 Y98.339 E9.52165
G1 X81.316 Y97.672 E9.71618
G1 X83.87 Y96.967 E9.90124
G1 X86.404 Y96.188 E10.0864
G1 X88.955 Y95.324 E10.27452
G1 X91.437 Y94.405 E10.45938
G1 X93.91 Y93.41 E10.64557
G1 X94.908 Y92.975 E10.72161
G1 X94.989 Y92.94 E10.72777
G1 X95.73 Y92.63 E10.78387
G1 X96.375 Y92.404 E10.83161
G1 X97.041 Y92.255 E10.87928
G1 X97.681 Y92.186 E10.92424
G1 X98.027 Y92.168 E10.94844
G1 X98.33 Y92.16 E10.96961
G1 X111.293 Y92.16 E11.87503
G1 X111.377 Y92.161 E11.88089
G1 X112.075 Y92.171 E11.92965
G1 X112.756 Y92.22 E11.97734
G1 X113.427 Y92.349 E12.02506
G1 X114.078 Y92.556 E12.07278
G1 X114.701 Y92.837 E12.12051
G1 X115.287 Y93.189 E12.16826
G1 X115.827 Y93.607 E12.21596
G1 X116.315 Y94.085 E12.26367
G1 X116.744 Y94.617 E12.3114
G1 X117.108 Y95.195 E12.35911
G1 X117.402 Y95.812 E12.40685
G1 X117.621 Y96.459 E12.45456
G1 X117.764 Y97.127 E12.50227
G1 X117.829 Y97.846 E12.5527
G1 X117.838 Y98.166 E12.57506
G1 X117.84 Y98.33 E12.58651
G1 X117.84 Y111.264 E13.48991
G1 X117.839 Y111.344 E13.49549
G1 X117.829 Y112.071 E13.54628
G1 X117.78 Y112.753 E13.59403
G1 X117.652 Y113.424 E13.64175
G1 X117.445 Y114.075 E13.68946
G1 X117.165 Y114.698 E13.73717
G1 X116.813 Y115.284 E13.78491
G1 X116.396 Y115.825 E13.83262
G1 X115.918 Y116.313 E13.88033
G1 X115.386 Y116.742 E13.92807
G1 X114.808 Y117.106 E13.97578
G1 X114.191 Y117.4 E14.02352
G1 X113.388 Y117.661 E14.08249
G1 X110.684 Y118.328 E14.27702
G1 X108.13 Y119.033 E14.46208
G1 X105.596 Y119.812 E14.64724
G1 X103.045 Y120.676 E14.83536
G1 X100.563 Y121.595 E15.02022
G1 X98.103 Y122.585 E15.20543
G1 X97.1 Y123.022 E15.28185
G1 X97.018 Y123.056 E15.28805
G1 X96.27 Y123.369 E15.34469
G1 X95.626 Y123.596 E15.39238
G1 X94.959 Y123.745 E15.44011
G1 X94.319 Y123.814 E15.48508
G1 X93.973 Y123.832 E15.50928
G1 X93.67 Y123.84 E15.53045
G1 X80.632 Y123.84 E16.4411
G1 X79.934 Y123.831 E16.48986
G1 X79.252 Y123.782 E16.53762
G1 X78.581 Y123.654 E16.58533
G1 X77.93 Y123.448 E16.63302
G1 X77.306 Y123.168 E16.68079
G1 X76.72 Y122.817 E16.7285
G1 X76.179 Y122.4 E16.77621
G1 X75.69 Y121.922 E16.82397
G1 X75.261 Y121.391 E16.87165
G1 X74.896 Y120.813 E16.9194
G1 X74.602 Y120.197 E16.96707
G1 X74.381 Y119.55 E17.01483
G1 X74.237 Y118.882 E17.06256
G1 X74.171 Y118.147 E17.1141
G1 X74.162 Y117.81 E17.13765
G1 X74.16 Y117.654 E17.14854
G1 X74.16 Y104.698 E18.05347
G1 X74.161 Y104.613 E18.05941
G1 X74.171 Y103.924 E18.10754
G1 X74.22 Y103.243 E18.15523
G1 X74.35 Y102.572 E18.20297
G1 X74.556 Y101.921 E18.25066
G1 X74.837 Y101.298 E18.29839
G1 X75.189 Y100.712 E18.34614
G1 X75.607 Y100.172 E18.39384
G1 X76.086 Y99.684 E18.4416
G1 X76.618 Y99.255 E18.48933
M204 S3000
M205 X10 Y10
G0 F3000 X76.631 Y99.952
M204 S1800
M205 X8 Y8
G1 F2400 X77.155 Y99.568 E18.53471
G1 X77.722 Y99.251 E18.58008
G1 X78.323 Y99.006 E18.62541
G1 X78.746 Y98.883 E18.65618
G1 X81.421 Y98.223 E18.84862
G1 X84.048 Y97.498 E19.03897
G1 X86.604 Y96.712 E19.22574
G1 X89.109 Y95.864 E19.41046
G1 X91.663 Y94.919 E19.60067
G1 X94.136 Y93.924 E19.78686
G1 X95.132 Y93.489 E19.86277
G1 X95.205 Y93.457 E19.86834
G1 X95.946 Y93.147 E19.92444
G1 X96.56 Y92.934 E19.96983
G1 X97.195 Y92.797 E20.0152
G1 X97.71 Y92.745 E20.05136
G1 X98.056 Y92.727 E20.07556
G1 X98.33 Y92.72 E20.0947
G1 X111.293 Y92.72 E21.00012
G1 X111.369 Y92.721 E21.00543
G1 X112.067 Y92.731 E21.05419
G1 X112.714 Y92.78 E21.09951
G1 X113.351 Y92.908 E21.14489
G1 X113.967 Y93.114 E21.19025
G1 X114.554 Y93.394 E21.23568
G1 X115.101 Y93.743 E21.281
G1 X115.602 Y94.157 E21.32639
G1 X116.047 Y94.63 E21.37175
G1 X116.432 Y95.154 E21.41717
G1 X116.749 Y95.721 E21.46254
G1 X116.994 Y96.322 E21.50787
G1 X117.163 Y96.949 E21.55323
G1 X117.269 Y97.862 E21.61743
G1 X117.278 Y98.182 E21.63979
G1 X117.28 Y98.33 E21.65013
G1 X117.28 Y111.337 E22.55862
G1 X117.27 Y112.064 E22.6094
G1 X117.221 Y112.711 E22.65472
G1 X117.093 Y113.348 E22.7001
G1 X116.887 Y113.965 E22.74554
G1 X116.608 Y114.551 E22.79087
G1 X116.259 Y115.099 E22.83625
G1 X115.845 Y115.599 E22.88159
G1 X115.372 Y116.045 E22.927
G1 X114.849 Y116.43 E22.97236
G1 X114.282 Y116.748 E23.01776
G1 X113.681 Y116.993 E23.06309
G1 X113.254 Y117.117 E23.09415
G1 X110.579 Y117.777 E23.28659
G1 X107.952 Y118.502 E23.47694
G1 X105.396 Y119.288 E23.66371
G1 X102.891 Y120.136 E23.84843
G1 X100.337 Y121.081 E24.03864
G1 X97.877 Y122.071 E24.22385
G1 X96.876 Y122.508 E24.30014
G1 X96.802 Y122.54 E24.30577
G1 X96.054 Y122.853 E24.36241
G1 X95.441 Y123.066 E24.40773
G1 X94.805 Y123.203 E24.45318
G1 X94.29 Y123.255 E24.48933
G1 X93.944 Y123.273 E24.51353
G1 X93.67 Y123.28 E24.53267
G1 X80.639 Y123.28 E25.44284
G1 X79.941 Y123.271 E25.4916
G1 X79.293 Y123.222 E25.53699
G1 X78.656 Y123.095 E25.58235
G1 X78.04 Y122.89 E25.6277
G1 X77.453 Y122.611 E25.67309
G1 X76.905 Y122.262 E25.71847
G1 X76.404 Y121.849 E25.76382
G1 X75.957 Y121.377 E25.80923
G1 X75.572 Y120.854 E25.85459
G1 X75.254 Y120.287 E25.89999
G1 X75.008 Y119.686 E25.94535
G1 X74.838 Y119.059 E25.99073
G1 X74.731 Y118.132 E26.0559
G1 X74.722 Y117.795 E26.07945
G1 X74.72 Y117.654 E26.0893
G1 X74.72 Y104.698 E26.99423
G1 X74.721 Y104.621 E26.99961
G1 X74.731 Y103.932 E27.04774
G1 X74.78 Y103.285 E27.09306
G1 X74.908 Y102.648 E27.13844
G1 X75.114 Y102.032 E27.18381
G1 X75.394 Y101.445 E27.22923
G1 X75.744 Y100.898 E27.27459
G1 X76.158 Y100.398 E27.31993
G1 X76.631 Y99.952 E27.36534
M204 S3000
M205 X10 Y10
G1 F2400 E21.36534
;MESH:m4_nut_mount_v3.stl
G0 F3000 X80.854 Y103.335
G0 X80.854 Y104.854
G0 X85.547 Y107.496
M204 S1800
M205 X8 Y8
;TYPE:WALL-INNER
G1 F2400 E27.36534
G1 F1500 X84.886 Y107.853 E27.41781
G1 X84.318 Y108.318 E27.46908
G1 X83.846 Y108.893 E27.52104
G1 X83.496 Y109.549 E27.57297
G1 X83.28 Y110.26 E27.62487
G1 X83.207 Y111 E27.67681
G1 X83.28 Y111.74 E27.72875
G1 X83.496 Y112.451 E27.78065
G1 X83.846 Y113.107 E27.83258
G1 X84.318 Y113.682 E27.88454
G1 X84.893 Y114.154 E27.9365
G1 X85.549 Y114.504 E27.98844
G1 X86.26 Y114.72 E28.04034
G1 X87 Y114.793 E28.09227
G1 X87.74 Y114.72 E28.14421
G1 X88.451 Y114.504 E28.19611
G1 X89.107 Y114.154 E28.24805
G1 X89.683 Y113.68 E28.30015
G1 X90.16 Y113.097 E28.35276
G1 X90.509 Y112.439 E28.40479
G1 X90.721 Y111.727 E28.45667
G1 X90.793 Y110.988 E28.50853
G1 X90.718 Y110.249 E28.56042
G1 X90.499 Y109.535 E28.61258
G1 X90.144 Y108.882 E28.66449
G1 X89.673 Y108.31 E28.71625
G1 X89.096 Y107.84 E28.76823
G1 X88.438 Y107.491 E28.82025
G1 X87.726 Y107.279 E28.87214
G1 X86.988 Y107.207 E28.92393
G1 X86.26 Y107.28 E28.97503
G1 X85.547 Y107.496 E29.02707
M204 S3000
M205 X10 Y10
G0 F3000 X84.281 Y109.184
G0 X81.4 Y116.6
M204 S1800
M205 X8 Y8
G1 F1500 X81.4 Y105.4 E29.80935
G1 X92.6 Y105.4 E30.59162
G1 X92.6 Y116.6 E31.3739
G1 X81.4 Y116.6 E32.15618
M204 S3000
M205 X10 Y10
G0 F3000 X80.84 Y117.16
M204 S1800
M205 X8 Y8
G1 F1500 X80.84 Y104.84 E33.01669
G1 X93.16 Y104.84 E33.87719
G1 X93.16 Y117.16 E34.7377
G1 X80.84 Y117.16 E35.59821
M204 S3000
M205 X10 Y10
G0 F3000 X80.91 Y117.09
G0 X88.251 Y114.02
G0 X89.312 Y113.311
G0 X90.025 Y112.241
G0 X90.27 Y110.989
G0 X90.072 Y109.715
G0 X89.98 Y109.753
M204 S1800
M205 X8 Y8
G1 F1500 X89.678 Y109.197 E35.6424
G1 X89.276 Y108.709 E35.68656
G1 X88.785 Y108.309 E35.73079
G1 X88.225 Y108.012 E35.77507
G1 X87.618 Y107.831 E35.81931
G1 X86.989 Y107.77 E35.86345
G1 X86.37 Y107.832 E35.9069
G1 X85.763 Y108.016 E35.9512
G1 X85.199 Y108.32 E35.99595
G1 X84.716 Y108.716 E36.03958
G1 X84.314 Y109.206 E36.08385
G1 X84.016 Y109.764 E36.12803
G1 X83.832 Y110.37 E36.17227
G1 X83.77 Y111 E36.21648
G1 X83.832 Y111.63 E36.2607
G1 X84.016 Y112.236 E36.30493
G1 X84.314 Y112.794 E36.34912
G1 X84.716 Y113.284 E36.39339
G1 X85.206 Y113.686 E36.43765
G1 X85.764 Y113.984 E36.48184
G1 X86.37 Y114.168 E36.52607
G1 X87 Y114.23 E36.57029
G1 X87.63 Y114.168 E36.6145
G1 X88.236 Y113.984 E36.65874
G1 X88.794 Y113.686 E36.70292
G1 X89.284 Y113.283 E36.74724
G1 X89.691 Y112.785 E36.79216
G1 X89.988 Y112.226 E36.83637
G1 X90.169 Y111.619 E36.88061
G1 X90.23 Y110.989 E36.92482
G1 X90.166 Y110.36 E36.96898
G1 X89.98 Y109.753 E37.01332
M204 S3000
M205 X10 Y10
G0 F3000 X89.461 Y109.971
M204 S1800
M205 X8 Y8
;TYPE:WALL-OUTER
G1 F1500 X89.212 Y109.512 E37.0498
G1 X88.879 Y109.108 E37.08637
G1 X88.474 Y108.778 E37.12285
G1 X88.012 Y108.533 E37.15938
G1 X87.51 Y108.383 E37.19597
G1 X86.99 Y108.333 E37.23246
G1 X86.48 Y108.384 E37.26826
G1 X85.979 Y108.536 E37.30483
G1 X85.512 Y108.787 E37.34186
G1 X85.114 Y109.114 E37.37784
G1 X84.782 Y109.519 E37.41442
G1 X84.536 Y109.979 E37.45085
G1 X84.384 Y110.48 E37.48742
G1 X84.333 Y111 E37.52391
G1 X84.384 Y111.52 E37.56041
G1 X84.536 Y112.021 E37.59698
G1 X84.782 Y112.481 E37.63341
G1 X85.114 Y112.886 E37.66999
G1 X85.519 Y113.218 E37.70657
G1 X85.979 Y113.464 E37.743
G1 X86.48 Y113.616 E37.77957
G1 X87 Y113.667 E37.81606
G1 X87.52 Y113.616 E37.85256
G1 X88.021 Y113.464 E37.88913
G1 X88.481 Y113.218 E37.92556
G1 X88.886 Y112.886 E37.96214
G1 X89.222 Y112.474 E37.99927
G1 X89.467 Y112.012 E38.0358
G1 X89.617 Y111.511 E38.07233
G1 X89.667 Y110.991 E38.10881
G1 X89.614 Y110.471 E38.14532
G1 X89.461 Y109.971 E38.18184
M204 S3000
M205 X10 Y10
G0 F3000 X89.366 Y109.796
G0 X89.946 Y109.482
G0 X90.205 Y110.353
G0 X90.208 Y111.626
G0 X89.724 Y112.807
G0 X88.816 Y113.719
G0 X80.91 Y117.09
G0 X80.28 Y117.72
M204 S1800
M205 X8 Y8
G1 F1500 X80.28 Y104.28 E39.12058
G1 X93.72 Y104.28 E40.05931
G1 X93.72 Y117.72 E40.99805
G1 X80.28 Y117.72 E41.93678
M204 S3000
M205 X10 Y10
G0 F3000 X80.28 Y117.52
G0 X80.91 Y117.09
G0 X81.95 Y116.05
M204 S1800
M205 X8 Y8
;TYPE:SKIN
G1 F1500 X81.95 Y105.95 E42.64223
G1 X92.05 Y105.95 E43.34767
G1 X92.05 Y116.05 E44.05312
G1 X81.95 Y116.05 E44.75857
M204 S3000
M205 X10 Y10
G0 F3000 X83.927 Y114.073
M204 S1800
M205 X8 Y8
G1 F1500 X84.586 Y114.614 E44.81812
G1 X85.337 Y115.015 E44.87759
G1 X86.152 Y115.262 E44.93707
G1 X87 Y115.345 E44.99658
G1 X87.848 Y115.262 E45.05609
G1 X88.663 Y115.015 E45.11557
G1 X89.414 Y114.614 E45.17504
G1 X90.074 Y114.071 E45.23473
G1 X90.62 Y113.403 E45.29499
G1 X91.02 Y112.649 E45.35461
G1 X91.263 Y111.833 E45.41408
G1 X91.345 Y110.986 E45.47351
G1 X91.26 Y110.139 E45.53297
G1 X91.008 Y109.321 E45.59275
G1 X90.602 Y108.573 E45.6522
G1 X90.062 Y107.919 E45.71144
G1 X89.402 Y107.38 E45.77096
G1 X88.648 Y106.98 E45.83057
G1 X87.832 Y106.737 E45.89004
G1 X86.988 Y106.655 E45.94927
G1 X86.152 Y106.738 E46.00795
G1 X85.335 Y106.985 E46.06756
G1 X84.578 Y107.394 E46.12766
G1 X83.927 Y107.927 E46.18642
G1 X83.386 Y108.586 E46.24598
G1 X82.985 Y109.337 E46.30544
G1 X82.738 Y110.152 E46.36492
G1 X82.655 Y111 E46.42444
G1 X82.738 Y111.848 E46.48395
G1 X82.985 Y112.663 E46.54343
G1 X83.386 Y113.414 E46.60289
G1 X83.927 Y114.073 E46.66245
M204 S3000
M205 X10 Y10
G0 F3000 X82.527 Y115.789
M204 S1800
M205 X8 Y8
G1 F1500 X82.21 Y115.472 E46.69376
M204 S3000
M205 X10 Y10
G0 F3000 X82.21 Y114.68
M204 S1800
M205 X8 Y8
G1 F1500 X83.319 Y115.789 E46.8033
M204 S3000
M205 X10 Y10
G0 F3000 X84.111 Y115.789
M204 S1800
M205 X8 Y8
G1 F1500 X82.21 Y113.888 E46.99108
M204 S3000
M205 X10 Y10
G0 F3000 X82.21 Y113.096
M204 S1800
M205 X8 Y8
G1 F1500 X84.903 Y115.789 E47.25709
M204 S3000
M205 X10 Y10
G0 F3000 X85.074 Y115.168
M204 S1800
M205 X8 Y8
G1 F1500 X85.694 Y115.789 E47.31838
M204 S3000
M205 X10 Y10
G0 F3000 X86.227 Y115.529
M204 S1800
M205 X8 Y8
G1 F1500 X86.486 Y115.789 E47.34401
M204 S3000
M205 X10 Y10
G0 F3000 X87.087 Y115.597
M204 S1800
M205 X8 Y8
G1 F1500 X87.278 Y115.789 E47.36293
M204 S3000
M205 X10 Y10
G0 F3000 X87.807 Y115.526
M204 S1800
M205 X8 Y8
G1 F1500 X88.07 Y115.789 E47.38891
M204 S3000
M205 X10 Y10
G0 F3000 X88.43 Y115.357
M204 S1800
M205 X8 Y8
G1 F1500 X88.862 Y115.789 E47.43158
M204 S3000
M205 X10 Y10
G0 F3000 X88.997 Y115.131
M204 S1800
M205 X8 Y8
G1 F1500 X89.654 Y115.789 E47.49652
M204 S3000
M205 X10 Y10
G0 F3000 X90.446 Y115.789
M204 S1800
M205 X8 Y8
G1 F1500 X89.512 Y114.855 E47.58878
M204 S3000
M205 X10 Y10
G0 F3000 X89.955 Y114.506
M204 S1800
M205 X8 Y8
G1 F1500 X91.238 Y115.789 E47.71551
M204 S3000
M205 X10 Y10
G0 F3000 X91.79 Y115.549
M204 S1800
M205 X8 Y8
G1 F1500 X90.365 Y114.124 E47.85627
M204 S3000
M205 X10 Y10
G0 F3000 X90.721 Y113.688
M204 S1800
M205 X8 Y8
G1 F1500 X91.79 Y114.757 E47.96186
M204 S3000
M205 X10 Y10
G0 F3000 X91.79 Y113.965
