;FLAVOR:Marlin
;TIME:6423
;Filament used: 8.36198m
;Layer height: 0.3
;MINX:46.995
;MINY:46.995
;MINZ:0.2
;MAXX:163.005
;MAXY:163.005
;MAXZ:66.5
;Generated with Cura_SteamEngine 4.4.1
M140 S60
M105
M190 S60
M104 S200
M105
M109 S200
M82 ;absolute extrusion mode
G21 ;metric values
G90 ;absolute positioning
M82 ;set extruder to absolute mode
M107 ;start with the fan off
G28 X0 Y0 ;move X/Y to min endstops
G28 Z0 ;move Z to min endstops
G1 Z15.0 F2400 ;move the platform down 15mm
G92 E0 ;zero the extruded length
G1 F200 E3 ;extrude 3mm of feed stock
G92 E0 ;zero the extruded length again
G1 F2400
G0 Y20 F2400
M117 Printing...
G5
G92 E0
G92 E0
G1 F2400 E-6
;LAYER_COUNT:222
;LAYER:0
M106 S255
M204 S3000
M205 X10 Y10
G1 F600 Z0.275
G0 F3000 X48.928 Y48.83 Z0.275
M204 S1800
M205 X8 Y8
;TYPE:SKIRT
G1 F600 Z0.2
G1 F2400 E0
G1 X49.466 Y48.359 E0.0333
G1 X50.054 Y47.951 E0.06662
G1 X50.683 Y47.611 E0.09991
G1 X51.347 Y47.344 E0.13324
G1 X52.036 Y47.152 E0.16654
G1 X52.742 Y47.038 E0.19984
G1 X53.225 Y47.007 E0.22238
G1 X53.546 Y46.998 E0.23733
G1 X53.725 Y46.995 E0.24567
G1 X155.898 Y46.995 E5.00327
G1 X155.99 Y46.996 E5.00756
G1 X156.688 Y47.006 E5.04006
G1 X157.401 Y47.056 E5.07334
G1 X158.105 Y47.185 E5.10667
G1 X158.789 Y47.393 E5.13996
G1 X159.446 Y47.675 E5.17325
G1 X160.068 Y48.029 E5.20658
G1 X160.646 Y48.45 E5.23987
G1 X161.174 Y48.933 E5.2732
G1 X161.644 Y49.471 E5.30646
G1 X162.052 Y50.059 E5.33979
G1 X162.391 Y50.689 E5.3731
G1 X162.658 Y51.352 E5.40638
G1 X162.849 Y52.042 E5.43972
G1 X162.962 Y52.748 E5.47301
G1 X162.993 Y53.225 E5.49527
G1 X163.002 Y53.545 E5.51017
G1 X163.005 Y53.725 E5.51856
G1 X163.005 Y155.948 E10.27849
G1 X162.996 Y156.675 E10.31234
G1 X162.947 Y157.389 E10.34567
G1 X162.819 Y158.093 E10.37899
G1 X162.613 Y158.778 E10.41229
G1 X162.332 Y159.435 E10.44557
G1 X161.979 Y160.058 E10.47891
G1 X161.559 Y160.637 E10.51222
G1 X161.077 Y161.165 E10.54551
G1 X160.54 Y161.637 E10.5788
G1 X159.952 Y162.045 E10.61212
G1 X159.323 Y162.386 E10.64544
G1 X158.66 Y162.654 E10.67874
G1 X157.971 Y162.846 E10.71204
G1 X157.265 Y162.961 E10.74535
G1 X156.775 Y162.993 E10.76822
G1 X156.454 Y163.002 E10.78317
G1 X156.275 Y163.005 E10.79151
G1 X54.102 Y163.005 E15.54911
G1 X54.019 Y163.004 E15.55297
G1 X53.321 Y162.995 E15.58548
G1 X52.608 Y162.946 E15.61876
G1 X51.904 Y162.818 E15.65208
G1 X51.219 Y162.612 E15.68538
G1 X50.562 Y162.33 E15.71867
G1 X49.94 Y161.977 E15.75198
G1 X49.361 Y161.557 E15.78528
G1 X48.832 Y161.075 E15.81861
G1 X48.361 Y160.537 E15.8519
G1 X47.953 Y159.95 E15.88519
G1 X47.613 Y159.32 E15.91852
G1 X47.345 Y158.657 E15.95182
G1 X47.153 Y157.968 E15.98513
G1 X47.039 Y157.262 E16.01843
G1 X47.006 Y156.769 E16.04144
G1 X46.997 Y156.436 E16.05695
G1 X46.995 Y156.263 E16.065
G1 X46.995 Y54.069 E20.82358
G1 X46.996 Y53.982 E20.82764
G1 X47.005 Y53.317 E20.8586
G1 X47.054 Y52.604 E20.89188
G1 X47.183 Y51.9 E20.92521
G1 X47.39 Y51.216 E20.95849
G1 X47.672 Y50.558 E20.99182
G1 X48.025 Y49.936 E21.02512
G1 X48.445 Y49.358 E21.05839
G1 X48.928 Y48.83 E21.09171
M204 S3000
M205 X10 Y10
G0 F3000 X49.475 Y49.083
M204 S1800
M205 X8 Y8
G1 F2400 X50.007 Y48.654 E21.12354
G1 X50.585 Y48.289 E21.15537
G1 X51.202 Y47.995 E21.18719
G1 X51.848 Y47.775 E21.21897
G1 X52.516 Y47.632 E21.25078
G1 X53.24 Y47.566 E21.28463
G1 X53.561 Y47.557 E21.29958
G1 X53.725 Y47.555 E21.30722
G1 X155.898 Y47.555 E26.06482
G1 X155.982 Y47.556 E26.06874
G1 X156.68 Y47.566 E26.10124
G1 X157.361 Y47.615 E26.13303
G1 X158.032 Y47.744 E26.16485
G1 X158.683 Y47.951 E26.19666
G1 X159.306 Y48.232 E26.22848
G1 X159.892 Y48.584 E26.26031
G1 X160.432 Y49.002 E26.29211
G1 X160.92 Y49.48 E26.32392
G1 X161.349 Y50.012 E26.35574
G1 X161.713 Y50.59 E26.38755
G1 X162.007 Y51.207 E26.41937
G1 X162.226 Y51.854 E26.45118
G1 X162.369 Y52.522 E26.48299
G1 X162.434 Y53.241 E26.51661
G1 X162.443 Y53.561 E26.53151
G1 X162.445 Y53.725 E26.53915
G1 X162.445 Y155.941 E31.29875
G1 X162.436 Y156.668 E31.33261
G1 X162.387 Y157.35 E31.36445
G1 X162.259 Y158.021 E31.39626
G1 X162.054 Y158.673 E31.42808
G1 X161.774 Y159.296 E31.45989
G1 X161.424 Y159.882 E31.49167
G1 X161.007 Y160.424 E31.52351
G1 X160.53 Y160.913 E31.55532
G1 X159.999 Y161.342 E31.58711
G1 X159.421 Y161.707 E31.61894
G1 X158.805 Y162.002 E31.65074
G1 X158.158 Y162.223 E31.68258
G1 X157.49 Y162.367 E31.7144
G1 X156.76 Y162.434 E31.74853
G1 X156.439 Y162.443 E31.76348
G1 X156.275 Y162.445 E31.77112
G1 X54.027 Y162.445 E36.53222
G1 X53.329 Y162.436 E36.56472
G1 X52.647 Y162.387 E36.59656
G1 X51.976 Y162.259 E36.62837
G1 X51.325 Y162.053 E36.66016
G1 X50.701 Y161.773 E36.69201
G1 X50.115 Y161.422 E36.72382
G1 X49.574 Y161.005 E36.75562
G1 X49.085 Y160.527 E36.78746
G1 X48.656 Y159.996 E36.81925
G1 X48.291 Y159.418 E36.85108
G1 X47.997 Y158.802 E36.88287
G1 X47.776 Y158.155 E36.9147
G1 X47.632 Y157.487 E36.94652
G1 X47.566 Y156.754 E36.98079
G1 X47.557 Y156.421 E36.9963
G1 X47.555 Y156.263 E37.00366
G1 X47.555 Y54.069 E41.76224
G1 X47.556 Y53.99 E41.76592
G1 X47.565 Y53.325 E41.79689
G1 X47.614 Y52.644 E41.82868
G1 X47.742 Y51.972 E41.86053
G1 X47.948 Y51.321 E41.89233
G1 X48.229 Y50.698 E41.92415
G1 X48.58 Y50.112 E41.95596
G1 X48.998 Y49.571 E41.98779
G1 X49.475 Y49.083 E42.01957
M204 S3000
M205 X10 Y10
G0 F3000 X49.549 Y49.796
M204 S1800
M205 X8 Y8
G1 F2400 X50.021 Y49.35 E42.04981
G1 X50.544 Y48.966 E42.08002
G1 X51.111 Y48.648 E42.11029
G1 X51.712 Y48.402 E42.14053
G1 X52.339 Y48.232 E42.17078
G1 X53.256 Y48.126 E42.21376
G1 X53.577 Y48.117 E42.22872
G1 X53.725 Y48.115 E42.23561
G1 X155.898 Y48.115 E46.99321
G1 X155.974 Y48.116 E46.99675
G1 X156.672 Y48.126 E47.02926
G1 X157.319 Y48.175 E47.05947
G1 X157.956 Y48.303 E47.08972
G1 X158.572 Y48.509 E47.11997
G1 X159.159 Y48.789 E47.15025
G1 X159.706 Y49.138 E47.18046
G1 X160.207 Y49.552 E47.21073
G1 X160.652 Y50.025 E47.24097
G1 X161.037 Y50.549 E47.27124
G1 X161.354 Y51.116 E47.30149
G1 X161.599 Y51.717 E47.33171
G1 X161.768 Y52.344 E47.36195
G1 X161.874 Y53.257 E47.40475
G1 X161.883 Y53.577 E47.41966
G1 X161.885 Y53.725 E47.42655
G1 X161.885 Y155.934 E52.18583
G1 X161.876 Y156.661 E52.21968
G1 X161.828 Y157.309 E52.24994
G1 X161.7 Y157.946 E52.28019
G1 X161.496 Y158.563 E52.31045
G1 X161.217 Y159.15 E52.34072
G1 X160.869 Y159.698 E52.37094
G1 X160.456 Y160.199 E52.40118
G1 X159.984 Y160.646 E52.43145
G1 X159.461 Y161.031 E52.46169
G1 X158.895 Y161.349 E52.49192
G1 X158.293 Y161.596 E52.52222
G1 X157.667 Y161.766 E52.55242
G1 X156.744 Y161.874 E52.59569
G1 X156.423 Y161.883 E52.61065
G1 X156.275 Y161.885 E52.61754
G1 X54.034 Y161.885 E57.37831
G1 X53.336 Y161.876 E57.41081
G1 X52.688 Y161.827 E57.44107
G1 X52.051 Y161.7 E57.47132
G1 X51.435 Y161.495 E57.50155
G1 X50.848 Y161.216 E57.53181
G1 X50.3 Y160.867 E57.56206
G1 X49.799 Y160.454 E57.5923
G1 X49.352 Y159.982 E57.62257
G1 X48.967 Y159.459 E57.65281
G1 X48.649 Y158.892 E57.68308
G1 X48.403 Y158.291 E57.71332
G1 X48.233 Y157.664 E57.74357
G1 X48.126 Y156.739 E57.78693
G1 X48.117 Y156.406 E57.80244
G1 X48.115 Y156.263 E57.8091
G1 X48.115 Y53.998 E62.57098
G1 X48.124 Y53.333 E62.60195
G1 X48.173 Y52.685 E62.63221
G1 X48.301 Y52.048 E62.66247
G1 X48.506 Y51.431 E62.69274
G1 X48.786 Y50.845 E62.72298
G1 X49.135 Y50.297 E62.75323
G1 X49.549 Y49.796 E62.7835
M204 S3000
M205 X10 Y10
G1 F2400 E56.7835
;MESH:rbg_led_cube_pilon.stl
G0 F3000 X52.73 Y54.249
G0 X54.249 Y54.249
G0 X61.6 Y69.075
M204 S1800
M205 X8 Y8
;TYPE:WALL-INNER
G1 F2400 E62.7835
G1 F1500 X61.6 Y139.915 E66.0821
G1 X63.277 Y140.65 E66.16736
G1 X90.4 Y115.613 E67.88615
G1 X90.4 Y94.405 E68.87368
G1 X88.345 Y92.427 E69.0065
G1 X63.303 Y68.35 E70.62409
G1 X61.6 Y69.075 E70.71028
M204 S3000
M205 X10 Y10
G0 F3000 X63.189 Y68.971
G0 X89.876 Y94.628
G0 X95.198 Y114.8
M204 S1800
M205 X8 Y8
G1 F1500 X95.478 Y114.8 E70.72332
G1 X114.8 Y114.8 E71.62303
G1 X114.8 Y95.2 E72.53569
G1 X95.229 Y95.2 E73.447
G1 X95.198 Y114.52 E74.34662
G1 X95.198 Y114.8 E74.35506
M204 S3000
M205 X10 Y10
G0 F3000 X68.971 Y146.811
G0 X69.075 Y148.4
M204 S1800
M205 X8 Y8
G1 F1500 X139.915 Y148.4 E77.65366
G1 X140.65 Y146.723 E77.73892
G1 X115.613 Y119.6 E79.45771
G1 X94.405 Y119.6 E80.44524
G1 X68.35 Y146.697 E82.19565
G1 X69.075 Y148.4 E82.28184
M204 S3000
M205 X10 Y10
G0 F3000 X54.795 Y155.205
M204 S1800
M205 X8 Y8
G1 F1500 X54.795 Y54.795 E86.95735
G1 X155.205 Y54.795 E91.63286
G1 X155.205 Y155.205 E96.30837
G1 X54.795 Y155.205 E100.98388
M204 S3000
M205 X10 Y10
G0 F3000 X139.57 Y147.873
G0 X148.4 Y140.925
M204 S1800
M205 X8 Y8
G1 F1500 X148.4 Y70.085 E104.28249
G1 X146.723 Y69.35 E104.36775
G1 X119.6 Y94.387 E106.08653
G1 X119.6 Y115.595 E107.07406
G1 X146.697 Y141.65 E108.82448
G1 X148.4 Y140.925 E108.91066
M204 S3000
M205 X10 Y10
G0 F3000 X147.873 Y70.43
G0 X140.925 Y61.6
M204 S1800
M205 X8 Y8
G1 F1500 X70.085 Y61.6 E112.20927
G1 X69.35 Y63.277 E112.29453
G1 X92.471 Y88.324 E113.88177
G1 X94.387 Y90.4 E114.01331
G1 X115.595 Y90.4 E115.00085
G1 X117.573 Y88.345 E115.13366
G1 X141.65 Y63.303 E116.75126
G1 X140.925 Y61.6 E116.83744
M204 S3000
M205 X10 Y10
G0 F3000 X140.555 Y62.16
M204 S1800
M205 X8 Y8
G1 F1500 X70.451 Y62.16 E120.10178
G1 X70.01 Y63.166 E120.15293
G1 X92.882 Y87.944 E121.7231
G1 X94.632 Y89.84 E121.84324
G1 X115.357 Y89.84 E122.80828
G1 X117.169 Y87.957 E122.92997
G1 X140.99 Y63.182 E124.53034
G1 X140.555 Y62.16 E124.58206
M204 S3000
M205 X10 Y10
G0 F3000 X140.61 Y62.077
G0 X141.029 Y63.189
G0 X111.667 Y95.729
G0 X95.76 Y95.732
G0 X95.689 Y114.31
G0 X95.759 Y114.24
M204 S1800
M205 X8 Y8
G1 F1500 X96.039 Y114.24 E124.5951
G1 X114.24 Y114.24 E125.44261
G1 X114.24 Y95.76 E126.30312
G1 X95.788 Y95.76 E127.16232
G1 X95.759 Y113.96 E128.00979
G1 X95.759 Y114.24 E128.01823
M204 S3000
M205 X10 Y10
G0 F3000 X95.689 Y114.31
G0 X68.971 Y146.811
G0 X69.39 Y147.923
G0 X69.445 Y147.84
M204 S1800
M205 X8 Y8
G1 F1500 X139.549 Y147.84 E131.28257
G1 X139.99 Y146.834 E131.33371
G1 X115.368 Y120.16 E133.02403
G1 X94.643 Y120.16 E133.98907
G1 X69.01 Y146.818 E135.71113
G1 X69.445 Y147.84 E135.76285
M204 S3000
M205 X10 Y10
G0 F3000 X69.39 Y147.923
G0 X54.305 Y155.695
G0 X54.235 Y155.765
M204 S1800
M205 X8 Y8
G1 F1500 X54.235 Y54.235 E140.49051
G1 X155.765 Y54.235 E145.21817
G1 X155.765 Y155.765 E149.94584
G1 X54.235 Y155.765 E154.6735
M204 S3000
M205 X10 Y10
G0 F3000 X54.305 Y155.695
G0 X62.077 Y69.39
G0 X62.16 Y69.445
M204 S1800
M205 X8 Y8
G1 F1500 X62.16 Y139.549 E157.93783
G1 X63.166 Y139.99 E157.98898
G1 X89.84 Y115.368 E159.6793
G1 X89.84 Y94.643 E160.64434
G1 X87.957 Y92.831 E160.76602
G1 X63.182 Y69.01 E162.36639
G1 X62.16 Y69.445 E162.41811
M204 S3000
M205 X10 Y10
G0 F3000 X62.077 Y69.39
G0 X63.189 Y68.971
G0 X95.754 Y97.329
G0 X95.731 Y114.268
G0 X114.268 Y114.268
G0 X146.811 Y141.029
G0 X147.923 Y140.61
G0 X147.84 Y140.555
M204 S1800
M205 X8 Y8
G1 F1500 X147.84 Y70.451 E165.68245
G1 X146.834 Y70.01 E165.7336
G1 X120.16 Y94.632 E167.42391
G1 X120.16 Y115.357 E168.38896
G1 X146.818 Y140.99 E170.11101
G1 X147.84 Y140.555 E170.16273
M204 S3000
M205 X10 Y10
G0 F3000 X147.28 Y140.185
M204 S1800
M205 X8 Y8
;TYPE:WALL-OUTER
G1 F1500 X147.28 Y139.962 E170.17312
G1 X147.28 Y71.039 E173.38246
G1 X147.28 Y70.817 E173.3928
G1 X146.945 Y70.67 E173.40983
G1 X146.782 Y70.82 E173.4185
G1 X120.72 Y94.877 E175.07003
G1 X120.72 Y115.119 E176.01258
G1 X146.779 Y140.176 E177.69594
G1 X146.939 Y140.33 E177.70467
G1 X147.28 Y140.185 E177.72192
M204 S3000
M205 X10 Y10
G0 F3000 X147.28 Y139.985
G0 X147.94 Y139.985
G0 X146.811 Y141.029
G0 X115.384 Y120.124
G0 X96.32 Y114.34
G0 X96.32 Y113.68
M204 S1800
M205 X8 Y8
G1 F1500 X96.6 Y113.68 E177.73496
G1 X113.68 Y113.68 E178.53027
G1 X113.68 Y96.32 E179.33863
G1 X96.347 Y96.32 E180.14573
G1 X96.32 Y113.4 E180.94104
G1 X96.32 Y113.68 E180.94948
M204 S3000
M205 X10 Y10
G0 F3000 X96.52 Y113.68
G0 X96.52 Y114.34
G0 X68.971 Y146.811
G0 X69.423 Y147.873
G0 X69.815 Y147.28
M204 S1800
M205 X8 Y8
G1 F1500 X70.038 Y147.28 E180.95987
G1 X138.961 Y147.28 E184.16921
G1 X139.183 Y147.28 E184.17955
G1 X139.33 Y146.945 E184.19658
G1 X139.18 Y146.782 E184.20525
G1 X115.123 Y120.72 E185.85678
G1 X94.881 Y120.72 E186.79933
G1 X69.824 Y146.779 E188.48269
G1 X69.67 Y146.939 E188.49142
G1 X69.815 Y147.28 E188.50867
M204 S3000
M205 X10 Y10
G0 F3000 X70.015 Y147.28
G0 X70.015 Y147.94
G0 X54.305 Y155.695
G0 X53.675 Y156.325
M204 S1800
M205 X8 Y8
G1 F1500 X53.675 Y53.675 E193.28849
G1 X156.325 Y53.675 E198.0683
G1 X156.325 Y156.325 E202.84811
G1 X53.675 Y156.325 E207.62793
M204 S3000
M205 X10 Y10
G0 F3000 X53.675 Y156.125
G0 X54.305 Y155.695
G0 X62.06 Y69.815
G0 X62.72 Y69.815
M204 S1800
M205 X8 Y8
G1 F1500 X62.72 Y70.038 E207.63831
G1 X62.72 Y138.961 E210.84765
G1 X62.72 Y139.183 E210.85799
G1 X63.055 Y139.33 E210.87503
G1 X63.218 Y139.18 E210.88369
G1 X89.28 Y115.123 E212.53522
G1 X89.28 Y94.881 E213.47777
G1 X87.569 Y93.235 E213.58833
G1 X63.221 Y69.824 E215.16114
G1 X63.061 Y69.67 E215.16986
G1 X62.72 Y69.815 E215.18712
M204 S3000
M205 X10 Y10
G0 F3000 X62.72 Y70.015
G0 X62.06 Y70.015
G0 X70.43 Y62.127
G0 X140.185 Y62.06
G0 X140.185 Y62.72
M204 S1800
M205 X8 Y8
G1 F1500 X139.962 Y62.72 E215.1975
G1 X71.039 Y62.72 E218.40684
G1 X70.817 Y62.72 E218.41718
G1 X70.67 Y63.055 E218.43421
G1 X70.82 Y63.218 E218.44288
G1 X93.293 Y87.564 E219.98567
G1 X94.877 Y89.28 E220.09441
G1 X115.119 Y89.28 E221.03696
G1 X116.765 Y87.569 E221.14752
G1 X140.176 Y63.221 E222.72032
G1 X140.33 Y63.061 E222.72905
G1 X140.185 Y62.72 E222.7463
M204 S3000
M205 X10 Y10
G0 F3000 X139.985 Y62.72
G0 X139.985 Y62.06
G0 X141.289 Y61.05
M204 S1800
M205 X8 Y8
;TYPE:SKIN
G1 F1500 X69.726 Y61.05 E226.07858
G1 X68.702 Y63.385 E226.1973
G1 X92.067 Y88.697 E227.80131
G1 X94.146 Y90.95 E227.94406
G1 X115.829 Y90.95 E228.95371
G1 X117.97 Y88.726 E229.09746
G1 X142.298 Y63.423 E230.73192
G1 X141.289 Y61.05 E230.85199
M204 S3000
M205 X10 Y10
G0 F3000 X146.615 Y68.702
M204 S1800
M205 X8 Y8
G1 F1500 X119.05 Y94.146 E232.59875
G1 X119.05 Y115.829 E233.6084
G1 X146.578 Y142.298 E235.38664
G1 X148.95 Y141.289 E235.50667
G1 X148.95 Y69.726 E238.83894
G1 X146.615 Y68.702 E238.95767
M204 S3000
M205 X10 Y10
G0 F3000 X154.655 Y55.345
M204 S1800
M205 X8 Y8
G1 F1500 X154.655 Y154.655 E243.58196
G1 X55.345 Y154.655 E248.20625
G1 X55.345 Y55.345 E252.83054
G1 X154.655 Y55.345 E257.45483
M204 S3000
M205 X10 Y10
G0 F3000 X115.35 Y94.65
M204 S1800
M205 X8 Y8
G1 F1500 X94.679 Y94.65 E258.41735
G1 X94.648 Y115.35 E259.38123
G1 X115.35 Y115.35 E260.34521
G1 X115.35 Y94.65 E261.30909
M204 S3000
M205 X10 Y10
G0 F3000 X90.95 Y94.171
M204 S1800
M205 X8 Y8
G1 F1500 X88.726 Y92.03 E261.45283
G1 X63.423 Y67.702 E263.08729
G1 X61.05 Y68.711 E263.20736
G1 X61.05 Y140.274 E266.53963
G1 X63.385 Y141.298 E266.65836
G1 X90.95 Y115.854 E268.40512
G1 X90.95 Y94.171 E269.41477
M204 S3000
M205 X10 Y10
G0 F3000 X95.731 Y114.268
G0 X115.854 Y119.05
M204 S1800
M205 X8 Y8
G1 F1500 X94.171 Y119.05 E270.42442
G1 X67.702 Y146.578 E272.20266
G1 X68.711 Y148.95 E272.32269
G1 X140.274 Y148.95 E275.65496
G1 X141.298 Y146.615 E275.77369
G1 X115.854 Y119.05 E277.52045
M204 S3000
M205 X10 Y10
G0 F3000 X94.628 Y120.124
G0 X56.191 Y154.394
M204 S1800
M205 X8 Y8
G1 F1500 X55.604 Y153.807 E277.5591
M204 S3000
M205 X10 Y10
G0 F3000 X55.604 Y153.015
M204 S1800
M205 X8 Y8
G1 F1500 X56.983 Y154.394 E277.64991
M204 S3000
M205 X10 Y10
G0 F3000 X57.775 Y154.394
M204 S1800
M205 X8 Y8
G1 F1500 X55.604 Y152.223 E277.79288
M204 S3000
M205 X10 Y10
G0 F3000 X55.604 Y151.431
M204 S1800
M205 X8 Y8
G1 F1500 X58.567 Y154.394 E277.988
M204 S3000
M205 X10 Y10
G0 F3000 X59.359 Y154.394
M204 S1800
M205 X8 Y8
G1 F1500 X55.604 Y150.639 E278.23527
M204 S3000
M205 X10 Y10
G0 F3000 X55.604 Y149.847
M204 S1800
M205 X8 Y8
G1 F1500 X60.151 Y154.394 E278.5347
M204 S3000
M205 X10 Y10
G0 F3000 X60.943 Y154.394
M204 S1800
M205 X8 Y8
G1 F1500 X55.604 Y149.055 E278.88628
M204 S3000
M205 X10 Y10
G0 F3000 X55.604 Y148.264
M204 S1800
M205 X8 Y8
G1 F1500 X61.735 Y154.394 E279.28998
M204 S3000
M205 X10 Y10
G0 F3000 X62.527 Y154.394
M204 S1800
M205 X8 Y8
G1 F1500 X55.604 Y147.472 E279.74584
M204 S3000
M205 X10 Y10
G0 F3000 X55.604 Y146.68
M204 S1800
M205 X8 Y8
