;FLAVOR:Marlin
;TIME:2198
;Filament used: 3.65282m
;Layer height: 0.3
;MINX:48.6
;MINY:48.6
;MINZ:0.2
;MAXX:161.4
;MAXY:161.4
;MAXZ:14
;Generated with Cura_SteamEngine 4.4.1
M140 S60
M105
M190 S60
M104 S200
M105
M109 S200
M82 ;absolute extrusion mode
G21 ;metric values
G90 ;absolute positioning
M82 ;set extruder to absolute mode
M107 ;start with the fan off
G28 X0 Y0 ;move X/Y to min endstops
G28 Z0 ;move Z to min endstops
G1 Z15.0 F2400 ;move the platform down 15mm
G92 E0 ;zero the extruded length
G1 F200 E3 ;extrude 3mm of feed stock
G92 E0 ;zero the extruded length again
G1 F2400
G0 Y20 F2400
M117 Printing...
G5
G92 E0
G92 E0
G1 F2400 E-6
;LAYER_COUNT:47
;LAYER:0
M106 S255
M204 S3000
M205 X10 Y10
G1 F600 Z0.275
G0 F3000 X50.533 Y50.435 Z0.275
M204 S1800
M205 X8 Y8
;TYPE:SKIRT
G1 F600 Z0.2
G1 F2400 E0
G1 X51.071 Y49.964 E0.0333
G1 X51.659 Y49.556 E0.06662
G1 X52.288 Y49.216 E0.09991
G1 X52.952 Y48.949 E0.13324
G1 X53.641 Y48.757 E0.16654
G1 X54.347 Y48.643 E0.19984
G1 X54.83 Y48.612 E0.22238
G1 X55.151 Y48.603 E0.23733
G1 X55.33 Y48.6 E0.24567
G1 X154.293 Y48.6 E4.8538
G1 X154.385 Y48.601 E4.85809
G1 X155.083 Y48.611 E4.89059
G1 X155.796 Y48.661 E4.92387
G1 X156.5 Y48.79 E4.9572
G1 X157.184 Y48.998 E4.99049
G1 X157.841 Y49.28 E5.02378
G1 X158.463 Y49.634 E5.05711
G1 X159.041 Y50.055 E5.0904
G1 X159.569 Y50.538 E5.12372
G1 X160.039 Y51.076 E5.15699
G1 X160.447 Y51.664 E5.19031
G1 X160.786 Y52.294 E5.22363
G1 X161.053 Y52.957 E5.25691
G1 X161.244 Y53.647 E5.29025
G1 X161.357 Y54.353 E5.32354
G1 X161.388 Y54.83 E5.3458
G1 X161.397 Y55.15 E5.3607
G1 X161.4 Y55.33 E5.36909
G1 X161.4 Y154.343 E9.97955
G1 X161.391 Y155.07 E10.0134
G1 X161.342 Y155.784 E10.04673
G1 X161.214 Y156.488 E10.08005
G1 X161.008 Y157.173 E10.11335
G1 X160.727 Y157.83 E10.14663
G1 X160.374 Y158.453 E10.17997
G1 X159.954 Y159.032 E10.21328
G1 X159.472 Y159.56 E10.24657
G1 X158.935 Y160.032 E10.27986
G1 X158.347 Y160.44 E10.31318
G1 X157.718 Y160.781 E10.3465
G1 X157.055 Y161.049 E10.3798
G1 X156.366 Y161.241 E10.4131
G1 X155.66 Y161.356 E10.44641
G1 X155.17 Y161.388 E10.46927
G1 X154.849 Y161.397 E10.48423
G1 X154.67 Y161.4 E10.49256
G1 X55.707 Y161.4 E15.1007
G1 X55.624 Y161.399 E15.10456
G1 X54.926 Y161.39 E15.13706
G1 X54.213 Y161.341 E15.17034
G1 X53.509 Y161.213 E15.20366
G1 X52.824 Y161.007 E15.23697
G1 X52.167 Y160.725 E15.27026
G1 X51.545 Y160.372 E15.30356
G1 X50.966 Y159.952 E15.33687
G1 X50.437 Y159.47 E15.37019
G1 X49.966 Y158.932 E15.40349
G1 X49.558 Y158.345 E15.43678
G1 X49.218 Y157.715 E15.47011
G1 X48.95 Y157.052 E15.50341
G1 X48.758 Y156.363 E15.53672
G1 X48.644 Y155.657 E15.57002
G1 X48.611 Y155.164 E15.59302
G1 X48.602 Y154.831 E15.60853
G1 X48.6 Y154.658 E15.61659
G1 X48.6 Y55.674 E20.2257
G1 X48.601 Y55.587 E20.22975
G1 X48.61 Y54.922 E20.26072
G1 X48.659 Y54.209 E20.294
G1 X48.788 Y53.505 E20.32733
G1 X48.995 Y52.821 E20.3606
G1 X49.277 Y52.163 E20.39394
G1 X49.63 Y51.541 E20.42724
G1 X50.05 Y50.963 E20.46051
G1 X50.533 Y50.435 E20.49383
M204 S3000
M205 X10 Y10
G0 F3000 X51.08 Y50.688
M204 S1800
M205 X8 Y8
G1 F2400 X51.612 Y50.259 E20.52565
G1 X52.19 Y49.894 E20.55748
G1 X52.807 Y49.6 E20.58931
G1 X53.453 Y49.38 E20.62109
G1 X54.121 Y49.237 E20.65289
G1 X54.845 Y49.171 E20.68675
G1 X55.166 Y49.162 E20.7017
G1 X55.33 Y49.16 E20.70934
G1 X154.293 Y49.16 E25.31747
G1 X154.377 Y49.161 E25.32138
G1 X155.075 Y49.171 E25.35389
G1 X155.756 Y49.22 E25.38568
G1 X156.427 Y49.349 E25.41749
G1 X157.078 Y49.556 E25.4493
G1 X157.701 Y49.837 E25.48113
G1 X158.287 Y50.189 E25.51296
G1 X158.827 Y50.607 E25.54476
G1 X159.315 Y51.085 E25.57656
G1 X159.744 Y51.617 E25.60839
G1 X160.108 Y52.195 E25.64019
G1 X160.402 Y52.812 E25.67202
G1 X160.621 Y53.459 E25.70382
G1 X160.764 Y54.127 E25.73563
G1 X160.829 Y54.846 E25.76925
G1 X160.838 Y55.166 E25.78416
G1 X160.84 Y55.33 E25.79179
G1 X160.84 Y154.336 E30.40193
G1 X160.831 Y155.063 E30.43578
G1 X160.782 Y155.745 E30.46762
G1 X160.654 Y156.416 E30.49943
G1 X160.449 Y157.068 E30.53125
G1 X160.169 Y157.691 E30.56306
G1 X159.819 Y158.277 E30.59484
G1 X159.402 Y158.819 E30.62669
G1 X158.925 Y159.308 E30.65849
G1 X158.394 Y159.737 E30.69028
G1 X157.816 Y160.102 E30.72211
G1 X157.2 Y160.397 E30.75392
G1 X156.553 Y160.618 E30.78575
G1 X155.885 Y160.762 E30.81757
G1 X155.155 Y160.829 E30.85171
G1 X154.834 Y160.838 E30.86666
G1 X154.67 Y160.84 E30.8743
G1 X55.632 Y160.84 E35.48592
G1 X54.934 Y160.831 E35.51842
G1 X54.252 Y160.782 E35.55026
G1 X53.581 Y160.654 E35.58207
G1 X52.93 Y160.448 E35.61387
G1 X52.306 Y160.168 E35.64571
G1 X51.72 Y159.817 E35.67752
G1 X51.179 Y159.4 E35.70933
G1 X50.69 Y158.922 E35.74117
G1 X50.261 Y158.391 E35.77295
G1 X49.896 Y157.813 E35.80479
G1 X49.602 Y157.197 E35.83657
G1 X49.381 Y156.55 E35.8684
G1 X49.237 Y155.882 E35.90022
G1 X49.171 Y155.149 E35.93449
G1 X49.162 Y154.816 E35.95001
G1 X49.16 Y154.658 E35.95736
G1 X49.16 Y55.674 E40.56647
G1 X49.161 Y55.595 E40.57015
G1 X49.17 Y54.93 E40.60112
G1 X49.219 Y54.249 E40.63291
G1 X49.347 Y53.577 E40.66477
G1 X49.553 Y52.926 E40.69656
G1 X49.834 Y52.303 E40.72838
G1 X50.185 Y51.717 E40.76019
G1 X50.603 Y51.176 E40.79203
G1 X51.08 Y50.688 E40.8238
M204 S3000
M205 X10 Y10
G0 F3000 X51.154 Y51.401
M204 S1800
M205 X8 Y8
G1 F2400 X51.626 Y50.955 E40.85404
G1 X52.149 Y50.571 E40.88425
G1 X52.716 Y50.253 E40.91452
G1 X53.317 Y50.007 E40.94476
G1 X53.944 Y49.837 E40.97501
G1 X54.861 Y49.731 E41.01799
G1 X55.182 Y49.722 E41.03295
G1 X55.33 Y49.72 E41.03984
G1 X154.293 Y49.72 E45.64797
G1 X154.369 Y49.721 E45.65151
G1 X155.067 Y49.731 E45.68402
G1 X155.714 Y49.78 E45.71423
G1 X156.351 Y49.908 E45.74448
G1 X156.967 Y50.114 E45.77473
G1 X157.554 Y50.394 E45.80501
G1 X158.101 Y50.743 E45.83522
G1 X158.602 Y51.157 E45.86549
G1 X159.047 Y51.63 E45.89573
G1 X159.432 Y52.154 E45.92601
G1 X159.749 Y52.721 E45.95625
G1 X159.994 Y53.322 E45.98647
G1 X160.163 Y53.949 E46.01671
G1 X160.269 Y54.862 E46.05951
G1 X160.278 Y55.182 E46.07442
G1 X160.28 Y55.33 E46.08131
G1 X160.28 Y154.329 E50.69112
G1 X160.271 Y155.056 E50.72497
G1 X160.223 Y155.704 E50.75523
G1 X160.095 Y156.341 E50.78548
G1 X159.891 Y156.958 E50.81574
G1 X159.612 Y157.545 E50.84601
G1 X159.264 Y158.093 E50.87623
G1 X158.851 Y158.594 E50.90647
G1 X158.379 Y159.041 E50.93674
G1 X157.856 Y159.426 E50.96698
G1 X157.29 Y159.744 E50.99721
G1 X156.688 Y159.991 E51.02751
G1 X156.062 Y160.161 E51.05771
G1 X155.139 Y160.269 E51.10098
G1 X154.818 Y160.278 E51.11594
G1 X154.67 Y160.28 E51.12283
G1 X55.639 Y160.28 E55.73413
G1 X54.941 Y160.271 E55.76663
G1 X54.293 Y160.222 E55.79689
G1 X53.656 Y160.095 E55.82714
G1 X53.04 Y159.89 E55.85737
G1 X52.453 Y159.611 E55.88763
G1 X51.905 Y159.262 E55.91788
G1 X51.404 Y158.849 E55.94812
G1 X50.957 Y158.377 E55.97839
G1 X50.572 Y157.854 E56.00863
G1 X50.254 Y157.287 E56.0389
G1 X50.008 Y156.686 E56.06914
G1 X49.838 Y156.059 E56.09939
G1 X49.731 Y155.134 E56.14274
G1 X49.722 Y154.801 E56.15826
G1 X49.72 Y154.658 E56.16492
G1 X49.72 Y55.603 E60.77733
G1 X49.729 Y54.938 E60.8083
G1 X49.778 Y54.29 E60.83856
G1 X49.906 Y53.653 E60.86881
G1 X50.111 Y53.036 E60.89909
G1 X50.391 Y52.45 E60.92933
G1 X50.74 Y51.902 E60.95958
G1 X51.154 Y51.401 E60.98984
M204 S3000
M205 X10 Y10
G1 F2400 E54.98984
;MESH:rbg_led_cube_shell.stl
G0 F3000 X56.179 Y54.335
G0 X56.179 Y55.52
G0 X64.838 Y64.719
G0 X144.816 Y65.184
G0 X144.746 Y65.254
M204 S1800
M205 X8 Y8
;TYPE:WALL-OUTER
G1 F2400 E60.98984
G1 F1500 X144.466 Y65.254 E61.00288
G1 X65.255 Y65.255 E64.69128
G1 X65.255 Y144.745 E68.39267
G1 X71.594 Y144.746 E68.68784
G1 X144.745 Y144.745 E72.09405
G1 X144.745 Y71.595 E75.50022
G1 X144.746 Y65.534 E75.78245
G1 X144.746 Y65.254 E75.79089
M204 S3000
M205 X10 Y10
G0 F3000 X144.546 Y65.254
G0 X144.547 Y65.154
G0 X154.003 Y55.873
G0 X153.821 Y55.52
M204 S1800
M205 X8 Y8
G1 F1500 X56.179 Y55.52 E80.33751
G1 X56.088 Y55.741 E80.34864
G1 X56.036 Y55.866 E80.35494
G1 X64.853 Y64.683 E80.93556
G1 X65.013 Y64.683 E80.94301
G1 X139.511 Y64.684 E84.41195
G1 X144.987 Y64.683 E84.66693
G1 X145.147 Y64.683 E84.67438
G1 X153.964 Y55.866 E85.255
G1 X153.912 Y55.741 E85.2613
G1 X153.821 Y55.52 E85.27243
M204 S3000
M205 X10 Y10
G0 F3000 X153.621 Y55.52
G0 X153.621 Y55.42
G0 X154.513 Y56.157
G0 X154.563 Y153.876
G0 X154.48 Y153.821
M204 S1800
M205 X8 Y8
G1 F1500 X154.48 Y56.179 E89.81905
G1 X154.259 Y56.088 E89.83018
G1 X154.134 Y56.036 E89.83648
G1 X145.317 Y64.853 E90.08532
G1 X145.317 Y65.013 E90.09277
G1 X145.316 Y145.146 E93.8241
G1 X154.134 Y153.964 E94.40478
G1 X154.259 Y153.912 E94.41108
G1 X154.48 Y153.821 E94.42221
M204 S3000
M205 X10 Y10
G0 F3000 X154.48 Y153.621
G0 X154.58 Y153.621
G0 X154.06 Y154.62
G0 X154.06 Y154.72
M204 S1800
M205 X8 Y8
G1 F1500 X153.821 Y154.72 E94.43334
G1 X56.179 Y154.72 E98.97996
G1 X55.94 Y154.72 E98.99109
G1 X55.28 Y154.72 E99.02182
G1 X55.28 Y154.06 E99.05255
G1 X55.28 Y153.821 E99.06368
G1 X55.28 Y56.179 E103.6103
G1 X55.28 Y55.94 E103.62143
G1 X55.28 Y55.28 E103.65216
G1 X55.94 Y55.28 E103.6829
G1 X56.179 Y55.28 E103.69138
G1 X153.821 Y55.28 E105.63994
G1 X154.06 Y55.28 E105.64842
G1 X154.72 Y55.28 E105.67916
G1 X154.72 Y55.94 E105.70989
G1 X154.72 Y56.179 E105.71838
G1 X154.72 Y153.821 E107.66693
G1 X154.72 Y154.06 E107.67542
G1 X154.72 Y154.72 E107.70615
G1 X154.06 Y154.72 E107.73688
M204 S3000
M205 X10 Y10
G0 F3000 X153.86 Y154.72
G0 X153.86 Y154.62
G0 X56.124 Y154.563
G0 X56.179 Y154.48
M204 S1800
M205 X8 Y8
G1 F1500 X153.821 Y154.48 E109.68543
G1 X153.912 Y154.259 E109.69392
G1 X153.964 Y154.134 E109.70022
G1 X145.147 Y145.317 E109.94905
G1 X65.014 Y145.316 E113.68037
G1 X64.854 Y145.316 E113.68782
G1 X56.036 Y154.134 E114.2685
G1 X56.088 Y154.259 E114.27481
G1 X56.179 Y154.48 E114.2833
M204 S3000
M205 X10 Y10
G0 F3000 X56.379 Y154.48
G0 X56.379 Y154.58
G0 X55.437 Y153.876
G0 X55.52 Y153.821
M204 S1800
M205 X8 Y8
G1 F1500 X55.741 Y153.912 E114.29178
G1 X55.866 Y153.964 E114.29809
G1 X64.683 Y145.147 E114.54691
G1 X64.683 Y144.987 E114.55436
G1 X64.684 Y70.489 E118.0233
G1 X64.683 Y65.013 E118.27829
G1 X64.683 Y64.853 E118.28574
G1 X55.866 Y56.036 E118.53457
G1 X55.741 Y56.088 E118.54087
G1 X55.52 Y56.179 E118.54936
G1 X55.52 Y153.821 E120.49791
M204 S3000
M205 X10 Y10
G0 F3000 X55.704 Y153.897
G0 X55.84 Y154.415
;MESH:NONMESH
G0 F600 X55.84 Y154.415 Z0.5
G0 F3000 X55.487 Y56.157
G0 X55.671 Y55.77
;TIME_ELAPSED:106.079502
;LAYER:1
M140 S60
M204 S1800
M205 X8 Y8
;TYPE:WALL-INNER
;MESH:rbg_led_cube_shell.stl
G1 F2250 X55.6 Y55.799 E120.50174
G1 X55.6 Y55.741 E120.50211
G1 X55.6 Y55.6 E120.50594
G1 X55.741 Y55.6 E120.5102
G1 X55.799 Y55.6 E120.51112
G1 X55.771 Y55.67 E120.5117
G1 X55.741 Y55.741 E120.51237
G1 X55.671 Y55.77 E120.51298
M204 S3000
M205 X10 Y10
G0 F4500 X55.567 Y153.79
G0 X55.77 Y154.329
M204 S1800
M205 X8 Y8
G1 F2250 X55.799 Y154.4 E120.5168
G1 X55.741 Y154.4 E120.51717
G1 X55.6 Y154.4 E120.521
G1 X55.6 Y154.259 E120.52526
G1 X55.6 Y154.201 E120.52618
G1 X55.67 Y154.229 E120.52676
G1 X55.741 Y154.259 E120.52743
G1 X55.77 Y154.329 E120.52804
M204 S3000
M205 X10 Y10
G0 F4500 X111.537 Y154.433
G0 X154.259 Y154.4
M204 S1800
M205 X8 Y8
G1 F2250 X154.201 Y154.4 E120.53094
G1 X154.229 Y154.33 E120.5322
G1 X154.259 Y154.259 E120.53399
G1 X154.329 Y154.23 E120.53585
G1 X154.4 Y154.201 E120.53967
G1 X154.4 Y154.259 E120.54004
G1 X154.4 Y154.4 E120.54387
G1 X154.259 Y154.4 E120.54774
M204 S3000
M205 X10 Y10
G0 F4500 X154.433 Y56.21
G0 X154.33 Y55.771
M204 S1800
M205 X8 Y8
G1 F2250 X154.259 Y55.741 E120.55158
G1 X154.23 Y55.671 E120.55537
G1 X154.201 Y55.6 E120.55919
G1 X154.259 Y55.6 E120.55956
G1 X154.4 Y55.6 E120.56339
G1 X154.4 Y55.741 E120.56728
G1 X154.4 Y55.799 E120.56812
G1 X154.33 Y55.771 E120.5687
M204 S3000
M205 X10 Y10
G0 F4500 X153.768 Y55.6
M204 S1800
M205 X8 Y8
;TYPE:WALL-OUTER
G1 F2250 X153.608 Y55.6 E120.57668
G1 X56.392 Y55.6 E125.42681
G1 X56.232 Y55.6 E125.43479
G1 X56.13 Y55.847 E125.44812
G1 X56.243 Y55.96 E125.45486
G1 X64.636 Y64.353 E126.04704
G1 X139.921 Y64.354 E129.80302
G1 X145.364 Y64.353 E130.07457
G1 X153.757 Y55.96 E130.66674
G1 X153.87 Y55.847 E130.67349
G1 X153.768 Y55.6 E130.68682
M204 S3000
M205 X10 Y10
G0 F4500 X153.608 Y55.6
G0 X153.568 Y55.6
G0 X153.568 Y55.5
G0 X144.986 Y65.014
G0 X144.916 Y65.084
M204 S1800
M205 X8 Y8
G1 F2250 X144.716 Y65.084 E130.6968
G1 X65.085 Y65.085 E134.6696
G1 X65.085 Y144.915 E138.65234
G1 X71.185 Y144.916 E138.95667
G1 X144.915 Y144.915 E142.63507
G1 X144.915 Y71.186 E146.31343
G1 X144.916 Y65.284 E146.60788
G1 X144.916 Y65.084 E146.61434
M204 S3000
M205 X10 Y10
G0 F4500 X144.716 Y65.084
G0 X144.717 Y64.984
G0 X145.61 Y145.379
G0 X154.146 Y153.909
G0 X154.4 Y153.768
M204 S1800
M205 X8 Y8
G1 F2250 X154.4 Y153.608 E146.62232
G1 X154.4 Y56.392 E151.47245
G1 X154.4 Y56.232 E151.48043
G1 X154.153 Y56.13 E151.49376
G1 X154.04 Y56.243 E151.50051
G1 X145.647 Y64.636 E152.09268
G1 X145.646 Y145.363 E156.12017
G1 X154.04 Y153.757 E156.71241
G1 X154.153 Y153.87 E156.71915
G1 X154.4 Y153.768 E156.73248
M204 S3000
M205 X10 Y10
G0 F4500 X154.4 Y153.608
G0 X154.4 Y153.568
G0 X154.5 Y153.568
G0 X153.533 Y154.704
G0 X153.768 Y154.8
M204 S1800
M205 X8 Y8
G1 F2250 X56.232 Y154.8 E161.59857
G1 X55.2 Y154.8 E161.65006
G1 X55.2 Y153.768 E161.70155
G1 X55.2 Y56.232 E166.56764
G1 X55.2 Y55.2 E166.61912
G1 X56.232 Y55.2 E166.67061
G1 X153.768 Y55.2 E171.5367
G1 X154.8 Y55.2 E171.58819
G1 X154.8 Y56.232 E171.63968
G1 X154.8 Y153.768 E176.50577
G1 X154.8 Y154.8 E176.55725
G1 X153.768 Y154.8 E176.60874
M204 S3000
M205 X10 Y10
G0 F4500 X153.568 Y154.8
G0 X153.568 Y154.7
G0 X56.177 Y154.483
G0 X56.232 Y154.4
M204 S1800
M205 X8 Y8
G1 F2250 X56.392 Y154.4 E176.61672
G1 X153.608 Y154.4 E181.46685
G1 X153.768 Y154.4 E181.47483
G1 X153.87 Y154.153 E181.48816
G1 X153.757 Y154.04 E181.49491
G1 X145.364 Y145.647 E182.08708
G1 X64.637 Y145.646 E186.11456
G1 X56.243 Y154.04 E186.70681
G1 X56.13 Y154.153 E186.71355
G1 X56.232 Y154.4 E186.72688
M204 S3000
M205 X10 Y10
G0 F4500 X56.392 Y154.4
G0 X56.432 Y154.4
G0 X56.432 Y154.5
G0 X55.517 Y153.823
G0 X55.6 Y153.768
M204 S1800
M205 X8 Y8
G1 F2250 X55.847 Y153.87 E186.74021
G1 X55.96 Y153.757 E186.74819
G1 X64.353 Y145.364 E187.34036
G1 X64.354 Y70.079 E191.09634
G1 X64.353 Y64.636 E191.36789
G1 X55.96 Y56.243 E191.96007
G1 X55.847 Y56.13 E191.96804
G1 X55.6 Y56.232 E191.98137
G1 X55.6 Y56.392 E191.98813
G1 X55.6 Y153.608 E196.83826
G1 X55.6 Y153.768 E196.84501
M204 S3000
M205 X10 Y10
G0 F4500 X55.785 Y153.844
G0 X55.746 Y153.936
G0 X64.548 Y145.321
G0 X64.718 Y145.15
M204 S1800
M205 X8 Y8
;TYPE:SKIN
G1 F1350 X64.871 Y145.28 E196.85355
G1 X120.025 Y145.28 E199.19743
G1 X144.915 Y145.28 E200.25518
G1 X145.28 Y144.915 E200.27712
G1 X145.28 Y89.761 E202.621
G1 X145.28 Y64.87 E203.67879
G1 X145.15 Y64.718 E203.68729
G1 X89.996 Y64.718 E206.03117
G1 X65.106 Y64.718 E207.08892
G1 X64.771 Y64.77 E207.10333
G1 X64.629 Y64.628 E207.11186
G1 X64.718 Y65.954 E207.16834
G1 X64.718 Y121.108 E209.51222
G1 X64.718 Y144.867 E210.52191
M204 S3000
M205 X10 Y10
G0 F4500 X64.889 Y144.696
G0 X145.028 Y145.451
G0 X145.239 Y145.239
M204 S1800
M205 X8 Y8
G1 F1350 X145.381 Y145.381 E210.54182
M204 S3000
M205 X10 Y10
G0 F4500 X145.247 Y145.247
;MESH:NONMESH
G0 F600 X145.247 Y145.247 Z0.8
G0 F4500 X65.057 Y144.943
G0 X65.056 Y65.144
G0 X55.671 Y55.77
;TIME_ELAPSED:172.686167
;LAYER:2
M204 S1800
M205 X8 Y8
;TYPE:WALL-INNER
;MESH:rbg_led_cube_shell.stl
G1 F3000 X55.6 Y55.799 E210.54565
G1 X55.6 Y55.741 E210.54601
G1 X55.6 Y55.6 E210.54985
G1 X55.741 Y55.6 E210.55411
G1 X55.799 Y55.6 E210.55503
G1 X55.771 Y55.67 E210.55561
G1 X55.741 Y55.741 E210.55628
G1 X55.671 Y55.77 E210.55689
M204 S3000
M205 X10 Y10
G0 F6000 X55.567 Y153.79
G0 X55.77 Y154.329
M204 S1800
M205 X8 Y8
G1 F3000 X55.799 Y154.4 E210.56071
G1 X55.741 Y154.4 E210.56108
G1 X55.6 Y154.4 E210.56491
G1 X55.6 Y154.259 E210.56917
G1 X55.6 Y154.201 E210.57009
G1 X55.67 Y154.229 E210.57067
G1 X55.741 Y154.259 E210.57134
G1 X55.77 Y154.329 E210.57195
M204 S3000
M205 X10 Y10
G0 F6000 X111.537 Y154.433
G0 X154.259 Y154.4
M204 S1800
M205 X8 Y8
G1 F3000 X154.201 Y154.4 E210.57484
G1 X154.229 Y154.33 E210.57611
G1 X154.259 Y154.259 E210.57789
