;FLAVOR:Marlin
;TIME:4105
;Filament used: 5.44749m
;Layer height: 0.3
;MINX:61.995
;MINY:61.995
;MINZ:0.2
;MAXX:148.005
;MAXY:148.005
;MAXZ:51.5
;Generated with Cura_SteamEngine 4.4.1
M140 S60
M105
M190 S60
M104 S200
M105
M109 S200
M82 ;absolute extrusion mode
G21 ;metric values
G90 ;absolute positioning
M82 ;set extruder to absolute mode
M107 ;start with the fan off
G28 X0 Y0 ;move X/Y to min endstops
G28 Z0 ;move Z to min endstops
G1 Z15.0 F2400 ;move the platform down 15mm
G92 E0 ;zero the extruded length
G1 F200 E3 ;extrude 3mm of feed stock
G92 E0 ;zero the extruded length again
G1 F2400
G0 Y20 F2400
M117 Printing...
G5
G92 E0
G92 E0
G1 F2400 E-6
;LAYER_COUNT:172
;LAYER:0
M106 S255
M204 S3000
M205 X10 Y10
G1 F600 Z0.275
G0 F3000 X63.928 Y63.83 Z0.275
M204 S1800
M205 X8 Y8
;TYPE:SKIRT
G1 F600 Z0.2
G1 F2400 E0
G1 X64.466 Y63.359 E0.0333
G1 X65.054 Y62.951 E0.06662
G1 X65.683 Y62.611 E0.09991
G1 X66.347 Y62.344 E0.13324
G1 X67.036 Y62.152 E0.16654
G1 X67.742 Y62.038 E0.19984
G1 X68.225 Y62.007 E0.22238
G1 X68.546 Y61.998 E0.23733
G1 X68.725 Y61.995 E0.24567
G1 X140.898 Y61.995 E3.60635
G1 X140.99 Y61.996 E3.61063
G1 X141.688 Y62.006 E3.64314
G1 X142.401 Y62.056 E3.67642
G1 X143.105 Y62.185 E3.70975
G1 X143.789 Y62.393 E3.74304
G1 X144.446 Y62.675 E3.77633
G1 X145.068 Y63.029 E3.80965
G1 X145.646 Y63.45 E3.84295
G1 X146.174 Y63.933 E3.87627
G1 X146.644 Y64.471 E3.90953
G1 X147.052 Y65.059 E3.94286
G1 X147.391 Y65.689 E3.97617
G1 X147.658 Y66.352 E4.00945
G1 X147.849 Y67.042 E4.04279
G1 X147.962 Y67.748 E4.07608
G1 X147.993 Y68.225 E4.09834
G1 X148.002 Y68.545 E4.11325
G1 X148.005 Y68.725 E4.12163
G1 X148.005 Y140.948 E7.48464
G1 X147.996 Y141.675 E7.51849
G1 X147.947 Y142.389 E7.55182
G1 X147.819 Y143.093 E7.58514
G1 X147.613 Y143.778 E7.61844
G1 X147.332 Y144.435 E7.65172
G1 X146.979 Y145.058 E7.68506
G1 X146.559 Y145.637 E7.71837
G1 X146.077 Y146.165 E7.75166
G1 X145.54 Y146.637 E7.78495
G1 X144.952 Y147.045 E7.81827
G1 X144.323 Y147.386 E7.85159
G1 X143.66 Y147.654 E7.88489
G1 X142.971 Y147.846 E7.91819
G1 X142.265 Y147.961 E7.9515
G1 X141.775 Y147.993 E7.97437
G1 X141.454 Y148.002 E7.98932
G1 X141.275 Y148.005 E7.99765
G1 X69.102 Y148.005 E11.35833
G1 X69.019 Y148.004 E11.3622
G1 X68.321 Y147.995 E11.3947
G1 X67.608 Y147.946 E11.42798
G1 X66.904 Y147.818 E11.4613
G1 X66.219 Y147.612 E11.49461
G1 X65.562 Y147.33 E11.5279
G1 X64.94 Y146.977 E11.5612
G1 X64.361 Y146.557 E11.59451
G1 X63.832 Y146.075 E11.62783
G1 X63.361 Y145.537 E11.66113
G1 X62.953 Y144.95 E11.69441
G1 X62.613 Y144.32 E11.72775
G1 X62.345 Y143.657 E11.76105
G1 X62.153 Y142.968 E11.79435
G1 X62.039 Y142.262 E11.82765
G1 X62.006 Y141.769 E11.85066
G1 X61.997 Y141.436 E11.86617
G1 X61.995 Y141.263 E11.87423
G1 X61.995 Y69.069 E15.23588
G1 X61.996 Y68.982 E15.23993
G1 X62.005 Y68.317 E15.2709
G1 X62.054 Y67.604 E15.30418
G1 X62.183 Y66.9 E15.33751
G1 X62.39 Y66.216 E15.37078
G1 X62.672 Y65.558 E15.40412
G1 X63.025 Y64.936 E15.43742
G1 X63.445 Y64.358 E15.47069
G1 X63.928 Y63.83 E15.50401
M204 S3000
M205 X10 Y10
G0 F3000 X64.475 Y64.083
M204 S1800
M205 X8 Y8
G1 F2400 X65.007 Y63.654 E15.53583
G1 X65.585 Y63.289 E15.56766
G1 X66.202 Y62.995 E15.59949
G1 X66.848 Y62.775 E15.63127
G1 X67.516 Y62.632 E15.66308
G1 X68.24 Y62.566 E15.69693
G1 X68.561 Y62.557 E15.71188
G1 X68.725 Y62.555 E15.71952
G1 X140.898 Y62.555 E19.0802
G1 X140.982 Y62.556 E19.08411
G1 X141.68 Y62.566 E19.11661
G1 X142.361 Y62.615 E19.1484
G1 X143.032 Y62.744 E19.18022
G1 X143.683 Y62.951 E19.21203
G1 X144.306 Y63.232 E19.24385
G1 X144.892 Y63.584 E19.27569
G1 X145.432 Y64.002 E19.30748
G1 X145.92 Y64.48 E19.33929
G1 X146.349 Y65.012 E19.37111
G1 X146.713 Y65.59 E19.40292
G1 X147.007 Y66.207 E19.43475
G1 X147.226 Y66.854 E19.46655
G1 X147.369 Y67.522 E19.49836
G1 X147.434 Y68.241 E19.53198
G1 X147.443 Y68.561 E19.54688
G1 X147.445 Y68.725 E19.55452
G1 X147.445 Y140.941 E22.9172
G1 X147.436 Y141.668 E22.95106
G1 X147.387 Y142.35 E22.98289
G1 X147.259 Y143.021 E23.0147
G1 X147.054 Y143.673 E23.04653
G1 X146.774 Y144.296 E23.07833
G1 X146.424 Y144.882 E23.11011
G1 X146.007 Y145.424 E23.14196
G1 X145.53 Y145.913 E23.17377
G1 X144.999 Y146.342 E23.20555
G1 X144.421 Y146.707 E23.23738
G1 X143.805 Y147.002 E23.26919
G1 X143.158 Y147.223 E23.30102
G1 X142.49 Y147.367 E23.33284
G1 X141.76 Y147.434 E23.36698
G1 X141.439 Y147.443 E23.38193
G1 X141.275 Y147.445 E23.38957
G1 X69.027 Y147.445 E26.75374
G1 X68.329 Y147.436 E26.78624
G1 X67.647 Y147.387 E26.81808
G1 X66.976 Y147.259 E26.84989
G1 X66.325 Y147.053 E26.88168
G1 X65.701 Y146.773 E26.91353
G1 X65.115 Y146.422 E26.94534
G1 X64.574 Y146.005 E26.97714
G1 X64.085 Y145.527 E27.00899
G1 X63.656 Y144.996 E27.04077
G1 X63.291 Y144.418 E27.0726
G1 X62.997 Y143.802 E27.10439
G1 X62.776 Y143.155 E27.13622
G1 X62.632 Y142.487 E27.16804
G1 X62.566 Y141.754 E27.20231
G1 X62.557 Y141.421 E27.21782
G1 X62.555 Y141.263 E27.22518
G1 X62.555 Y69.069 E30.58684
G1 X62.556 Y68.99 E30.59051
G1 X62.565 Y68.325 E30.62148
G1 X62.614 Y67.644 E30.65327
G1 X62.742 Y66.972 E30.68513
G1 X62.948 Y66.321 E30.71692
G1 X63.229 Y65.698 E30.74875
G1 X63.58 Y65.112 E30.78055
G1 X63.998 Y64.571 E30.81239
G1 X64.475 Y64.083 E30.84416
M204 S3000
M205 X10 Y10
G0 F3000 X64.549 Y64.796
M204 S1800
M205 X8 Y8
G1 F2400 X65.021 Y64.35 E30.8744
G1 X65.544 Y63.966 E30.90461
G1 X66.111 Y63.648 E30.93489
G1 X66.712 Y63.402 E30.96512
G1 X67.339 Y63.232 E30.99537
G1 X68.256 Y63.126 E31.03836
G1 X68.577 Y63.117 E31.05331
G1 X68.725 Y63.115 E31.0602
G1 X140.898 Y63.115 E34.42088
G1 X140.974 Y63.116 E34.42442
G1 X141.672 Y63.126 E34.45692
G1 X142.319 Y63.175 E34.48714
G1 X142.956 Y63.303 E34.51739
G1 X143.572 Y63.509 E34.54764
G1 X144.159 Y63.789 E34.57792
G1 X144.706 Y64.138 E34.60813
G1 X145.207 Y64.552 E34.6384
G1 X145.652 Y65.025 E34.66864
G1 X146.037 Y65.549 E34.69891
G1 X146.354 Y66.116 E34.72916
G1 X146.599 Y66.717 E34.75938
G1 X146.768 Y67.344 E34.78962
G1 X146.874 Y68.257 E34.83242
G1 X146.883 Y68.577 E34.84733
G1 X146.885 Y68.725 E34.85422
G1 X146.885 Y140.934 E38.21657
G1 X146.876 Y141.661 E38.25043
G1 X146.828 Y142.309 E38.28068
G1 X146.7 Y142.946 E38.31094
G1 X146.496 Y143.563 E38.3412
G1 X146.217 Y144.15 E38.37146
G1 X145.869 Y144.698 E38.40169
G1 X145.456 Y145.199 E38.43192
G1 X144.984 Y145.646 E38.46219
G1 X144.461 Y146.031 E38.49243
G1 X143.895 Y146.349 E38.52266
G1 X143.293 Y146.596 E38.55296
G1 X142.667 Y146.766 E38.58317
G1 X141.744 Y146.874 E38.62644
G1 X141.423 Y146.883 E38.64139
G1 X141.275 Y146.885 E38.64828
G1 X69.034 Y146.885 E42.01213
G1 X68.336 Y146.876 E42.04463
G1 X67.688 Y146.827 E42.07489
G1 X67.051 Y146.7 E42.10514
G1 X66.435 Y146.495 E42.13537
G1 X65.848 Y146.216 E42.16563
G1 X65.3 Y145.867 E42.19588
G1 X64.799 Y145.454 E42.22612
G1 X64.352 Y144.982 E42.25639
G1 X63.967 Y144.459 E42.28663
G1 X63.649 Y143.892 E42.3169
G1 X63.403 Y143.291 E42.34713
G1 X63.233 Y142.664 E42.37738
G1 X63.126 Y141.739 E42.42074
G1 X63.117 Y141.406 E42.43626
G1 X63.115 Y141.263 E42.44291
G1 X63.115 Y68.998 E45.80788
G1 X63.124 Y68.333 E45.83884
G1 X63.173 Y67.685 E45.8691
G1 X63.301 Y67.048 E45.89936
G1 X63.506 Y66.431 E45.92963
G1 X63.786 Y65.845 E45.95987
G1 X64.135 Y65.297 E45.99013
G1 X64.549 Y64.796 E46.02039
M204 S3000
M205 X10 Y10
G1 F2400 E40.02039
;MESH:rbg_led_cube_pilon_v2.stl
G0 F3000 X67.73 Y69.249
G0 X69.249 Y69.249
G0 X80.065 Y73.6
M204 S1800
M205 X8 Y8
;TYPE:WALL-INNER
G1 F2400 E46.02039
G1 F1500 X79.35 Y75.33 E46.10755
G1 X94.42 Y90.4 E47.09994
G1 X115.61 Y90.4 E48.08663
G1 X129.65 Y75.28 E49.04741
G1 X128.915 Y73.6 E49.1328
G1 X80.065 Y73.6 E51.40746
M204 S3000
M205 X10 Y10
G0 F3000 X79.971 Y75.205
G0 X95.244 Y95.2
M204 S1800
M205 X8 Y8
G1 F1500 X95.2 Y113.694 E52.26862
G1 X95.766 Y114.8 E52.32647
G1 X113.697 Y114.8 E53.16141
G1 X114.8 Y114.234 E53.21914
G1 X114.8 Y96.303 E54.05408
G1 X114.234 Y95.2 E54.11181
G1 X95.244 Y95.2 E54.99606
M204 S3000
M205 X10 Y10
G0 F3000 X89.876 Y115.363
G0 X75.205 Y130.029
G0 X73.6 Y129.935
M204 S1800
M205 X8 Y8
G1 F1500 X75.33 Y130.65 E55.08323
G1 X90.4 Y115.58 E56.07562
G1 X90.4 Y94.39 E57.06231
G1 X75.28 Y80.35 E58.02309
G1 X73.6 Y81.085 E58.10847
G1 X73.6 Y129.935 E60.38313
M204 S3000
M205 X10 Y10
G0 F3000 X69.795 Y140.205
M204 S1800
M205 X8 Y8
G1 F1500 X69.795 Y69.795 E63.66172
G1 X140.205 Y69.795 E66.9403
G1 X140.205 Y140.205 E70.21889
G1 X69.795 Y140.205 E73.49747
M204 S3000
M205 X10 Y10
G0 F3000 X129.935 Y136.4
M204 S1800
M205 X8 Y8
G1 F1500 X130.65 Y134.67 E73.58464
G1 X115.58 Y119.6 E74.57702
G1 X94.39 Y119.6 E75.56372
G1 X80.35 Y134.72 E76.52449
G1 X81.085 Y136.4 E76.60988
G1 X129.935 Y136.4 E78.88454
M204 S3000
M205 X10 Y10
G0 F3000 X135.873 Y128.57
G0 X136.4 Y80.065
M204 S1800
M205 X8 Y8
G1 F1500 X134.67 Y79.35 E78.97171
G1 X119.6 Y94.42 E79.96409
G1 X119.6 Y115.61 E80.95079
G1 X134.72 Y129.65 E81.91156
G1 X136.4 Y128.915 E81.99695
G1 X136.4 Y80.065 E84.27161
M204 S3000
M205 X10 Y10
G0 F3000 X135.84 Y80.439
M204 S1800
M205 X8 Y8
G1 F1500 X134.802 Y80.01 E84.32391
G1 X120.16 Y94.652 E85.28811
G1 X120.16 Y115.366 E86.25264
G1 X134.832 Y128.99 E87.18495
G1 X135.84 Y128.549 E87.23618
G1 X135.84 Y80.439 E89.47638
M204 S3000
M205 X10 Y10
G0 F3000 X135.923 Y80.384
G0 X134.795 Y79.971
G0 X115.381 Y89.876
G0 X95.733 Y95.69
G0 X95.803 Y95.76
M204 S1800
M205 X8 Y8
G1 F1500 X95.76 Y113.56 E90.30523
G1 X96.108 Y114.24 E90.3408
G1 X113.562 Y114.24 E91.15353
G1 X114.24 Y113.892 E91.18902
G1 X114.24 Y96.438 E92.00175
G1 X113.892 Y95.76 E92.03723
G1 X95.803 Y95.76 E92.87953
M204 S3000
M205 X10 Y10
G0 F3000 X95.733 Y95.69
G0 X79.971 Y75.205
G0 X80.384 Y74.077
G0 X80.439 Y74.16
M204 S1800
M205 X8 Y8
G1 F1500 X80.01 Y75.198 E92.93183
G1 X94.652 Y89.84 E93.89603
G1 X115.366 Y89.84 E94.86056
G1 X116.428 Y88.697 E94.93321
G1 X128.99 Y75.168 E95.79287
G1 X128.549 Y74.16 E95.84411
G1 X80.439 Y74.16 E98.08431
M204 S3000
M205 X10 Y10
G0 F3000 X80.384 Y74.077
G0 X74.127 Y81.43
G0 X74.077 Y129.616
G0 X74.16 Y129.561
M204 S1800
M205 X8 Y8
G1 F1500 X75.198 Y129.99 E98.13661
G1 X89.84 Y115.348 E99.10081
G1 X89.84 Y94.634 E100.06534
G1 X88.697 Y93.572 E100.13799
G1 X75.168 Y81.01 E100.99765
G1 X74.16 Y81.451 E101.04888
G1 X74.16 Y129.561 E103.28908
M204 S3000
M205 X10 Y10
G0 F3000 X74.077 Y129.616
G0 X69.305 Y140.695
G0 X69.235 Y140.765
M204 S1800
M205 X8 Y8
G1 F1500 X69.235 Y69.235 E106.61982
G1 X140.765 Y69.235 E109.95056
G1 X140.765 Y140.765 E113.28129
G1 X69.235 Y140.765 E116.61203
M204 S3000
M205 X10 Y10
G0 F3000 X69.305 Y140.695
G0 X129.616 Y135.923
G0 X129.561 Y135.84
M204 S1800
M205 X8 Y8
G1 F1500 X129.99 Y134.802 E116.66433
G1 X115.348 Y120.16 E117.62853
G1 X94.634 Y120.16 E118.59306
G1 X81.01 Y134.832 E119.52537
G1 X81.451 Y135.84 E119.5766
G1 X129.561 Y135.84 E121.8168
M204 S3000
M205 X10 Y10
G0 F3000 X129.187 Y135.28
M204 S1800
M205 X8 Y8
;TYPE:WALL-OUTER
G1 F1500 X129.33 Y134.934 E121.83424
G1 X129.172 Y134.776 E121.84464
G1 X115.116 Y120.72 E122.77025
G1 X94.878 Y120.72 E123.71262
G1 X81.821 Y134.782 E124.60615
G1 X81.67 Y134.944 E124.61646
G1 X81.817 Y135.28 E124.63354
G1 X82.039 Y135.28 E124.64224
G1 X128.963 Y135.28 E126.82721
G1 X129.187 Y135.28 E126.83605
M204 S3000
M205 X10 Y10
G0 F3000 X129.263 Y135.095
G0 X129.872 Y135.347
G0 X112.075 Y114.27
G0 X96.088 Y114.274
G0 X95.775 Y95.732
G0 X96.362 Y96.32
M204 S1800
M205 X8 Y8
G1 F1500 X96.32 Y113.289 E127.6262
G1 X96.32 Y113.426 E127.63258
G1 X96.45 Y113.68 E127.64586
G1 X96.587 Y113.68 E127.65224
G1 X113.427 Y113.68 E128.43638
G1 X113.68 Y113.55 E128.44963
G1 X113.68 Y96.573 E129.24015
G1 X113.55 Y96.32 E129.25339
G1 X96.362 Y96.32 E130.05374
M204 S3000
M205 X10 Y10
G0 F3000 X96.362 Y96.52
G0 X95.702 Y96.518
G0 X79.971 Y75.205
G0 X80.813 Y74.72
M204 S1800
M205 X8 Y8
G1 F1500 X80.67 Y75.066 E130.07117
G1 X80.828 Y75.224 E130.08158
G1 X94.884 Y89.28 E131.00719
G1 X115.122 Y89.28 E131.94955
G1 X116.018 Y88.316 E132.01084
G1 X128.179 Y75.218 E132.84308
G1 X128.33 Y75.056 E132.8534
G1 X128.183 Y74.72 E132.87047
G1 X127.961 Y74.72 E132.87917
G1 X81.037 Y74.72 E135.06415
G1 X80.813 Y74.72 E135.07298
M204 S3000
M205 X10 Y10
G0 F3000 X80.737 Y74.905
G0 X80.128 Y74.653
G0 X74.127 Y81.43
G0 X74.127 Y129.583
G0 X74.72 Y129.187
M204 S1800
M205 X8 Y8
G1 F1500 X75.066 Y129.33 E135.09042
G1 X75.224 Y129.172 E135.10082
G1 X89.28 Y115.116 E136.02643
G1 X89.28 Y94.878 E136.9688
G1 X88.316 Y93.982 E137.03008
G1 X75.218 Y81.821 E137.86233
G1 X75.056 Y81.67 E137.87264
G1 X74.72 Y81.817 E137.88972
G1 X74.72 Y82.039 E137.89842
G1 X74.72 Y128.963 E140.0834
G1 X74.72 Y129.187 E140.09223
M204 S3000
M205 X10 Y10
G0 F3000 X74.905 Y129.263
G0 X74.653 Y129.872
G0 X69.305 Y140.695
G0 X68.675 Y141.325
M204 S1800
M205 X8 Y8
G1 F1500 X68.675 Y68.675 E143.47512
G1 X141.325 Y68.675 E146.85801
G1 X141.325 Y141.325 E150.2409
G1 X68.675 Y141.325 E153.62378
M204 S3000
M205 X10 Y10
G0 F3000 X68.675 Y141.125
G0 X69.305 Y140.695
G0 X101.152 Y114.269
G0 X113.571 Y114.278
G0 X114.268 Y99.625
G0 X134.795 Y79.971
G0 X135.28 Y80.813
M204 S1800
M205 X8 Y8
G1 F1500 X134.934 Y80.67 E153.64122
G1 X134.776 Y80.828 E153.65162
G1 X120.72 Y94.884 E154.57723
G1 X120.72 Y115.122 E155.5196
G1 X134.782 Y128.179 E156.41313
G1 X134.944 Y128.33 E156.42344
G1 X135.28 Y128.183 E156.44052
G1 X135.28 Y127.961 E156.44922
G1 X135.28 Y81.037 E158.6342
G1 X135.28 Y80.813 E158.64303
M204 S3000
M205 X10 Y10
G0 F3000 X135.095 Y80.737
G0 X135.347 Y80.128
G0 X134.541 Y78.702
M204 S1800
M205 X8 Y8
;TYPE:SKIN
G1 F1500 X119.05 Y94.192 E159.6631
G1 X119.05 Y115.85 E160.67159
G1 X134.61 Y130.298 E161.66031
G1 X136.95 Y129.275 E161.77923
G1 X136.95 Y79.697 E164.08779
G1 X134.541 Y78.702 E164.20915
M204 S3000
M205 X10 Y10
G0 F3000 X130.298 Y75.39
M204 S1800
M205 X8 Y8
G1 F1500 X129.275 Y73.05 E164.32807
G1 X79.697 Y73.05 E166.63663
G1 X78.702 Y75.459 E166.75799
G1 X94.192 Y90.95 E167.77807
G1 X115.85 Y90.95 E168.78656
G1 X130.298 Y75.39 E169.77527
M204 S3000
M205 X10 Y10
G0 F3000 X139.655 Y70.345
M204 S1800
M205 X8 Y8
G1 F1500 X139.655 Y139.655 E173.00264
G1 X70.345 Y139.655 E176.23
G1 X70.345 Y70.345 E179.45737
G1 X139.655 Y70.345 E182.68473
M204 S3000
M205 X10 Y10
G0 F3000 X114.57 Y94.65
M204 S1800
M205 X8 Y8
G1 F1500 X94.696 Y94.65 E183.61015
G1 X94.65 Y113.826 E184.50306
G1 X95.43 Y115.35 E184.58278
G1 X113.83 Y115.35 E185.43956
G1 X115.35 Y114.57 E185.51912
G1 X115.35 Y96.17 E186.3759
G1 X114.57 Y94.65 E186.45545
M204 S3000
M205 X10 Y10
G0 F3000 X90.95 Y94.15
M204 S1800
M205 X8 Y8
G1 F1500 X75.39 Y79.702 E187.44417
G1 X73.05 Y80.725 E187.56308
G1 X73.05 Y130.303 E189.87164
G1 X75.459 Y131.298 E189.99301
G1 X90.95 Y115.808 E191.01308
G1 X90.95 Y94.15 E192.02157
M204 S3000
M205 X10 Y10
G0 F3000 X95.722 Y113.569
G0 X115.808 Y119.05
M204 S1800
M205 X8 Y8
G1 F1500 X94.15 Y119.05 E193.03006
G1 X79.702 Y134.61 E194.01878
G1 X80.725 Y136.95 E194.13769
G1 X130.303 Y136.95 E196.44625
G1 X131.298 Y134.541 E196.56762
G1 X115.808 Y119.05 E197.58769
M204 S3000
M205 X10 Y10
G0 F3000 X94.619 Y120.124
G0 X71.285 Y139.394
M204 S1800
M205 X8 Y8
G1 F1500 X70.604 Y138.713 E197.63254
M204 S3000
M205 X10 Y10
G0 F3000 X70.604 Y137.921
M204 S1800
M205 X8 Y8
G1 F1500 X72.077 Y139.394 E197.72954
M204 S3000
M205 X10 Y10
G0 F3000 X72.869 Y139.394
M204 S1800
M205 X8 Y8
G1 F1500 X70.604 Y137.129 E197.87869
M204 S3000
M205 X10 Y10
G0 F3000 X70.604 Y136.337
M204 S1800
M205 X8 Y8
G1 F1500 X73.661 Y139.394 E198.08
M204 S3000
M205 X10 Y10
G0 F3000 X74.453 Y139.394
M204 S1800
M205 X8 Y8
G1 F1500 X70.604 Y135.545 E198.33346
M204 S3000
M205 X10 Y10
G0 F3000 X70.604 Y134.753
M204 S1800
M205 X8 Y8
G1 F1500 X75.245 Y139.394 E198.63908
M204 S3000
M205 X10 Y10
G0 F3000 X76.037 Y139.394
M204 S1800
M205 X8 Y8
G1 F1500 X70.604 Y133.961 E198.99685
M204 S3000
M205 X10 Y10
G0 F3000 X70.604 Y133.169
M204 S1800
M205 X8 Y8
G1 F1500 X76.829 Y139.394 E199.40678
M204 S3000
M205 X10 Y10
G0 F3000 X77.621 Y139.394
M204 S1800
M205 X8 Y8
G1 F1500 X70.604 Y132.377 E199.86886
M204 S3000
M205 X10 Y10
G0 F3000 X70.604 Y131.585
M204 S1800
M205 X8 Y8
G1 F1500 X78.413 Y139.394 E200.3831
M204 S3000
M205 X10 Y10
G0 F3000 X79.205 Y139.394
M204 S1800
M205 X8 Y8
G1 F1500 X70.604 Y130.793 E200.94949
M204 S3000
