;FLAVOR:Marlin
;TIME:343
;Filament used: 0.364611m
;Layer height: 0.3
;MINX:82.7
;MINY:92
;MINZ:0.3
;MAXX:113.4
;MAXY:118
;MAXZ:14.7
;Generated with Cura_SteamEngine 4.4.1
M82 ;absolute extrusion mode
G21 ;metric values
G90 ;absolute positioning
M82 ;set extruder to absolute mode
M107 ;start with the fan off

M104 S200 T0 ; start heating T0 to what is set in Cura
M140 S60 ; start heating the bed to what is set in Cura
M190 S60 ; start heating the bed to what is set in Cura
M109 S200 T0 ; start heating T0 to what is set in Cura

G28 X0 Y0 ;move X/Y to min endstops
G28 Z0 ;move Z to min endstops
G1 Z15.0 F2400 ;move the platform down 15mm
G92 E0 ;zero the extruded length
G1 F200 E3 ;extrude 3mm of feed stock
G92 E0 ;zero the extruded length again
G1 F2400
G0 Y20 F2400
M117 Printing...
G5
G92 E0
G92 E0
G1 F2400 E-6
;LAYER_COUNT:49
;LAYER:0
M106 S255
M204 S3000
M205 X10 Y10
G1 F600 Z0.375
G0 F3000 X84.638 Y97.372 Z0.375
M204 S1800
M205 X8 Y8
;TYPE:SKIRT
G1 F600 Z0.3
G1 F2400 E0
G1 X85.177 Y96.902 E0.04995
G1 X85.765 Y96.495 E0.0999
G1 X86.395 Y96.155 E0.1499
G1 X87.059 Y95.889 E0.19986
G1 X87.843 Y95.678 E0.25657
G1 X88.541 Y95.537 E0.30631
G1 X88.63 Y95.519 E0.31265
G1 X89.944 Y95.273 E0.40602
G1 X92.493 Y94.721 E0.58819
G1 X95.046 Y94.092 E0.77184
G1 X97.638 Y93.376 E0.95966
G1 X100.188 Y92.593 E1.14597
G1 X101.032 Y92.32 E1.20793
G1 X101.724 Y92.139 E1.25789
G1 X102.432 Y92.035 E1.30787
G1 X102.807 Y92.013 E1.33411
G1 X103.136 Y92.003 E1.3571
G1 X103.33 Y92 E1.37065
G1 X106.293 Y92 E1.57761
G1 X106.385 Y92.001 E1.58403
G1 X107.083 Y92.011 E1.63279
G1 X107.796 Y92.061 E1.68271
G1 X108.5 Y92.19 E1.7327
G1 X109.184 Y92.398 E1.78264
G1 X109.841 Y92.68 E1.83258
G1 X110.463 Y93.034 E1.88256
G1 X111.041 Y93.455 E1.93251
G1 X111.569 Y93.938 E1.98249
G1 X112.039 Y94.476 E2.03239
G1 X112.447 Y95.064 E2.08238
G1 X112.786 Y95.694 E2.13234
G1 X113.053 Y96.357 E2.18227
G1 X113.244 Y97.047 E2.23227
G1 X113.357 Y97.753 E2.28221
G1 X113.388 Y98.23 E2.3156
G1 X113.397 Y98.55 E2.33796
G1 X113.4 Y98.73 E2.35053
G1 X113.4 Y110.943 E3.20357
G1 X113.391 Y111.67 E3.25435
G1 X113.342 Y112.384 E3.30433
G1 X113.214 Y113.088 E3.35431
G1 X113.008 Y113.773 E3.40427
G1 X112.727 Y114.43 E3.45418
G1 X112.374 Y115.053 E3.5042
G1 X111.954 Y115.632 E3.55416
G1 X111.472 Y116.16 E3.60409
G1 X110.935 Y116.632 E3.65403
G1 X110.347 Y117.04 E3.70402
G1 X109.718 Y117.381 E3.75399
G1 X109.055 Y117.649 E3.80394
G1 X108.366 Y117.841 E3.8539
G1 X107.66 Y117.956 E3.90386
G1 X107.17 Y117.988 E3.93816
G1 X106.849 Y117.997 E3.96059
G1 X106.67 Y118 E3.97309
G1 X103.707 Y118 E4.18005
G1 X103.615 Y117.999 E4.18647
G1 X102.916 Y117.989 E4.2353
G1 X102.203 Y117.939 E4.28522
G1 X101.675 Y117.85 E4.32262
G1 X100.872 Y117.679 E4.37996
G1 X100.762 Y117.654 E4.38784
G1 X99.855 Y117.444 E4.45287
G1 X97.23 Y116.915 E4.6399
G1 X94.63 Y116.467 E4.82418
G1 X92.038 Y116.096 E5.00707
G1 X89.194 Y115.772 E5.20699
G1 X88.483 Y115.702 E5.25689
G1 X87.776 Y115.593 E5.30686
G1 X87.086 Y115.405 E5.35681
G1 X86.421 Y115.141 E5.40678
G1 X85.789 Y114.805 E5.45678
G1 X85.2 Y114.4 E5.5067
G1 X84.659 Y113.932 E5.55667
G1 X84.173 Y113.407 E5.60664
G1 X83.749 Y112.831 E5.65659
G1 X83.393 Y112.211 E5.70653
G1 X83.107 Y111.555 E5.75651
G1 X82.897 Y110.871 E5.80649
G1 X82.764 Y110.169 E5.85639
G1 X82.711 Y109.506 E5.90285
G1 X82.702 Y109.173 E5.92612
G1 X82.7 Y109 E5.9382
G1 X82.7 Y102.64 E6.38242
G1 X82.701 Y102.547 E6.38892
G1 X82.711 Y101.858 E6.43705
G1 X82.761 Y101.145 E6.48697
G1 X82.891 Y100.441 E6.53697
G1 X83.098 Y99.757 E6.58689
G1 X83.38 Y99.1 E6.63683
G1 X83.734 Y98.478 E6.68681
G1 X84.155 Y97.9 E6.73676
G1 X84.638 Y97.372 E6.78674
M204 S3000
M205 X10 Y10
G0 F3000 X85.186 Y97.626
M204 S1800
M205 X8 Y8
G1 F2400 X85.718 Y97.197 E6.83447
G1 X86.296 Y96.834 E6.88215
G1 X86.913 Y96.54 E6.92988
G1 X87.56 Y96.32 E6.97762
G1 X87.954 Y96.227 E7.00589
G1 X88.652 Y96.086 E7.05563
G1 X88.733 Y96.07 E7.0614
G1 X90.021 Y95.829 E7.15292
G1 X92.643 Y95.262 E7.34029
G1 X95.185 Y94.635 E7.52316
G1 X97.784 Y93.917 E7.71149
G1 X100.37 Y93.123 E7.90043
G1 X101.204 Y92.853 E7.96166
G1 X101.866 Y92.681 E8.00944
G1 X102.824 Y92.573 E8.07677
G1 X103.153 Y92.563 E8.09976
G1 X103.33 Y92.56 E8.11213
G1 X106.293 Y92.56 E8.31908
G1 X106.377 Y92.561 E8.32495
G1 X107.075 Y92.571 E8.37371
G1 X107.756 Y92.62 E8.4214
G1 X108.427 Y92.749 E8.46912
G1 X109.078 Y92.956 E8.51683
G1 X109.701 Y93.237 E8.56457
G1 X110.287 Y93.589 E8.61232
G1 X110.827 Y94.007 E8.66001
G1 X111.315 Y94.485 E8.70773
G1 X111.744 Y95.017 E8.75546
G1 X112.108 Y95.595 E8.80317
G1 X112.402 Y96.212 E8.85091
G1 X112.621 Y96.859 E8.89862
G1 X112.764 Y97.527 E8.94633
G1 X112.829 Y98.246 E8.99675
G1 X112.838 Y98.566 E9.01911
G1 X112.84 Y98.73 E9.03057
G1 X112.84 Y110.936 E9.88311
G1 X112.831 Y111.663 E9.9339
G1 X112.782 Y112.345 E9.98165
G1 X112.654 Y113.016 E10.02937
G1 X112.449 Y113.668 E10.0771
G1 X112.169 Y114.291 E10.12481
G1 X111.819 Y114.877 E10.17249
G1 X111.402 Y115.419 E10.22025
G1 X110.925 Y115.908 E10.26796
G1 X110.394 Y116.337 E10.31564
G1 X109.816 Y116.702 E10.36339
G1 X109.2 Y116.997 E10.41109
G1 X108.553 Y117.218 E10.45885
G1 X107.885 Y117.362 E10.50658
G1 X107.155 Y117.429 E10.55778
G1 X106.834 Y117.438 E10.58021
G1 X106.67 Y117.44 E10.59167
G1 X103.707 Y117.44 E10.79862
G1 X103.623 Y117.439 E10.80449
G1 X102.924 Y117.429 E10.85331
G1 X102.243 Y117.38 E10.901
G1 X101.792 Y117.302 E10.93297
G1 X100.989 Y117.131 E10.99032
G1 X100.888 Y117.109 E10.99754
G1 X99.949 Y116.892 E11.06485
G1 X97.333 Y116.364 E11.25125
G1 X94.735 Y115.917 E11.43538
G1 X92.072 Y115.536 E11.62327
G1 X89.321 Y115.222 E11.81667
G1 X88.537 Y115.145 E11.87169
G1 X87.862 Y115.038 E11.91943
G1 X87.205 Y114.854 E11.96708
G1 X86.573 Y114.594 E12.01481
G1 X85.976 Y114.261 E12.06256
G1 X85.422 Y113.862 E12.11025
G1 X84.918 Y113.4 E12.158
G1 X84.472 Y112.883 E12.20569
G1 X84.089 Y112.317 E12.25342
G1 X83.775 Y111.71 E12.30116
G1 X83.534 Y111.071 E12.34886
G1 X83.369 Y110.408 E12.39658
G1 X83.271 Y109.491 E12.46099
G1 X83.262 Y109.158 E12.48426
G1 X83.26 Y109 E12.4953
G1 X83.26 Y102.64 E12.93952
G1 X83.261 Y102.555 E12.94546
G1 X83.271 Y101.866 E12.99359
G1 X83.32 Y101.185 E13.04127
G1 X83.45 Y100.514 E13.08901
G1 X83.656 Y99.863 E13.1367
G1 X83.937 Y99.24 E13.18444
G1 X84.289 Y98.654 E13.23219
G1 X84.707 Y98.114 E13.27988
G1 X85.186 Y97.626 E13.32764
M204 S3000
M205 X10 Y10
G0 F3000 X85.258 Y98.34
M204 S1800
M205 X8 Y8
G1 F2400 X85.731 Y97.894 E13.37305
G1 X86.255 Y97.51 E13.41843
G1 X86.822 Y97.193 E13.4638
G1 X87.423 Y96.948 E13.50913
G1 X88.065 Y96.776 E13.55555
G1 X88.763 Y96.635 E13.60529
G1 X88.836 Y96.62 E13.6105
G1 X90.133 Y96.377 E13.70266
G1 X92.759 Y95.809 E13.89032
G1 X95.366 Y95.166 E14.07787
G1 X97.944 Y94.454 E14.26467
G1 X100.528 Y93.66 E14.45348
G1 X101.377 Y93.386 E14.51579
G1 X102.006 Y93.225 E14.56114
G1 X102.841 Y93.132 E14.61983
G1 X103.17 Y93.122 E14.64282
G1 X103.33 Y93.12 E14.65399
G1 X106.293 Y93.12 E14.86095
G1 X106.369 Y93.121 E14.86626
G1 X107.067 Y93.131 E14.91501
G1 X107.714 Y93.18 E14.96033
G1 X108.351 Y93.308 E15.00571
G1 X108.967 Y93.514 E15.05108
G1 X109.554 Y93.794 E15.09651
G1 X110.101 Y94.143 E15.14183
G1 X110.602 Y94.557 E15.18722
G1 X111.047 Y95.03 E15.23258
G1 X111.432 Y95.554 E15.278
G1 X111.749 Y96.121 E15.32337
G1 X111.994 Y96.722 E15.3687
G1 X112.163 Y97.349 E15.41406
G1 X112.269 Y98.262 E15.47826
G1 X112.278 Y98.582 E15.50062
G1 X112.28 Y98.73 E15.51095
G1 X112.28 Y110.929 E16.36301
G1 X112.271 Y111.656 E16.41379
G1 X112.223 Y112.304 E16.45918
G1 X112.095 Y112.941 E16.50456
G1 X111.891 Y113.558 E16.54995
G1 X111.612 Y114.145 E16.59534
G1 X111.264 Y114.693 E16.64068
G1 X110.851 Y115.194 E16.68603
G1 X110.379 Y115.641 E16.73144
G1 X109.856 Y116.026 E16.7768
G1 X109.29 Y116.344 E16.82214
G1 X108.688 Y116.591 E16.86759
G1 X108.062 Y116.761 E16.9129
G1 X107.139 Y116.869 E16.97781
G1 X106.818 Y116.878 E17.00024
G1 X106.67 Y116.88 E17.01058
G1 X103.707 Y116.88 E17.21753
G1 X103.631 Y116.879 E17.22284
G1 X102.932 Y116.869 E17.27167
G1 X102.285 Y116.82 E17.31699
G1 X101.908 Y116.754 E17.34372
G1 X101.105 Y116.583 E17.40106
G1 X101.014 Y116.563 E17.40757
G1 X100.075 Y116.346 E17.47488
G1 X97.435 Y115.814 E17.66299
G1 X94.835 Y115.366 E17.84726
G1 X92.15 Y114.981 E18.03672
G1 X89.37 Y114.665 E18.23214
G1 X88.592 Y114.588 E18.28675
G1 X87.951 Y114.484 E18.3321
G1 X87.327 Y114.303 E18.37748
G1 X86.73 Y114.047 E18.42285
G1 X86.169 Y113.719 E18.46824
G1 X85.653 Y113.325 E18.51359
G1 X85.189 Y112.87 E18.55898
G1 X84.784 Y112.362 E18.60436
G1 X84.445 Y111.808 E18.64972
G1 X84.176 Y111.216 E18.69514
G1 X83.982 Y110.596 E18.74052
G1 X83.866 Y109.957 E18.78588
G1 X83.831 Y109.476 E18.81956
G1 X83.822 Y109.143 E18.84283
G1 X83.82 Y109 E18.85282
G1 X83.82 Y102.64 E19.29704
G1 X83.821 Y102.563 E19.30242
G1 X83.831 Y101.874 E19.35055
G1 X83.88 Y101.227 E19.39587
G1 X84.008 Y100.59 E19.44125
G1 X84.214 Y99.974 E19.48662
G1 X84.494 Y99.387 E19.53204
G1 X84.844 Y98.84 E19.5774
G1 X85.258 Y98.34 E19.62274
M204 S3000
M205 X10 Y10
G1 F2400 E13.62274
;MESH:rbg_cube_lock_top.stl
G0 F3000 X88.435 Y102.796
G0 X89.954 Y102.796
G0 X90.5 Y107.942
M204 S1800
M205 X8 Y8
;TYPE:WALL-INNER
G1 F2400 E19.62274
G1 F1500 X90.5 Y103.342 E19.94403
G1 X95.5 Y103.342 E20.29326
G1 X95.5 Y107.942 E20.61456
G1 X90.5 Y107.942 E20.96379
M204 S3000
M205 X10 Y10
G0 F3000 X89.94 Y108.502
M204 S1800
M205 X8 Y8
G1 F1500 X89.94 Y102.782 E21.36331
G1 X96.06 Y102.782 E21.79077
G1 X96.06 Y108.502 E22.19029
G1 X89.94 Y108.502 E22.61775
M204 S3000
M205 X10 Y10
G0 F3000 X89.38 Y109.062
M204 S1800
M205 X8 Y8
;TYPE:WALL-OUTER
G1 F1500 X89.38 Y102.222 E23.0955
G1 X96.62 Y102.222 E23.60118
G1 X96.62 Y109.062 E24.07893
G1 X89.38 Y109.062 E24.58462
M204 S3000
M205 X10 Y10
G0 F3000 X89.38 Y108.862
G0 X90.01 Y108.432
G0 X91.05 Y107.392
M204 S1800
M205 X8 Y8
;TYPE:SKIN
G1 F1500 X91.05 Y103.892 E24.82908
G1 X94.95 Y103.892 E25.10148
G1 X94.95 Y107.392 E25.34594
G1 X91.05 Y107.392 E25.61835
M204 S3000
M205 X10 Y10
G0 F3000 X92.083 Y107.13
M204 S1800
M205 X8 Y8
G1 F1500 X91.31 Y106.357 E25.6947
M204 S3000
M205 X10 Y10
G0 F3000 X91.31 Y105.565
M204 S1800
M205 X8 Y8
G1 F1500 X92.875 Y107.13 E25.84929
M204 S3000
M205 X10 Y10
G0 F3000 X93.667 Y107.13
M204 S1800
M205 X8 Y8
G1 F1500 X91.31 Y104.773 E26.08211
M204 S3000
M205 X10 Y10
G0 F3000 X91.479 Y104.151
M204 S1800
M205 X8 Y8
G1 F1500 X94.459 Y107.13 E26.37641
M204 S3000
M205 X10 Y10
G0 F3000 X94.69 Y106.569
M204 S1800
M205 X8 Y8
G1 F1500 X92.271 Y104.151 E26.61531
M204 S3000
M205 X10 Y10
G0 F3000 X93.063 Y104.151
M204 S1800
M205 X8 Y8
G1 F1500 X94.69 Y105.777 E26.77597
M204 S3000
M205 X10 Y10
G0 F3000 X94.69 Y104.985
M204 S1800
M205 X8 Y8
G1 F1500 X93.855 Y104.151 E26.8584
G1 X93.785 Y104.081
M204 S3000
M205 X10 Y10
G1 F2400 E20.8584
;MESH:rbg_cube_lock_bottom.stl
G0 F3000 X96.046 Y108.488
G0 X97.565 Y108.488
G0 X102.335 Y108.488
G0 X103.86 Y108.488
G0 X104.4 Y110.2
M204 S1800
M205 X8 Y8
;TYPE:WALL-INNER
G1 F2400 E26.8584
G1 F1500 X104.4 Y99.8 E27.5848
G1 X105.6 Y99.8 E27.66862
G1 X105.6 Y110.2 E28.39502
G1 X104.4 Y110.2 E28.47883
M204 S3000
M205 X10 Y10
G0 F3000 X103.84 Y110.76
M204 S1800
M205 X8 Y8
G1 F1500 X103.84 Y99.24 E29.28346
G1 X106.16 Y99.24 E29.44551
G1 X106.16 Y110.76 E30.25013
G1 X103.84 Y110.76 E30.41218
M204 S3000
M205 X10 Y10
G0 F3000 X103.28 Y111.32
M204 S1800
M205 X8 Y8
;TYPE:WALL-OUTER
G1 F1500 X103.28 Y98.68 E31.29503
G1 X106.72 Y98.68 E31.53531
G1 X106.72 Y111.32 E32.41816
G1 X103.28 Y111.32 E32.65843
M204 S3000
M205 X10 Y10
G0 F3000 X103.28 Y111.12
G0 X103.91 Y110.69
G0 X104.95 Y109.65
M104 S200
M204 S1800
M205 X8 Y8
;TYPE:SKIN
G1 F1500 X104.95 Y100.35 E33.308
G1 X105.05 Y100.35 E33.31499
G1 X105.05 Y109.65 E33.96456
G1 X104.95 Y109.65 E33.97154
M204 S3000
M205 X10 Y10
G1 F2400 E27.97154
;MESH:NONMESH
G0 F600 X104.95 Y109.65 Z0.6
G0 F3000 X103.86 Y108.342
G0 X102.335 Y108.342
G0 X97.565 Y108.342
G0 X96.04 Y108.342
G0 X90.1 Y108.342
;TIME_ELAPSED:21.791121
;LAYER:1
M140 S60
M204 S1800
M205 X8 Y8
;TYPE:WALL-INNER
;MESH:rbg_cube_lock_top.stl
G1 F2400 E33.97154
G1 F2250 X90.1 Y102.942 E34.24095
G1 X95.9 Y102.942 E34.53031
G1 X95.9 Y108.342 E34.79972
G1 X90.1 Y108.342 E35.08908
M204 S3000
M205 X10 Y10
G0 F4500 X89.7 Y108.742
M204 S1800
M205 X8 Y8
G1 F2250 X89.7 Y102.542 E35.3984
G1 X96.3 Y102.542 E35.72768
G1 X96.3 Y108.742 E36.037
G1 X89.7 Y108.742 E36.36627
M204 S3000
M205 X10 Y10
G0 F4500 X89.3 Y109.142
M204 S1800
M205 X8 Y8
;TYPE:WALL-OUTER
G1 F2250 X89.3 Y102.142 E36.71551
G1 X96.7 Y102.142 E37.08469
G1 X96.7 Y109.142 E37.43392
G1 X89.3 Y109.142 E37.80311
M204 S3000
M205 X10 Y10
G0 F4500 X89.3 Y108.942
G0 X89.77 Y108.672
G0 X90.49 Y107.952
M204 S1800
M205 X8 Y8
;TYPE:SKIN
G1 F1350 X90.49 Y103.332 E38.0336
G1 X95.51 Y103.332 E38.28405
G1 X95.51 Y107.952 E38.51455
G1 X90.49 Y107.952 E38.76499
M204 S3000
M205 X10 Y10
G0 F4500 X90.67 Y103.925
M204 S1800
M205 X8 Y8
G1 F1350 X91.084 Y103.511 E38.7942
M204 S3000
M205 X10 Y10
G0 F4500 X91.65 Y103.511
M204 S1800
M205 X8 Y8
G1 F1350 X90.67 Y104.491 E38.86335
M204 S3000
M205 X10 Y10
G0 F4500 X90.67 Y105.056
M204 S1800
M205 X8 Y8
G1 F1350 X92.215 Y103.511 E38.97236
M204 S3000
M205 X10 Y10
G0 F4500 X92.781 Y103.511
M204 S1800
M205 X8 Y8
G1 F1350 X90.67 Y105.622 E39.1213
M204 S3000
M205 X10 Y10
G0 F4500 X90.67 Y106.188
M204 S1800
M205 X8 Y8
G1 F1350 X93.347 Y103.511 E39.31018
M204 S3000
M205 X10 Y10
G0 F4500 X93.912 Y103.511
M204 S1800
M205 X8 Y8
G1 F1350 X90.67 Y106.754 E39.53895
M204 S3000
M205 X10 Y10
G0 F4500 X90.67 Y107.319
M204 S1800
M205 X8 Y8
G1 F1350 X94.478 Y103.511 E39.80763
M204 S3000
M205 X10 Y10
G0 F4500 X95.044 Y103.511
M204 S1800
M205 X8 Y8
G1 F1350 X90.784 Y107.77 E40.10816
M204 S3000
M205 X10 Y10
G0 F4500 X91.35 Y107.77
M204 S1800
M205 X8 Y8
G1 F1350 X95.33 Y103.791 E40.38893
M204 S3000
M205 X10 Y10
G0 F4500 X95.33 Y104.356
M204 S1800
M205 X8 Y8
G1 F1350 X91.916 Y107.77 E40.62981
M204 S3000
M205 X10 Y10
G0 F4500 X92.481 Y107.77
M204 S1800
M205 X8 Y8
G1 F1350 X95.33 Y104.922 E40.83079
M204 S3000
M205 X10 Y10
G0 F4500 X95.33 Y105.488
M204 S1800
M205 X8 Y8
G1 F1350 X93.047 Y107.77 E40.99183
M204 S3000
M205 X10 Y10
G0 F4500 X93.613 Y107.77
M204 S1800
M205 X8 Y8
G1 F1350 X95.33 Y106.053 E41.11297
M204 S3000
M205 X10 Y10
G0 F4500 X95.33 Y106.619
M204 S1800
M205 X8 Y8
G1 F1350 X94.178 Y107.77 E41.19422
M204 S3000
M205 X10 Y10
G0 F4500 X94.744 Y107.77
M204 S1800
M205 X8 Y8
G1 F1350 X95.33 Y107.185 E41.23553
G1 X95.4 Y107.115
M204 S3000
M205 X10 Y10
G1 F2400 E35.23553
;MESH:rbg_cube_lock_bottom.stl
G0 F4500 X96.286 Y108.728
G0 X97.565 Y108.728
G0 X102.335 Y108.728
G0 X103.62 Y108.728
G0 X104 Y110.6
M204 S1800
M205 X8 Y8
;TYPE:WALL-INNER
G1 F2400 E41.23553
G1 F2250 X104 Y99.4 E41.7943
G1 X106 Y99.4 E41.89408
G1 X106 Y110.6 E42.45285
G1 X104 Y110.6 E42.55263
M204 S3000
M205 X10 Y10
G0 F4500 X103.6 Y111
M204 S1800
M205 X8 Y8
G1 F2250 X103.6 Y99 E43.15131
G1 X106.4 Y99 E43.291
G1 X106.4 Y111 E43.88969
G1 X103.6 Y111 E44.02938
M204 S3000
M205 X10 Y10
G0 F4500 X103.2 Y111.4
M204 S1800
M205 X8 Y8
;TYPE:WALL-OUTER
G1 F2250 X103.2 Y98.6 E44.66797
G1 X106.8 Y98.6 E44.84758
G1 X106.8 Y111.4 E45.48617
G1 X103.2 Y111.4 E45.66578
M204 S3000
M205 X10 Y10
G0 F4500 X103.2 Y111.2
G0 X103.67 Y110.93
G0 X104.39 Y110.21
M204 S1800
M205 X8 Y8
;TYPE:SKIN
G1 F1350 X104.39 Y99.79 E46.18563
G1 X105.61 Y99.79 E46.2465
G1 X105.61 Y110.21 E46.76636
G1 X104.39 Y110.21 E46.82722
M204 S3000
M205 X10 Y10
G0 F4500 X104.931 Y110.029
M204 S1800
M205 X8 Y8
G1 F1350 X105.429 Y109.53 E46.86239
M204 S3000
M205 X10 Y10
G0 F4500 X105.429 Y108.965
M204 S1800
M205 X8 Y8
G1 F1350 X104.57 Y109.824 E46.923
M204 S3000
M205 X10 Y10
G0 F4500 X104.57 Y109.258
M204 S1800
M205 X8 Y8
G1 F1350 X105.429 Y108.399 E46.98361
M204 S3000
M205 X10 Y10
G0 F4500 X105.429 Y107.833
M204 S1800
M205 X8 Y8
G1 F1350 X104.57 Y108.692 E47.04421
M204 S3000
M205 X10 Y10
G0 F4500 X104.57 Y108.127
M204 S1800
M205 X8 Y8
G1 F1350 X105.429 Y107.268 E47.10482
M204 S3000
M205 X10 Y10
G0 F4500 X105.429 Y106.702
M204 S1800
M205 X8 Y8
G1 F1350 X104.57 Y107.561 E47.16543
M204 S3000
M205 X10 Y10
G0 F4500 X104.57 Y106.995
M204 S1800
M205 X8 Y8
