;FLAVOR:Marlin
;TIME:1488
;Filament used: 2.37011m
;Layer height: 0.3
;MINX:63.6
;MINY:63.6
;MINZ:0.2
;MAXX:146.4
;MAXY:146.4
;MAXZ:12.5
;Generated with Cura_SteamEngine 4.4.1
M140 S60
M105
M190 S60
M104 S200
M105
M109 S200
M82 ;absolute extrusion mode
G21 ;metric values
G90 ;absolute positioning
M82 ;set extruder to absolute mode
M107 ;start with the fan off
G28 X0 Y0 ;move X/Y to min endstops
G28 Z0 ;move Z to min endstops
G1 Z15.0 F2400 ;move the platform down 15mm
G92 E0 ;zero the extruded length
G1 F200 E3 ;extrude 3mm of feed stock
G92 E0 ;zero the extruded length again
G1 F2400
G0 Y20 F2400
M117 Printing...
G5
G92 E0
G92 E0
G1 F2400 E-6
;LAYER_COUNT:42
;LAYER:0
M106 S255
M204 S3000
M205 X10 Y10
G1 F600 Z0.275
G0 F3000 X65.533 Y65.435 Z0.275
M204 S1800
M205 X8 Y8
;TYPE:SKIRT
G1 F600 Z0.2
G1 F2400 E0
G1 X66.071 Y64.964 E0.0333
G1 X66.659 Y64.556 E0.06662
G1 X67.288 Y64.216 E0.09991
G1 X67.952 Y63.949 E0.13324
G1 X68.641 Y63.757 E0.16654
G1 X69.347 Y63.643 E0.19984
G1 X69.83 Y63.612 E0.22238
G1 X70.151 Y63.603 E0.23733
G1 X70.33 Y63.6 E0.24567
G1 X139.293 Y63.6 E3.45688
G1 X139.385 Y63.601 E3.46116
G1 X140.083 Y63.611 E3.49367
G1 X140.796 Y63.661 E3.52695
G1 X141.5 Y63.79 E3.56027
G1 X142.184 Y63.998 E3.59356
G1 X142.841 Y64.28 E3.62686
G1 X143.463 Y64.634 E3.66018
G1 X144.041 Y65.055 E3.69348
G1 X144.569 Y65.538 E3.7268
G1 X145.039 Y66.076 E3.76006
G1 X145.447 Y66.664 E3.79339
G1 X145.786 Y67.294 E3.8267
G1 X146.053 Y67.957 E3.85998
G1 X146.244 Y68.647 E3.89332
G1 X146.357 Y69.353 E3.92661
G1 X146.388 Y69.83 E3.94887
G1 X146.397 Y70.15 E3.96378
G1 X146.4 Y70.33 E3.97216
G1 X146.4 Y139.343 E7.1857
G1 X146.391 Y140.07 E7.21955
G1 X146.342 Y140.784 E7.25288
G1 X146.214 Y141.488 E7.28619
G1 X146.008 Y142.173 E7.3195
G1 X145.727 Y142.83 E7.35277
G1 X145.374 Y143.453 E7.38612
G1 X144.954 Y144.032 E7.41942
G1 X144.472 Y144.56 E7.45271
G1 X143.935 Y145.032 E7.486
G1 X143.347 Y145.44 E7.51933
G1 X142.718 Y145.781 E7.55265
G1 X142.055 Y146.049 E7.58595
G1 X141.366 Y146.241 E7.61925
G1 X140.66 Y146.356 E7.65256
G1 X140.17 Y146.388 E7.67542
G1 X139.849 Y146.397 E7.69038
G1 X139.67 Y146.4 E7.69871
G1 X70.707 Y146.4 E10.90992
G1 X70.624 Y146.399 E10.91378
G1 X69.926 Y146.39 E10.94629
G1 X69.213 Y146.341 E10.97957
G1 X68.509 Y146.213 E11.01289
G1 X67.824 Y146.007 E11.04619
G1 X67.167 Y145.725 E11.07948
G1 X66.545 Y145.372 E11.11279
G1 X65.966 Y144.952 E11.14609
G1 X65.437 Y144.47 E11.17942
G1 X64.966 Y143.932 E11.21271
G1 X64.558 Y143.345 E11.246
G1 X64.218 Y142.715 E11.27933
G1 X63.95 Y142.052 E11.31263
G1 X63.758 Y141.363 E11.34594
G1 X63.644 Y140.657 E11.37924
G1 X63.611 Y140.164 E11.40225
G1 X63.602 Y139.831 E11.41776
G1 X63.6 Y139.658 E11.42581
G1 X63.6 Y70.674 E14.638
G1 X63.601 Y70.587 E14.64205
G1 X63.61 Y69.922 E14.67302
G1 X63.659 Y69.209 E14.7063
G1 X63.788 Y68.505 E14.73962
G1 X63.995 Y67.821 E14.7729
G1 X64.277 Y67.163 E14.80623
G1 X64.63 Y66.541 E14.83954
G1 X65.05 Y65.963 E14.87281
G1 X65.533 Y65.435 E14.90613
M204 S3000
M205 X10 Y10
G0 F3000 X66.08 Y65.688
M204 S1800
M205 X8 Y8
G1 F2400 X66.612 Y65.259 E14.93795
G1 X67.19 Y64.894 E14.96978
G1 X67.807 Y64.6 E15.00161
G1 X68.453 Y64.38 E15.03338
G1 X69.121 Y64.237 E15.06519
G1 X69.845 Y64.171 E15.09904
G1 X70.166 Y64.162 E15.114
G1 X70.33 Y64.16 E15.12163
G1 X139.293 Y64.16 E18.33284
G1 X139.377 Y64.161 E18.33675
G1 X140.075 Y64.171 E18.36926
G1 X140.756 Y64.22 E18.40105
G1 X141.427 Y64.349 E18.43287
G1 X142.078 Y64.556 E18.46468
G1 X142.701 Y64.837 E18.4965
G1 X143.287 Y65.189 E18.52833
G1 X143.827 Y65.607 E18.56013
G1 X144.315 Y66.085 E18.59194
G1 X144.744 Y66.617 E18.62376
G1 X145.108 Y67.195 E18.65557
G1 X145.402 Y67.812 E18.68739
G1 X145.621 Y68.459 E18.7192
G1 X145.764 Y69.127 E18.75101
G1 X145.829 Y69.846 E18.78462
G1 X145.838 Y70.166 E18.79953
G1 X145.84 Y70.33 E18.80717
G1 X145.84 Y139.336 E22.02037
G1 X145.831 Y140.063 E22.05423
G1 X145.782 Y140.745 E22.08607
G1 X145.654 Y141.416 E22.11788
G1 X145.449 Y142.068 E22.1497
G1 X145.169 Y142.691 E22.18151
G1 X144.819 Y143.277 E22.21329
G1 X144.402 Y143.819 E22.24513
G1 X143.925 Y144.308 E22.27694
G1 X143.394 Y144.737 E22.30873
G1 X142.816 Y145.102 E22.34056
G1 X142.2 Y145.397 E22.37236
G1 X141.553 Y145.618 E22.4042
G1 X140.885 Y145.762 E22.43602
G1 X140.155 Y145.829 E22.47015
G1 X139.834 Y145.838 E22.4851
G1 X139.67 Y145.84 E22.49274
G1 X70.632 Y145.84 E25.70744
G1 X69.934 Y145.831 E25.73994
G1 X69.252 Y145.782 E25.77178
G1 X68.581 Y145.654 E25.80359
G1 X67.93 Y145.448 E25.83539
G1 X67.306 Y145.168 E25.86723
G1 X66.72 Y144.817 E25.89904
G1 X66.179 Y144.4 E25.93085
G1 X65.69 Y143.922 E25.96269
G1 X65.261 Y143.391 E25.99447
G1 X64.896 Y142.813 E26.02631
G1 X64.602 Y142.197 E26.05809
G1 X64.381 Y141.55 E26.08992
G1 X64.237 Y140.882 E26.12174
G1 X64.171 Y140.149 E26.15601
G1 X64.162 Y139.816 E26.17153
G1 X64.16 Y139.658 E26.17888
G1 X64.16 Y70.674 E29.39107
G1 X64.161 Y70.595 E29.39475
G1 X64.17 Y69.93 E29.42571
G1 X64.219 Y69.249 E29.45751
G1 X64.347 Y68.577 E29.48936
G1 X64.553 Y67.926 E29.52115
G1 X64.834 Y67.303 E29.55298
G1 X65.185 Y66.717 E29.58479
G1 X65.603 Y66.176 E29.61662
G1 X66.08 Y65.688 E29.6484
M204 S3000
M205 X10 Y10
G0 F3000 X66.154 Y66.401
M204 S1800
M205 X8 Y8
G1 F2400 X66.626 Y65.955 E29.67863
G1 X67.149 Y65.571 E29.70885
G1 X67.716 Y65.253 E29.73912
G1 X68.317 Y65.007 E29.76936
G1 X68.944 Y64.837 E29.79961
G1 X69.861 Y64.731 E29.84259
G1 X70.182 Y64.722 E29.85754
G1 X70.33 Y64.72 E29.86443
G1 X139.293 Y64.72 E33.07564
G1 X139.369 Y64.721 E33.07918
G1 X140.067 Y64.731 E33.11168
G1 X140.714 Y64.78 E33.1419
G1 X141.351 Y64.908 E33.17215
G1 X141.967 Y65.114 E33.2024
G1 X142.554 Y65.394 E33.23268
G1 X143.101 Y65.743 E33.26289
G1 X143.602 Y66.157 E33.29316
G1 X144.047 Y66.63 E33.3234
G1 X144.432 Y67.154 E33.35367
G1 X144.749 Y67.721 E33.38392
G1 X144.994 Y68.322 E33.41414
G1 X145.163 Y68.949 E33.44438
G1 X145.269 Y69.862 E33.48718
G1 X145.278 Y70.182 E33.50209
G1 X145.28 Y70.33 E33.50898
G1 X145.28 Y139.329 E36.72186
G1 X145.271 Y140.056 E36.75572
G1 X145.223 Y140.704 E36.78597
G1 X145.095 Y141.341 E36.81623
G1 X144.891 Y141.958 E36.84649
G1 X144.612 Y142.545 E36.87675
G1 X144.264 Y143.093 E36.90698
G1 X143.851 Y143.594 E36.93721
G1 X143.379 Y144.041 E36.96748
G1 X142.856 Y144.426 E36.99772
G1 X142.29 Y144.744 E37.02795
G1 X141.688 Y144.991 E37.05825
G1 X141.062 Y145.161 E37.08846
G1 X140.139 Y145.269 E37.13173
G1 X139.818 Y145.278 E37.14668
G1 X139.67 Y145.28 E37.15357
G1 X70.639 Y145.28 E40.36794
G1 X69.941 Y145.271 E40.40045
G1 X69.293 Y145.222 E40.43071
G1 X68.656 Y145.095 E40.46095
G1 X68.04 Y144.89 E40.49118
G1 X67.453 Y144.611 E40.52145
G1 X66.905 Y144.262 E40.5517
G1 X66.404 Y143.849 E40.58193
G1 X65.957 Y143.377 E40.6122
G1 X65.572 Y142.854 E40.64244
G1 X65.254 Y142.287 E40.67271
G1 X65.008 Y141.686 E40.70295
G1 X64.838 Y141.059 E40.7332
G1 X64.731 Y140.134 E40.77656
G1 X64.722 Y139.801 E40.79207
G1 X64.72 Y139.658 E40.79873
G1 X64.72 Y70.603 E44.01422
G1 X64.729 Y69.938 E44.04519
G1 X64.778 Y69.29 E44.07545
G1 X64.906 Y68.653 E44.10571
G1 X65.111 Y68.036 E44.13598
G1 X65.391 Y67.45 E44.16622
G1 X65.74 Y66.902 E44.19647
G1 X66.154 Y66.401 E44.22674
M204 S3000
M205 X10 Y10
G1 F2400 E38.22674
;MESH:rbg_led_cube_shell_v2.stl
G0 F3000 X69.335 Y71.179
G0 X70.52 Y71.179
G0 X78.186 Y78.305
G0 X78.65 Y131.35
G0 X78.72 Y131.28
M204 S1800
M205 X8 Y8
;TYPE:WALL-OUTER
G1 F2400 E44.22674
G1 F1500 X79 Y131.28 E44.23977
G1 X131.279 Y131.279 E46.6741
G1 X131.279 Y78.721 E49.12142
G1 X122.54 Y78.72 E49.52835
G1 X78.721 Y78.721 E51.56875
G1 X78.72 Y131 E54.00307
G1 X78.72 Y131.28 E54.01151
M204 S3000
M205 X10 Y10
G0 F3000 X78.92 Y131.28
G0 X78.919 Y131.38
G0 X70.997 Y139.127
G0 X71.179 Y139.48
M204 S1800
M205 X8 Y8
G1 F1500 X138.821 Y139.48 E57.16121
G1 X138.912 Y139.259 E57.17234
G1 X138.964 Y139.134 E57.17864
G1 X131.681 Y131.851 E57.65824
G1 X78.319 Y131.851 E60.143
G1 X71.036 Y139.134 E60.6226
G1 X71.088 Y139.259 E60.6289
G1 X71.179 Y139.48 E60.64003
M204 S3000
M205 X10 Y10
G0 F3000 X71.379 Y139.48
G0 X71.379 Y139.58
G0 X70.437 Y138.876
G0 X70.52 Y138.821
M204 S1800
M205 X8 Y8
G1 F1500 X70.741 Y138.912 E60.65116
G1 X70.866 Y138.964 E60.65746
G1 X78.149 Y131.681 E60.86299
G1 X78.15 Y78.32 E63.3477
G1 X70.866 Y71.036 E63.82737
G1 X70.741 Y71.088 E63.83367
G1 X70.52 Y71.179 E63.8448
G1 X70.52 Y138.821 E66.99449
M204 S3000
M205 X10 Y10
G0 F3000 X70.704 Y138.897
G0 X70.665 Y138.989
G0 X139.06 Y139.62
G0 X139.06 Y139.72
M204 S1800
M205 X8 Y8
G1 F1500 X138.821 Y139.72 E67.00298
G1 X71.179 Y139.72 E68.35285
G1 X70.94 Y139.72 E68.36134
G1 X70.28 Y139.72 E68.39207
G1 X70.28 Y139.06 E68.4228
G1 X70.28 Y138.821 E68.43129
G1 X70.28 Y71.179 E69.78116
G1 X70.28 Y70.94 E69.78965
G1 X70.28 Y70.28 E69.82038
G1 X70.94 Y70.28 E69.85111
G1 X71.179 Y70.28 E69.86224
G1 X138.821 Y70.28 E73.01194
G1 X139.06 Y70.28 E73.02307
G1 X139.72 Y70.28 E73.0538
G1 X139.72 Y70.94 E73.08453
G1 X139.72 Y71.179 E73.09566
G1 X139.72 Y138.821 E76.24536
G1 X139.72 Y139.06 E76.25648
G1 X139.72 Y139.72 E76.28722
G1 X139.06 Y139.72 E76.31795
M204 S3000
M205 X10 Y10
G0 F3000 X138.86 Y139.72
G0 X138.86 Y139.62
G0 X139.563 Y138.876
G0 X139.48 Y138.821
M204 S1800
M205 X8 Y8
G1 F1500 X139.48 Y71.179 E77.66782
G1 X139.259 Y71.088 E77.67631
G1 X139.134 Y71.036 E77.68261
G1 X131.851 Y78.319 E78.16221
G1 X131.851 Y131.681 E80.64697
G1 X139.134 Y138.964 E80.8525
G1 X139.259 Y138.912 E80.8588
G1 X139.48 Y138.821 E80.86729
M204 S3000
M205 X10 Y10
G0 F3000 X139.48 Y138.621
G0 X139.58 Y138.621
G0 X139.513 Y71.157
G0 X138.876 Y70.437
G0 X138.821 Y70.52
M204 S1800
M205 X8 Y8
G1 F1500 X71.179 Y70.52 E82.21716
G1 X71.088 Y70.741 E82.22564
G1 X71.036 Y70.866 E82.23195
G1 X78.319 Y78.149 E82.43746
G1 X131.68 Y78.15 E84.92218
G1 X138.964 Y70.866 E85.12777
G1 X138.912 Y70.741 E85.13408
G1 X138.821 Y70.52 E85.14256
M204 S3000
M205 X10 Y10
G0 F3000 X138.621 Y70.52
G0 X139.285 Y70.555
M204 S1800
M205 X8 Y8
;TYPE:SKIN
G1 F1500 X139.444 Y70.713 E85.14629
M204 S3000
M205 X10 Y10
G0 F3000 X139.513 Y138.843
G0 X139.224 Y139.224
M204 S1800
M205 X8 Y8
G1 F1500 X139.444 Y139.444 E85.15147
M204 S3000
M205 X10 Y10
G0 F3000 X71.157 Y139.513
G0 X70.713 Y139.444
M204 S1800
M205 X8 Y8
G1 F1500 X70.555 Y139.285 E85.15519
M204 S3000
M205 X10 Y10
G0 F3000 X70.487 Y71.157
G0 X70.774 Y70.774
M204 S1800
M205 X8 Y8
G1 F1500 X70.554 Y70.554 E85.16037
M204 S3000
M205 X10 Y10
G0 F3000 X70.84 Y70.84
;MESH:NONMESH
G0 F600 X70.84 Y70.84 Z0.5
G0 F3000 X70.671 Y70.77
;TIME_ELAPSED:79.039905
;LAYER:1
M140 S60
M204 S1800
M205 X8 Y8
;TYPE:WALL-INNER
;MESH:rbg_led_cube_shell_v2.stl
G1 F2250 X70.6 Y70.799 E85.16419
G1 X70.6 Y70.741 E85.16456
G1 X70.6 Y70.6 E85.16839
G1 X70.741 Y70.6 E85.17265
G1 X70.799 Y70.6 E85.17357
G1 X70.771 Y70.67 E85.17415
G1 X70.741 Y70.741 E85.17482
G1 X70.671 Y70.77 E85.17543
M204 S3000
M205 X10 Y10
G0 F4500 X70.567 Y138.79
G0 X70.77 Y139.329
M204 S1800
M205 X8 Y8
G1 F2250 X70.799 Y139.4 E85.17926
G1 X70.741 Y139.4 E85.17962
G1 X70.6 Y139.4 E85.18346
G1 X70.6 Y139.259 E85.18771
G1 X70.6 Y139.201 E85.18864
G1 X70.67 Y139.229 E85.18921
G1 X70.741 Y139.259 E85.18989
G1 X70.77 Y139.329 E85.1905
M204 S3000
M205 X10 Y10
G0 F4500 X109.527 Y139.433
G0 X139.259 Y139.4
M204 S1800
M205 X8 Y8
G1 F2250 X139.201 Y139.4 E85.19339
G1 X139.229 Y139.33 E85.19465
G1 X139.259 Y139.259 E85.19644
G1 X139.329 Y139.23 E85.1983
G1 X139.4 Y139.201 E85.20213
G1 X139.4 Y139.259 E85.20249
G1 X139.4 Y139.4 E85.20633
G1 X139.259 Y139.4 E85.21019
M204 S3000
M205 X10 Y10
G0 F4500 X139.433 Y71.21
G0 X139.33 Y70.771
M204 S1800
M205 X8 Y8
G1 F2250 X139.259 Y70.741 E85.21404
G1 X139.23 Y70.671 E85.21782
G1 X139.201 Y70.6 E85.22165
G1 X139.259 Y70.6 E85.22201
G1 X139.4 Y70.6 E85.22584
G1 X139.4 Y70.741 E85.22974
G1 X139.4 Y70.799 E85.23057
G1 X139.33 Y70.771 E85.23115
M204 S3000
M205 X10 Y10
G0 F4500 X138.768 Y70.6
M204 S1800
M205 X8 Y8
;TYPE:WALL-OUTER
G1 F2250 X138.608 Y70.6 E85.23913
G1 X71.392 Y70.6 E88.59255
G1 X71.232 Y70.6 E88.60054
G1 X71.13 Y70.847 E88.61387
G1 X71.243 Y70.96 E88.62061
G1 X78.102 Y77.819 E89.10455
G1 X131.897 Y77.82 E91.7884
G1 X138.757 Y70.96 E92.27241
G1 X138.87 Y70.847 E92.27915
G1 X138.768 Y70.6 E92.29248
M204 S3000
M205 X10 Y10
G0 F4500 X138.608 Y70.6
G0 X138.568 Y70.6
G0 X138.568 Y70.5
G0 X139.433 Y71.21
G0 X139.483 Y138.823
G0 X139.4 Y138.768
M204 S1800
M205 X8 Y8
G1 F2250 X139.4 Y138.608 E92.30046
G1 X139.4 Y71.392 E95.65388
G1 X139.4 Y71.232 E95.66187
G1 X139.153 Y71.13 E95.6752
G1 X139.04 Y71.243 E95.68194
G1 X132.181 Y78.102 E96.16588
G1 X132.181 Y131.898 E98.84977
G1 X139.04 Y138.757 E99.33371
G1 X139.153 Y138.87 E99.34046
G1 X139.4 Y138.768 E99.35379
M204 S3000
M205 X10 Y10
G0 F4500 X139.4 Y138.608
G0 X139.4 Y138.568
G0 X139.5 Y138.568
G0 X138.533 Y139.704
G0 X138.768 Y139.8
M204 S1800
M205 X8 Y8
G1 F2250 X71.232 Y139.8 E102.72317
G1 X70.2 Y139.8 E102.77466
G1 X70.2 Y138.768 E102.82615
G1 X70.2 Y71.232 E106.19553
G1 X70.2 Y70.2 E106.24702
G1 X71.232 Y70.2 E106.29851
G1 X138.768 Y70.2 E109.66789
G1 X139.8 Y70.2 E109.71938
G1 X139.8 Y71.232 E109.77086
G1 X139.8 Y138.768 E113.14025
G1 X139.8 Y139.8 E113.19173
G1 X138.768 Y139.8 E113.24322
M204 S3000
M205 X10 Y10
G0 F4500 X138.568 Y139.8
G0 X138.568 Y139.7
G0 X131.914 Y132.145
G0 X78.48 Y131.52
G0 X78.55 Y131.45
M204 S1800
M205 X8 Y8
G1 F2250 X78.75 Y131.45 E113.2532
G1 X131.449 Y131.449 E115.88236
G1 X131.449 Y78.551 E118.52146
G1 X123.057 Y78.55 E118.94013
G1 X78.551 Y78.551 E121.16055
G1 X78.55 Y131.25 E123.78971
G1 X78.55 Y131.45 E123.79617
M204 S3000
M205 X10 Y10
G0 F4500 X78.75 Y131.45
G0 X78.749 Y131.55
G0 X78.086 Y132.145
G0 X71.091 Y139.146
G0 X71.232 Y139.4
M204 S1800
M205 X8 Y8
G1 F2250 X71.392 Y139.4 E123.80415
G1 X138.608 Y139.4 E127.15757
G1 X138.768 Y139.4 E127.16556
G1 X138.87 Y139.153 E127.17889
G1 X138.757 Y139.04 E127.18563
G1 X131.898 Y132.181 E127.66957
G1 X78.102 Y132.181 E130.35346
G1 X71.243 Y139.04 E130.8374
G1 X71.13 Y139.153 E130.84415
G1 X71.232 Y139.4 E130.85748
M204 S3000
M205 X10 Y10
G0 F4500 X71.392 Y139.4
G0 X71.432 Y139.4
G0 X71.432 Y139.5
G0 X70.517 Y138.823
G0 X70.6 Y138.768
M204 S1800
M205 X8 Y8
G1 F2250 X70.847 Y138.87 E130.87081
G1 X70.96 Y138.757 E130.87878
G1 X77.819 Y131.898 E131.36272
G1 X77.82 Y78.103 E134.04657
G1 X70.96 Y71.243 E134.53058
G1 X70.847 Y71.13 E134.53855
G1 X70.6 Y71.232 E134.55188
G1 X70.6 Y71.392 E134.55864
G1 X70.6 Y138.608 E137.91206
G1 X70.6 Y138.768 E137.91882
M204 S3000
M205 X10 Y10
G0 F4500 X70.785 Y138.844
G0 X70.746 Y138.936
G0 X78.014 Y131.854
G0 X78.184 Y131.684
M204 S1800
M205 X8 Y8
;TYPE:SKIN
G1 F1350 X78.337 Y131.814 E137.92736
G1 X131.228 Y131.814 E140.17579
G1 X131.814 Y131.228 E140.21102
G1 X131.814 Y78.337 E142.45946
G1 X131.683 Y78.184 E142.46802
G1 X78.792 Y78.184 E144.71646
G1 X78.347 Y78.347 E144.73661
G1 X78.064 Y78.064 E144.75362
G1 X78.184 Y79.075 E144.7969
G1 X78.184 Y131.401 E147.02132
M204 S3000
M205 X10 Y10
G0 F4500 X78.014 Y131.572
G0 X131.34 Y131.985
M204 S1800
M205 X8 Y8
G1 F1350 X131.985 Y131.34 E147.04408
M204 S3000
M205 X10 Y10
G0 F4500 X131.804 Y131.804
M204 S1800
M205 X8 Y8
G1 F1350 X131.945 Y131.945 E147.05962
M204 S3000
M205 X10 Y10
G0 F4500 X131.812 Y131.781
;MESH:NONMESH
G0 F600 X131.812 Y131.781 Z0.8
G0 F4500 X78.522 Y131.478
G0 X78.521 Y78.603
G0 X70.671 Y70.77
;TIME_ELAPSED:125.201493
;LAYER:2
M204 S1800
M205 X8 Y8
;TYPE:WALL-INNER
;MESH:rbg_led_cube_shell_v2.stl
G1 F3000 X70.6 Y70.799 E147.06345
G1 X70.6 Y70.741 E147.06382
G1 X70.6 Y70.6 E147.06765
G1 X70.741 Y70.6 E147.07191
G1 X70.799 Y70.6 E147.07283
G1 X70.771 Y70.67 E147.07341
G1 X70.741 Y70.741 E147.07408
G1 X70.671 Y70.77 E147.07469
M204 S3000
M205 X10 Y10
G0 F6000 X70.567 Y138.79
G0 X70.77 Y139.329
M204 S1800
M205 X8 Y8
G1 F3000 X70.799 Y139.4 E147.07851
G1 X70.741 Y139.4 E147.07888
G1 X70.6 Y139.4 E147.08271
G1 X70.6 Y139.259 E147.08697
G1 X70.6 Y139.201 E147.08789
G1 X70.67 Y139.229 E147.08847
G1 X70.741 Y139.259 E147.08914
G1 X70.77 Y139.329 E147.08975
M204 S3000
M205 X10 Y10
G0 F6000 X109.527 Y139.433
G0 X139.259 Y139.4
M204 S1800
M205 X8 Y8
G1 F3000 X139.201 Y139.4 E147.09264
G1 X139.229 Y139.33 E147.09391
G1 X139.259 Y139.259 E147.0957
