;FLAVOR:Marlin
;TIME:7605
;Filament used: 10.9436m
;Layer height: 0.3
;MINX:30.661
;MINY:63.6
;MINZ:0.3
;MAXX:199.622
;MAXY:152.005
;MAXZ:51.3
;Generated with Cura_SteamEngine 4.4.1
M82 ;absolute extrusion mode
G21 ;metric values
G90 ;absolute positioning
M82 ;set extruder to absolute mode
M107 ;start with the fan off

M104 S200 T0 ; start heating T0 to what is set in Cura
M140 S60 ; start heating the bed to what is set in Cura
M190 S60 ; start heating the bed to what is set in Cura
M109 S200 T0 ; start heating T0 to what is set in Cura

G28 X0 Y0 ;move X/Y to min endstops
G28 Z0 ;move Z to min endstops
G1 Z15.0 F2400 ;move the platform down 15mm
G92 E0 ;zero the extruded length
G1 F200 E3 ;extrude 3mm of feed stock
G92 E0 ;zero the extruded length again
G1 F2400
G0 Y20 F2400
M117 Printing...
G5
G92 E0
G92 E0
G1 F2400 E-6
;LAYER_COUNT:171
;LAYER:0
M106 S255
M204 S3000
M205 X10 Y10
G1 F600 Z0.375
G0 F3000 X34.347 Y64.217 Z0.375
M204 S1800
M205 X8 Y8
;TYPE:SKIRT
G1 F600 Z0.3
G1 F2400 E0
G1 X35.01 Y63.95 E0.04992
G1 X35.699 Y63.758 E0.09988
G1 X36.405 Y63.644 E0.14983
G1 X36.891 Y63.612 E0.18385
G1 X37.212 Y63.603 E0.20628
G1 X37.391 Y63.6 E0.21878
G1 X106.354 Y63.6 E5.03559
G1 X106.446 Y63.601 E5.04202
G1 X107.144 Y63.611 E5.09078
G1 X107.857 Y63.661 E5.1407
G1 X108.382 Y63.75 E5.17789
G1 X109.022 Y63.886 E5.22359
G1 X111.679 Y64.419 E5.41287
G1 X114.303 Y64.869 E5.59882
G1 X116.903 Y65.238 E5.78224
G1 X119.541 Y65.538 E5.96768
G1 X122.168 Y65.76 E6.15182
G1 X124.796 Y65.909 E6.33567
G1 X128.868 Y65.995 E6.62015
G1 X192.515 Y65.995 E11.06566
G1 X192.607 Y65.996 E11.07209
G1 X193.305 Y66.006 E11.12084
G1 X194.018 Y66.056 E11.17077
G1 X194.722 Y66.185 E11.22076
G1 X195.406 Y66.393 E11.27069
G1 X196.063 Y66.675 E11.32063
G1 X196.685 Y67.029 E11.37062
G1 X197.263 Y67.45 E11.42056
G1 X197.791 Y67.933 E11.47054
G1 X198.261 Y68.471 E11.52044
G1 X198.669 Y69.059 E11.57043
G1 X199.008 Y69.689 E11.6204
G1 X199.275 Y70.352 E11.67032
G1 X199.466 Y71.042 E11.72033
G1 X199.579 Y71.748 E11.77026
G1 X199.61 Y72.225 E11.80365
G1 X199.619 Y72.545 E11.82601
G1 X199.622 Y72.725 E11.83859
G1 X199.622 Y144.948 E16.88309
G1 X199.613 Y145.675 E16.93388
G1 X199.564 Y146.389 E16.98386
G1 X199.436 Y147.093 E17.03384
G1 X199.23 Y147.778 E17.0838
G1 X198.949 Y148.435 E17.13371
G1 X198.596 Y149.058 E17.18373
G1 X198.176 Y149.637 E17.23369
G1 X197.694 Y150.165 E17.28362
G1 X197.157 Y150.637 E17.33356
G1 X196.569 Y151.045 E17.38355
G1 X195.94 Y151.386 E17.43352
G1 X195.277 Y151.654 E17.48347
G1 X194.588 Y151.846 E17.53343
G1 X193.882 Y151.961 E17.58339
G1 X193.392 Y151.993 E17.61768
G1 X193.071 Y152.002 E17.64011
G1 X192.892 Y152.005 E17.65262
G1 X120.719 Y152.005 E22.69363
G1 X120.628 Y152.004 E22.69999
G1 X119.925 Y151.994 E22.7491
G1 X119.211 Y151.944 E22.79909
G1 X118.508 Y151.815 E22.84901
G1 X117.978 Y151.662 E22.88754
G1 X116.997 Y151.332 E22.95983
G1 X114.373 Y150.489 E23.15234
G1 X111.881 Y149.763 E23.33363
G1 X109.279 Y149.087 E23.5214
G1 X106.732 Y148.5 E23.70396
G1 X104.099 Y147.973 E23.89152
G1 X101.531 Y147.533 E24.0735
G1 X98.89 Y147.157 E24.25982
G1 X96.272 Y146.86 E24.44385
G1 X93.633 Y146.635 E24.62884
G1 X91.012 Y146.487 E24.8122
G1 X86.926 Y146.4 E25.09766
G1 X37.768 Y146.4 E28.53116
G1 X37.676 Y146.399 E28.53759
G1 X36.978 Y146.389 E28.58635
G1 X36.265 Y146.339 E28.63627
G1 X35.561 Y146.21 E28.68626
G1 X34.877 Y146.002 E28.7362
G1 X34.22 Y145.72 E28.78613
G1 X33.598 Y145.366 E28.83612
G1 X33.02 Y144.945 E28.88607
G1 X32.492 Y144.462 E28.93605
G1 X32.022 Y143.924 E28.98594
G1 X31.614 Y143.336 E29.03593
G1 X31.275 Y142.706 E29.0859
G1 X31.008 Y142.043 E29.13582
G1 X30.817 Y141.353 E29.18583
G1 X30.704 Y140.647 E29.23577
G1 X30.672 Y140.163 E29.26965
G1 X30.663 Y139.831 E29.29285
G1 X30.661 Y139.658 E29.30493
G1 X30.661 Y70.698 E34.12153
G1 X30.662 Y70.614 E34.1274
G1 X30.671 Y69.925 E34.17553
G1 X30.72 Y69.212 E34.22544
G1 X30.848 Y68.508 E34.27542
G1 X31.055 Y67.823 E34.3254
G1 X31.336 Y67.166 E34.37531
G1 X31.689 Y66.544 E34.42527
G1 X32.11 Y65.965 E34.47527
G1 X32.592 Y65.437 E34.5252
G1 X33.13 Y64.966 E34.57514
G1 X33.717 Y64.557 E34.62512
G1 X34.347 Y64.217 E34.67512
M204 S3000
M205 X10 Y10
G0 F3000 X34.865 Y64.601
M204 S1800
M205 X8 Y8
G1 F2400 X35.512 Y64.381 E34.72285
G1 X36.18 Y64.237 E34.77058
G1 X36.906 Y64.171 E34.8215
G1 X37.227 Y64.162 E34.84393
G1 X37.391 Y64.16 E34.85538
G1 X106.354 Y64.16 E39.67219
G1 X106.438 Y64.161 E39.67806
G1 X107.136 Y64.171 E39.72682
G1 X107.817 Y64.22 E39.7745
G1 X108.266 Y64.298 E39.80633
G1 X108.887 Y64.43 E39.85068
G1 X111.578 Y64.969 E40.04237
G1 X114.2 Y65.419 E40.22818
G1 X116.836 Y65.794 E40.41415
G1 X119.5 Y66.096 E40.60141
G1 X122.127 Y66.319 E40.78556
G1 X124.781 Y66.469 E40.97123
G1 X128.856 Y66.555 E41.25591
G1 X192.515 Y66.555 E45.70226
G1 X192.599 Y66.556 E45.70813
G1 X193.297 Y66.566 E45.75688
G1 X193.978 Y66.615 E45.80457
G1 X194.649 Y66.744 E45.8523
G1 X195.3 Y66.951 E45.90001
G1 X195.923 Y67.232 E45.94775
G1 X196.509 Y67.584 E45.99549
G1 X197.049 Y68.002 E46.04319
G1 X197.537 Y68.48 E46.0909
G1 X197.966 Y69.012 E46.13864
G1 X198.33 Y69.59 E46.18635
G1 X198.624 Y70.207 E46.23408
G1 X198.843 Y70.854 E46.28179
G1 X198.986 Y71.522 E46.32951
G1 X199.051 Y72.241 E46.37993
G1 X199.06 Y72.561 E46.40229
G1 X199.062 Y72.725 E46.41375
G1 X199.062 Y144.941 E51.45777
G1 X199.053 Y145.668 E51.50855
G1 X199.004 Y146.35 E51.55631
G1 X198.876 Y147.021 E51.60402
G1 X198.671 Y147.673 E51.65176
G1 X198.391 Y148.296 E51.69946
G1 X198.041 Y148.882 E51.74714
G1 X197.624 Y149.424 E51.7949
G1 X197.147 Y149.913 E51.84261
G1 X196.616 Y150.342 E51.89029
G1 X196.038 Y150.707 E51.93804
G1 X195.422 Y151.002 E51.98575
G1 X194.775 Y151.223 E52.0335
G1 X194.107 Y151.367 E52.08123
G1 X193.377 Y151.434 E52.13243
G1 X193.056 Y151.443 E52.15486
G1 X192.892 Y151.445 E52.16632
G1 X120.719 Y151.445 E57.20733
G1 X120.636 Y151.444 E57.21313
G1 X119.933 Y151.434 E57.26224
G1 X119.252 Y151.385 E57.30993
G1 X118.581 Y151.256 E57.35765
G1 X118.157 Y151.131 E57.38853
G1 X117.112 Y150.78 E57.46552
G1 X114.599 Y149.972 E57.6499
G1 X112.001 Y149.216 E57.83888
G1 X109.443 Y148.551 E58.02349
G1 X106.825 Y147.947 E58.21115
G1 X104.2 Y147.422 E58.39813
G1 X101.63 Y146.982 E58.58024
G1 X98.962 Y146.602 E58.76847
G1 X96.313 Y146.301 E58.95469
G1 X93.675 Y146.077 E59.13961
G1 X91.027 Y145.927 E59.32485
G1 X86.938 Y145.84 E59.61052
G1 X37.768 Y145.84 E63.04486
G1 X37.684 Y145.839 E63.05073
G1 X36.986 Y145.829 E63.09949
G1 X36.305 Y145.78 E63.14718
G1 X35.634 Y145.651 E63.1949
G1 X34.983 Y145.444 E63.24261
G1 X34.36 Y145.163 E63.29035
G1 X33.774 Y144.811 E63.3381
G1 X33.234 Y144.393 E63.38579
G1 X32.746 Y143.915 E63.43351
G1 X32.317 Y143.383 E63.48124
G1 X31.953 Y142.805 E63.52895
G1 X31.659 Y142.188 E63.57669
G1 X31.44 Y141.541 E63.6244
G1 X31.297 Y140.873 E63.67211
G1 X31.232 Y140.148 E63.72295
G1 X31.223 Y139.816 E63.74615
G1 X31.221 Y139.658 E63.75719
G1 X31.221 Y70.622 E68.57909
G1 X31.23 Y69.933 E68.62722
G1 X31.279 Y69.251 E68.67498
G1 X31.407 Y68.58 E68.72269
G1 X31.613 Y67.929 E68.77038
G1 X31.893 Y67.306 E68.81809
G1 X32.245 Y66.719 E68.8659
G1 X32.662 Y66.178 E68.91361
G1 X33.139 Y65.69 E68.96127
G1 X33.671 Y65.26 E69.00905
G1 X34.249 Y64.896 E69.05676
G1 X34.865 Y64.601 E69.10446
M204 S3000
M205 X10 Y10
G0 F3000 X34.775 Y65.254
M204 S1800
M205 X8 Y8
G1 F2400 X35.376 Y65.008 E69.14982
G1 X36.003 Y64.838 E69.1952
G1 X36.922 Y64.731 E69.25982
G1 X37.243 Y64.722 E69.28225
G1 X37.391 Y64.72 E69.29259
G1 X106.354 Y64.72 E74.10939
G1 X106.43 Y64.721 E74.1147
G1 X107.128 Y64.731 E74.16346
G1 X107.775 Y64.78 E74.20878
G1 X108.15 Y64.845 E74.23536
G1 X108.837 Y64.991 E74.28442
G1 X111.482 Y65.521 E74.47284
G1 X114.13 Y65.975 E74.66049
G1 X116.763 Y66.35 E74.84625
G1 X119.428 Y66.652 E75.03358
G1 X122.08 Y66.877 E75.21948
G1 X124.767 Y67.029 E75.40746
G1 X128.844 Y67.115 E75.69228
G1 X192.515 Y67.115 E80.13946
G1 X192.591 Y67.116 E80.14477
G1 X193.289 Y67.126 E80.19353
G1 X193.936 Y67.175 E80.23885
G1 X194.573 Y67.303 E80.28423
G1 X195.189 Y67.509 E80.3296
G1 X195.776 Y67.789 E80.37503
G1 X196.323 Y68.138 E80.42035
G1 X196.824 Y68.552 E80.46574
G1 X197.269 Y69.025 E80.5111
G1 X197.654 Y69.549 E80.55652
G1 X197.971 Y70.116 E80.60189
G1 X198.216 Y70.717 E80.64722
G1 X198.385 Y71.344 E80.69258
G1 X198.491 Y72.257 E80.75677
G1 X198.5 Y72.577 E80.77913
G1 X198.502 Y72.725 E80.78947
G1 X198.502 Y144.934 E85.833
G1 X198.493 Y145.661 E85.88378
G1 X198.445 Y146.309 E85.92917
G1 X198.317 Y146.946 E85.97455
G1 X198.113 Y147.563 E86.01994
G1 X197.834 Y148.15 E86.06534
G1 X197.486 Y148.698 E86.11068
G1 X197.073 Y149.199 E86.15603
G1 X196.601 Y149.646 E86.20143
G1 X196.078 Y150.031 E86.24679
G1 X195.512 Y150.349 E86.29214
G1 X194.91 Y150.596 E86.33759
G1 X194.284 Y150.766 E86.38289
G1 X193.361 Y150.874 E86.4478
G1 X193.04 Y150.883 E86.47023
G1 X192.892 Y150.885 E86.48057
G1 X120.719 Y150.885 E91.52158
G1 X120.644 Y150.884 E91.52682
G1 X119.941 Y150.874 E91.57593
G1 X119.293 Y150.825 E91.62132
G1 X118.656 Y150.697 E91.6667
G1 X118.335 Y150.6 E91.69012
G1 X117.319 Y150.259 E91.76498
G1 X114.749 Y149.432 E91.95355
G1 X112.154 Y148.677 E92.14231
G1 X109.566 Y148.004 E92.32909
G1 X106.924 Y147.395 E92.51846
G1 X104.33 Y146.876 E92.70323
G1 X101.7 Y146.426 E92.8896
G1 X99.031 Y146.046 E93.0779
G1 X96.39 Y145.746 E93.26355
G1 X93.722 Y145.519 E93.45057
G1 X91.042 Y145.367 E93.63806
G1 X86.95 Y145.28 E93.92394
G1 X37.768 Y145.28 E97.35912
G1 X37.692 Y145.279 E97.36442
G1 X36.994 Y145.269 E97.41318
G1 X36.347 Y145.22 E97.4585
G1 X35.71 Y145.092 E97.50388
G1 X35.094 Y144.886 E97.54925
G1 X34.507 Y144.606 E97.59468
G1 X33.96 Y144.257 E97.64
G1 X33.459 Y143.843 E97.68539
G1 X33.014 Y143.37 E97.73075
G1 X32.629 Y142.846 E97.77617
G1 X32.312 Y142.279 E97.82154
G1 X32.067 Y141.678 E97.86687
G1 X31.898 Y141.051 E97.91223
G1 X31.792 Y140.133 E97.97677
G1 X31.783 Y139.801 E97.99997
G1 X31.781 Y139.658 E98.00996
G1 X31.781 Y70.629 E102.83138
G1 X31.79 Y69.94 E102.87951
G1 X31.839 Y69.292 E102.9249
G1 X31.966 Y68.655 E102.97026
G1 X32.171 Y68.039 E103.01561
G1 X32.45 Y67.452 E103.061
G1 X32.799 Y66.904 E103.10638
G1 X33.213 Y66.403 E103.15178
G1 X33.685 Y65.957 E103.19713
G1 X34.208 Y65.572 E103.24249
G1 X34.775 Y65.254 E103.2879
M204 S3000
M205 X10 Y10
G1 F2400 E97.2879
;MESH:rbg_led_cube_shell_v4.stl
G0 F3000 X37.355 Y69.335
G0 X37.355 Y70.294
G0 X37.498 Y71.124
G0 X37.581 Y71.179
M204 S1800
M205 X8 Y8
;TYPE:WALL-OUTER
G1 F2400 E103.2879
G1 F1500 X37.581 Y138.821 E108.01244
G1 X37.802 Y138.912 E108.02914
G1 X37.927 Y138.964 E108.03859
G1 X56.134 Y120.758 E109.83699
G1 X56.304 Y120.928 E109.85378
G1 X38.097 Y139.134 E110.62448
G1 X38.149 Y139.259 E110.63393
G1 X38.24 Y139.48 E110.65063
G1 X105.882 Y139.48 E115.37517
G1 X105.973 Y139.259 E115.39186
G1 X106.025 Y139.134 E115.40132
G1 X87.819 Y120.928 E117.19966
G1 X87.989 Y120.758 E117.21646
G1 X106.195 Y138.964 E117.98718
G1 X106.32 Y138.912 E117.99663
G1 X106.541 Y138.821 E118.01333
G1 X106.541 Y71.179 E122.73787
G1 X106.32 Y71.088 E122.75456
G1 X106.195 Y71.036 E122.76402
G1 X87.989 Y89.243 E124.56241
G1 X87.819 Y89.073 E124.5792
G1 X106.025 Y70.866 E125.3499
G1 X105.973 Y70.741 E125.35936
G1 X105.882 Y70.52 E125.37605
G1 X38.24 Y70.52 E130.10059
G1 X38.149 Y70.741 E130.11729
G1 X38.097 Y70.866 E130.12674
G1 X56.304 Y89.073 E131.92519
G1 X56.134 Y89.243 E131.94198
G1 X37.927 Y71.036 E132.71272
G1 X37.802 Y71.088 E132.72218
G1 X37.581 Y71.179 E132.73887
M204 S3000
M205 X10 Y10
G0 F3000 X37.581 Y71.379
G0 X37.481 Y71.379
G0 X37.548 Y138.843
G0 X38.218 Y139.513
G0 X106.121 Y139.62
G0 X106.121 Y139.72
M204 S1800
M205 X8 Y8
G1 F1500 X105.882 Y139.72 E132.7516
G1 X38.24 Y139.72 E134.77641
G1 X38.001 Y139.72 E134.78914
G1 X37.341 Y139.72 E134.83524
G1 X37.341 Y139.06 E134.88134
G1 X37.341 Y138.821 E134.89407
G1 X37.341 Y71.179 E136.91887
G1 X37.341 Y70.94 E136.9316
G1 X37.341 Y70.28 E136.9777
G1 X38.001 Y70.28 E137.0238
G1 X38.24 Y70.28 E137.03653
G1 X105.882 Y70.28 E139.06134
G1 X106.121 Y70.28 E139.07407
G1 X106.781 Y70.28 E139.12017
G1 X106.781 Y70.94 E139.16627
G1 X106.781 Y71.179 E139.179
G1 X106.781 Y138.821 E141.2038
G1 X106.781 Y139.06 E141.21653
G1 X106.781 Y139.72 E141.26263
G1 X106.121 Y139.72 E141.30873
M204 S3000
M205 X10 Y10
G0 F3000 X105.921 Y139.72
G0 X106.295 Y139.388
M204 S1800
M205 X8 Y8
;TYPE:SKIN
G1 F1500 X106.441 Y139.251 E141.31725
M204 S3000
M205 X10 Y10
G0 F3000 X106.377 Y139.186
G0 X106.574 Y71.157
G0 X106.349 Y70.71
M204 S1800
M205 X8 Y8
G1 F1500 X106.49 Y70.569 E141.32927
M204 S3000
M205 X10 Y10
G0 F3000 X106.505 Y70.584
G0 X38.218 Y70.487
G0 X37.809 Y70.618
M204 S1800
M205 X8 Y8
G1 F1500 X37.67 Y70.763 E141.33776
M204 S3000
M205 X10 Y10
G0 F3000 X37.726 Y70.819
G0 X37.548 Y138.843
G0 X37.615 Y139.156
M204 S1800
M205 X8 Y8
G1 F1500 X37.903 Y139.444 E141.34792
M204 S3000
M205 X10 Y10
G0 F3000 X37.548 Y139.024
G1 F2400 E135.34792
;MESH:rbg_led_cube_pilon_v4.stl
G0 F3000 X38.218 Y139.513
G0 X106.761 Y139.7
G0 X107.726 Y139.7
G0 X119.347 Y139.7
G0 X120.872 Y139.7
G0 X121.412 Y144.205
M204 S1800
M205 X8 Y8
;TYPE:WALL-INNER
G1 F2400 E141.34792
G1 F1500 X121.412 Y73.795 E146.2658
G1 X191.822 Y73.795 E151.18368
G1 X191.822 Y144.205 E156.10155
G1 X121.412 Y144.205 E161.01943
M204 S3000
M205 X10 Y10
G0 F3000 X125.217 Y133.935
M204 S1800
M205 X8 Y8
G1 F1500 X126.947 Y134.65 E161.15018
G1 X131.417 Y130.18 E161.59171
G1 X131.417 Y128.4 E161.71604
G1 X133.197 Y128.4 E161.84036
G1 X142.017 Y119.58 E162.71158
G1 X142.017 Y98.39 E164.19163
G1 X137.506 Y94.2 E164.62165
G1 X136.017 Y94.2 E164.72565
G1 X136.017 Y92.819 E164.82211
G1 X126.897 Y84.35 E165.6914
G1 X125.217 Y85.085 E165.81948
G1 X125.217 Y133.935 E169.23147
M204 S3000
M205 X10 Y10
G0 F3000 X126.822 Y134.029
G0 X146.817 Y118.8
M204 S1800
M205 X8 Y8
G1 F1500 X166.417 Y118.8 E170.60046
G1 X166.417 Y99.2 E171.96945
G1 X146.817 Y99.2 E173.33844
G1 X146.817 Y118.8 E174.70742
M204 S3000
M205 X10 Y10
G0 F3000 X166.98 Y124.124
G0 X181.646 Y138.795
G0 X181.552 Y140.4
M204 S1800
M205 X8 Y8
G1 F1500 X182.267 Y138.67 E174.83817
G1 X177.797 Y134.2 E175.27971
G1 X176.017 Y134.2 E175.40403
G1 X176.017 Y132.42 E175.52836
G1 X167.197 Y123.6 E176.39958
G1 X146.007 Y123.6 E177.87962
G1 X141.817 Y128.112 E178.30969
G1 X141.817 Y129.6 E178.41363
G1 X140.436 Y129.6 E178.51008
G1 X131.967 Y138.72 E179.37938
G1 X132.702 Y140.4 E179.50746
G1 X181.552 Y140.4 E182.91945
M204 S3000
M205 X10 Y10
G0 F3000 X187.49 Y132.57
G0 X188.017 Y84.065
M204 S1800
M205 X8 Y8
G1 F1500 X186.287 Y83.35 E183.0502
G1 X181.817 Y87.82 E183.49173
G1 X181.817 Y89.6 E183.61606
G1 X180.037 Y89.6 E183.74038
G1 X171.217 Y98.42 E184.6116
G1 X171.217 Y119.61 E186.09165
G1 X175.729 Y123.8 E186.52172
G1 X177.217 Y123.8 E186.62565
G1 X177.217 Y125.182 E186.72218
G1 X186.337 Y133.65 E187.59143
G1 X188.017 Y132.915 E187.71951
G1 X188.017 Y84.065 E191.1315
M204 S3000
M205 X10 Y10
G0 F3000 X180.187 Y78.127
G0 X131.682 Y77.6
M204 S1800
M205 X8 Y8
G1 F1500 X130.967 Y79.33 E191.26224
G1 X135.437 Y83.8 E191.70378
G1 X137.217 Y83.8 E191.82811
G1 X137.217 Y85.58 E191.95243
G1 X146.037 Y94.4 E192.82365
G1 X167.227 Y94.4 E194.30369
G1 X171.417 Y89.889 E194.73372
G1 X171.417 Y88.4 E194.83772
G1 X172.799 Y88.4 E194.93425
G1 X181.267 Y79.28 E195.80349
G1 X180.532 Y77.6 E195.93157
G1 X131.682 Y77.6 E199.34356
M204 S3000
M205 X10 Y10
G0 F3000 X132.056 Y78.16
M204 S1800
M205 X8 Y8
G1 F1500 X131.627 Y79.198 E199.42201
G1 X135.669 Y83.24 E199.82127
G1 X137.777 Y83.24 E199.96851
G1 X137.777 Y85.348 E200.11574
G1 X146.269 Y93.84 E200.95456
G1 X166.983 Y93.84 E202.40136
G1 X170.857 Y89.669 E202.79896
G1 X170.857 Y87.84 E202.92671
G1 X172.555 Y87.84 E203.04531
G1 X180.607 Y79.168 E203.87186
G1 X180.166 Y78.16 E203.9487
G1 X132.056 Y78.16 E207.30901
M204 S3000
M205 X10 Y10
G0 F3000 X132.001 Y78.077
G0 X131.588 Y79.205
G0 X141.493 Y98.619
G0 X147.307 Y118.31
G0 X147.377 Y118.24
M204 S1800
M205 X8 Y8
G1 F1500 X165.857 Y118.24 E208.59977
G1 X165.857 Y99.76 E209.89053
G1 X147.377 Y99.76 E211.18129
G1 X147.377 Y118.24 E212.47205
M204 S3000
M205 X10 Y10
G0 F3000 X147.307 Y118.31
G0 X126.822 Y134.029
