;FLAVOR:Marlin
;TIME:5638
;Filament used: 7.79294m
;Layer height: 0.3
;MINX:24.835
;MINY:75.015
;MINZ:0.2
;MAXX:182.357
;MAXY:161.073
;MAXZ:51.5
;Generated with Cura_SteamEngine 4.4.1
M140 S60
M105
M190 S60
M104 S200
M105
M109 S200
M82 ;absolute extrusion mode
G21 ;metric values
G90 ;absolute positioning
M82 ;set extruder to absolute mode
M107 ;start with the fan off
G28 X0 Y0 ;move X/Y to min endstops
G28 Z0 ;move Z to min endstops
G1 Z15.0 F2400 ;move the platform down 15mm
G92 E0 ;zero the extruded length
G1 F200 E3 ;extrude 3mm of feed stock
G92 E0 ;zero the extruded length again
G1 F2400
G0 Y20 F2400
M117 Printing...
G5
G92 E0
G92 E0
G1 F2400 E-6
;LAYER_COUNT:172
;LAYER:0
M106 S255
M204 S3000
M205 X10 Y10
G1 F600 Z0.275
G0 F3000 X29.184 Y75.365 Z0.275
M204 S1800
M205 X8 Y8
;TYPE:SKIRT
G1 F600 Z0.2
G1 F2400 E0
G1 X29.873 Y75.173 E0.03331
G1 X30.579 Y75.059 E0.06661
G1 X31.065 Y75.027 E0.08928
G1 X31.386 Y75.018 E0.10424
G1 X31.565 Y75.015 E0.11257
G1 X100.528 Y75.015 E3.32378
G1 X100.619 Y75.016 E3.32802
G1 X102.718 Y75.046 E3.42577
G1 X102.718 Y75.045 E3.42581
G1 X104.297 Y75.062 E3.49934
G1 X175.25 Y75.062 E6.80321
G1 X175.342 Y75.063 E6.80749
G1 X176.04 Y75.073 E6.84
G1 X176.753 Y75.123 E6.87328
G1 X177.457 Y75.252 E6.90661
G1 X178.141 Y75.46 E6.9399
G1 X178.798 Y75.742 E6.97319
G1 X179.42 Y76.096 E7.00652
G1 X179.998 Y76.517 E7.03981
G1 X180.526 Y77 E7.07313
G1 X180.996 Y77.538 E7.1064
G1 X181.404 Y78.126 E7.13972
G1 X181.743 Y78.756 E7.17304
G1 X182.01 Y79.419 E7.20632
G1 X182.201 Y80.109 E7.23965
G1 X182.314 Y80.815 E7.27295
G1 X182.345 Y81.286 E7.29493
G1 X182.354 Y81.595 E7.30932
G1 X182.357 Y81.781 E7.31798
G1 X182.357 Y154.016 E10.68155
G1 X182.348 Y154.743 E10.7154
G1 X182.299 Y155.457 E10.74873
G1 X182.171 Y156.161 E10.78205
G1 X181.965 Y156.846 E10.81535
G1 X181.684 Y157.503 E10.84863
G1 X181.331 Y158.126 E10.88197
G1 X180.911 Y158.705 E10.91528
G1 X180.429 Y159.233 E10.94857
G1 X179.892 Y159.705 E10.98186
G1 X179.304 Y160.113 E11.01518
G1 X178.675 Y160.454 E11.0485
G1 X178.012 Y160.722 E11.0818
G1 X177.323 Y160.914 E11.1151
G1 X176.617 Y161.029 E11.14841
G1 X176.127 Y161.061 E11.17127
G1 X175.806 Y161.07 E11.18623
G1 X175.627 Y161.073 E11.19456
G1 X103.453 Y161.073 E14.55529
G1 X103.361 Y161.072 E14.55957
G1 X102.662 Y161.062 E14.59212
G1 X101.949 Y161.012 E14.62541
G1 X101.24 Y160.881 E14.65898
G1 X100.057 Y160.593 E14.71567
G1 X99.951 Y160.567 E14.72075
G1 X99.733 Y160.51 E14.73125
G1 X97.164 Y159.918 E14.85401
G1 X94.535 Y159.388 E14.97889
G1 X91.966 Y158.95 E15.10024
G1 X89.34 Y158.576 E15.22375
G1 X86.713 Y158.277 E15.34686
G1 X84.069 Y158.051 E15.47043
G1 X81.405 Y157.9 E15.59467
G1 X78.783 Y157.825 E15.71681
G1 X77.392 Y157.815 E15.78158
G1 X31.942 Y157.815 E17.89793
G1 X31.85 Y157.814 E17.90221
G1 X31.152 Y157.804 E17.93472
G1 X30.439 Y157.754 E17.968
G1 X29.735 Y157.625 E18.00133
G1 X29.051 Y157.417 E18.03462
G1 X28.394 Y157.135 E18.06791
G1 X27.772 Y156.781 E18.10123
G1 X27.194 Y156.36 E18.13453
G1 X26.666 Y155.877 E18.16785
G1 X26.196 Y155.339 E18.20111
G1 X25.788 Y154.751 E18.23444
G1 X25.449 Y154.121 E18.26775
G1 X25.182 Y153.458 E18.30103
G1 X24.991 Y152.768 E18.33437
G1 X24.878 Y152.062 E18.36766
G1 X24.846 Y151.578 E18.39025
G1 X24.837 Y151.246 E18.40572
G1 X24.835 Y151.073 E18.41377
G1 X24.835 Y82.113 E21.62484
G1 X24.836 Y82.029 E21.62875
G1 X24.845 Y81.34 E21.66084
G1 X24.894 Y80.627 E21.69411
G1 X25.022 Y79.923 E21.72743
G1 X25.229 Y79.238 E21.76075
G1 X25.51 Y78.581 E21.79403
G1 X25.863 Y77.959 E21.82733
G1 X26.284 Y77.38 E21.86066
G1 X26.766 Y76.852 E21.89395
G1 X27.304 Y76.381 E21.92725
G1 X27.891 Y75.972 E21.96056
G1 X28.521 Y75.632 E21.9939
G1 X29.184 Y75.365 E22.02718
M204 S3000
M205 X10 Y10
G0 F3000 X29.686 Y75.796
M204 S1800
M205 X8 Y8
G1 F2400 X30.354 Y75.652 E22.059
G1 X31.08 Y75.586 E22.09294
G1 X31.401 Y75.577 E22.1079
G1 X31.565 Y75.575 E22.11553
G1 X100.528 Y75.575 E25.32674
G1 X100.611 Y75.576 E25.3306
G1 X102.712 Y75.606 E25.42845
G1 X102.712 Y75.605 E25.42849
G1 X104.291 Y75.622 E25.50202
G1 X175.25 Y75.622 E28.80617
G1 X175.334 Y75.623 E28.81008
G1 X176.032 Y75.633 E28.84259
G1 X176.713 Y75.682 E28.87438
G1 X177.384 Y75.811 E28.9062
G1 X178.035 Y76.018 E28.938
G1 X178.658 Y76.299 E28.96983
G1 X179.244 Y76.651 E29.00166
G1 X179.784 Y77.069 E29.03346
G1 X180.272 Y77.547 E29.06526
G1 X180.701 Y78.079 E29.09709
G1 X181.065 Y78.657 E29.12889
G1 X181.359 Y79.274 E29.16072
G1 X181.578 Y79.921 E29.19253
G1 X181.721 Y80.589 E29.22433
G1 X181.786 Y81.302 E29.25767
G1 X181.795 Y81.611 E29.27207
G1 X181.797 Y81.781 E29.27998
G1 X181.797 Y154.009 E32.64322
G1 X181.788 Y154.736 E32.67708
G1 X181.739 Y155.418 E32.70892
G1 X181.611 Y156.089 E32.74072
G1 X181.406 Y156.741 E32.77255
G1 X181.126 Y157.364 E32.80435
G1 X180.776 Y157.95 E32.83614
G1 X180.359 Y158.492 E32.86798
G1 X179.882 Y158.981 E32.89979
G1 X179.351 Y159.41 E32.93157
G1 X178.773 Y159.775 E32.96341
G1 X178.157 Y160.07 E32.99521
G1 X177.51 Y160.291 E33.02705
G1 X176.842 Y160.435 E33.05886
G1 X176.112 Y160.502 E33.093
G1 X175.791 Y160.511 E33.10795
G1 X175.627 Y160.513 E33.11559
G1 X103.453 Y160.513 E36.47631
G1 X103.369 Y160.512 E36.48022
G1 X102.67 Y160.502 E36.51278
G1 X101.989 Y160.453 E36.54457
G1 X101.373 Y160.337 E36.57376
G1 X100.19 Y160.049 E36.63045
G1 X100.093 Y160.025 E36.6351
G1 X99.872 Y159.967 E36.64574
G1 X97.29 Y159.372 E36.76912
G1 X94.636 Y158.837 E36.89519
G1 X92.065 Y158.399 E37.01663
G1 X89.378 Y158.016 E37.14301
G1 X86.786 Y157.721 E37.26449
G1 X84.114 Y157.493 E37.38936
G1 X81.453 Y157.342 E37.51347
G1 X78.757 Y157.264 E37.63906
G1 X77.396 Y157.255 E37.70243
G1 X31.942 Y157.255 E39.81896
G1 X31.858 Y157.254 E39.82287
G1 X31.16 Y157.244 E39.85538
G1 X30.479 Y157.195 E39.88717
G1 X29.808 Y157.066 E39.91898
G1 X29.157 Y156.859 E39.95079
G1 X28.534 Y156.578 E39.98262
G1 X27.948 Y156.226 E40.01445
G1 X27.408 Y155.808 E40.04625
G1 X26.92 Y155.33 E40.07805
G1 X26.491 Y154.798 E40.10988
G1 X26.127 Y154.22 E40.14168
G1 X25.833 Y153.603 E40.17351
G1 X25.614 Y152.956 E40.20531
G1 X25.471 Y152.288 E40.23712
G1 X25.406 Y151.563 E40.27102
G1 X25.397 Y151.231 E40.28648
G1 X25.395 Y151.073 E40.29384
G1 X25.395 Y82.037 E43.50845
G1 X25.404 Y81.348 E43.54053
G1 X25.453 Y80.666 E43.57237
G1 X25.581 Y79.995 E43.60418
G1 X25.787 Y79.344 E43.63597
G1 X26.067 Y78.721 E43.66778
G1 X26.419 Y78.134 E43.69965
G1 X26.836 Y77.593 E43.73146
G1 X27.313 Y77.105 E43.76323
G1 X27.845 Y76.675 E43.79508
G1 X28.423 Y76.311 E43.82689
G1 X29.039 Y76.016 E43.85869
G1 X29.686 Y75.796 E43.89051
M204 S3000
M205 X10 Y10
G0 F3000 X29.55 Y76.423
M204 S1800
M205 X8 Y8
G1 F2400 X30.177 Y76.253 E43.92076
G1 X31.096 Y76.146 E43.96385
G1 X31.417 Y76.137 E43.9788
G1 X31.565 Y76.135 E43.98569
G1 X100.528 Y76.135 E47.1969
G1 X100.603 Y76.136 E47.20039
G1 X102.706 Y76.166 E47.29832
G1 X102.706 Y76.165 E47.29837
G1 X104.285 Y76.182 E47.3719
G1 X175.25 Y76.182 E50.67633
G1 X175.326 Y76.183 E50.67987
G1 X176.024 Y76.193 E50.71237
G1 X176.671 Y76.242 E50.74258
G1 X177.308 Y76.37 E50.77284
G1 X177.924 Y76.576 E50.80308
G1 X178.511 Y76.856 E50.83337
G1 X179.058 Y77.205 E50.86358
G1 X179.559 Y77.619 E50.89384
G1 X180.004 Y78.092 E50.92408
G1 X180.389 Y78.616 E50.95436
G1 X180.706 Y79.183 E50.98461
G1 X180.951 Y79.784 E51.01483
G1 X181.12 Y80.411 E51.04507
G1 X181.226 Y81.318 E51.08759
G1 X181.235 Y81.627 E51.10198
G1 X181.237 Y81.781 E51.10915
G1 X181.237 Y154.002 E54.47207
G1 X181.228 Y154.729 E54.50592
G1 X181.18 Y155.377 E54.53618
G1 X181.052 Y156.014 E54.56643
G1 X180.848 Y156.631 E54.59669
G1 X180.569 Y157.218 E54.62696
G1 X180.221 Y157.766 E54.65718
G1 X179.808 Y158.267 E54.68742
G1 X179.336 Y158.714 E54.71769
G1 X178.813 Y159.099 E54.74793
G1 X178.247 Y159.417 E54.77816
G1 X177.645 Y159.664 E54.80846
G1 X177.019 Y159.834 E54.83866
G1 X176.096 Y159.942 E54.88193
G1 X175.775 Y159.951 E54.89689
G1 X175.627 Y159.953 E54.90378
G1 X103.453 Y159.953 E58.2645
G1 X103.377 Y159.952 E58.26804
G1 X102.678 Y159.942 E58.30059
G1 X102.031 Y159.893 E58.33081
G1 X101.505 Y159.793 E58.35574
G1 X100.322 Y159.505 E58.41243
G1 X100.235 Y159.483 E58.41661
G1 X100.004 Y159.423 E58.42772
G1 X97.416 Y158.827 E58.55139
G1 X94.744 Y158.287 E58.67832
G1 X92.128 Y157.842 E58.80188
G1 X89.482 Y157.465 E58.92634
G1 X86.831 Y157.163 E59.05058
G1 X84.158 Y156.934 E59.1755
G1 X81.464 Y156.782 E59.30114
G1 X78.777 Y156.705 E59.42631
G1 X77.4 Y156.695 E59.49043
G1 X31.942 Y156.695 E61.60715
G1 X31.866 Y156.694 E61.61069
G1 X31.168 Y156.684 E61.64319
G1 X30.521 Y156.635 E61.6734
G1 X29.884 Y156.507 E61.70366
G1 X29.268 Y156.301 E61.7339
G1 X28.681 Y156.021 E61.76419
G1 X28.134 Y155.672 E61.7944
G1 X27.633 Y155.258 E61.82466
G1 X27.188 Y154.785 E61.8549
G1 X26.803 Y154.261 E61.88518
G1 X26.486 Y153.694 E61.91543
G1 X26.241 Y153.093 E61.94565
G1 X26.072 Y152.466 E61.97589
G1 X25.966 Y151.548 E62.01892
G1 X25.957 Y151.216 E62.03438
G1 X25.955 Y151.073 E62.04104
G1 X25.955 Y82.044 E65.25532
G1 X25.964 Y81.355 E65.28741
G1 X26.013 Y80.707 E65.31767
G1 X26.14 Y80.07 E65.34791
G1 X26.345 Y79.454 E65.37814
G1 X26.624 Y78.867 E65.40841
G1 X26.973 Y78.319 E65.43866
G1 X27.387 Y77.818 E65.46892
G1 X27.859 Y77.372 E65.49916
G1 X28.382 Y76.987 E65.5294
G1 X28.949 Y76.669 E65.55967
G1 X29.55 Y76.423 E65.58991
M204 S3000
M205 X10 Y10
G1 F2400 E59.58991
;MESH:rbg_led_cube_shell_v2.stl
G0 F3000 X30.57 Y82.594
G0 X31.755 Y82.594
G0 X39.421 Y89.72
G0 X39.886 Y142.765
G0 X39.956 Y142.695
M204 S1800
M205 X8 Y8
;TYPE:WALL-OUTER
G1 F2400 E65.58991
G1 F1500 X40.236 Y142.695 E65.60295
G1 X92.514 Y142.694 E68.03723
G1 X92.514 Y90.137 E70.4845
G1 X83.775 Y90.136 E70.89143
G1 X39.957 Y90.137 E72.93178
G1 X39.956 Y142.415 E75.36606
G1 X39.956 Y142.695 E75.3745
M204 S3000
M205 X10 Y10
G0 F3000 X40.156 Y142.695
G0 X40.155 Y142.795
G0 X32.232 Y150.542
G0 X32.414 Y150.895
M204 S1800
M205 X8 Y8
G1 F1500 X100.056 Y150.895 E78.52419
G1 X100.147 Y150.674 E78.53532
G1 X100.199 Y150.549 E78.54163
G1 X92.916 Y143.266 E79.02123
G1 X39.554 Y143.266 E81.50598
G1 X32.271 Y150.549 E81.98558
G1 X32.323 Y150.674 E81.99189
G1 X32.414 Y150.895 E82.00301
M204 S3000
M205 X10 Y10
G0 F3000 X32.614 Y150.895
G0 X32.614 Y150.995
G0 X31.672 Y150.291
G0 X31.755 Y150.236
M204 S1800
M205 X8 Y8
G1 F1500 X31.976 Y150.327 E82.01414
G1 X32.101 Y150.379 E82.02045
G1 X39.384 Y143.096 E82.22598
G1 X39.385 Y89.735 E84.71069
G1 X32.101 Y82.451 E85.19035
G1 X31.976 Y82.503 E85.19666
G1 X31.755 Y82.594 E85.20778
G1 X31.755 Y150.236 E88.35748
M204 S3000
M205 X10 Y10
G0 F3000 X31.939 Y150.312
G0 X31.9 Y150.404
G0 X100.295 Y151.035
G0 X100.295 Y151.135
M204 S1800
M205 X8 Y8
G1 F1500 X100.056 Y151.135 E88.36597
G1 X32.414 Y151.135 E89.71584
G1 X32.175 Y151.135 E89.72433
G1 X31.515 Y151.135 E89.75506
G1 X31.515 Y150.475 E89.78579
G1 X31.515 Y150.236 E89.79428
G1 X31.515 Y82.594 E91.14415
G1 X31.515 Y82.355 E91.15264
G1 X31.515 Y81.695 E91.18337
G1 X32.175 Y81.695 E91.2141
G1 X32.414 Y81.695 E91.22523
G1 X100.056 Y81.695 E94.37492
G1 X100.295 Y81.695 E94.38605
G1 X100.955 Y81.695 E94.41678
G1 X100.955 Y82.355 E94.44752
G1 X100.955 Y82.594 E94.45865
G1 X100.955 Y150.236 E97.60834
G1 X100.955 Y150.475 E97.61947
G1 X100.955 Y151.135 E97.6502
G1 X100.295 Y151.135 E97.68093
M204 S3000
M205 X10 Y10
G0 F3000 X100.095 Y151.135
G0 X100.095 Y151.035
G0 X100.798 Y150.291
G0 X100.715 Y150.236
M204 S1800
M205 X8 Y8
G1 F1500 X100.715 Y82.594 E99.0308
G1 X100.494 Y82.503 E99.03929
G1 X100.369 Y82.451 E99.0456
G1 X93.086 Y89.734 E99.52519
G1 X93.086 Y143.096 E102.00995
G1 X100.369 Y150.379 E102.21548
G1 X100.494 Y150.327 E102.22178
G1 X100.715 Y150.236 E102.23027
M204 S3000
M205 X10 Y10
G0 F3000 X100.715 Y150.036
G0 X100.815 Y150.036
G0 X100.748 Y82.572
G0 X100.111 Y81.852
G0 X100.056 Y81.935
M204 S1800
M205 X8 Y8
G1 F1500 X32.414 Y81.935 E103.58014
G1 X32.323 Y82.156 E103.58863
G1 X32.271 Y82.281 E103.59493
G1 X39.554 Y89.564 E103.80045
G1 X92.915 Y89.565 E106.28516
G1 X100.199 Y82.281 E106.49076
G1 X100.147 Y82.156 E106.49706
G1 X100.056 Y81.935 E106.50555
M204 S3000
M205 X10 Y10
G0 F3000 X99.856 Y81.935
G0 X100.516 Y82.131
M204 S1800
M205 X8 Y8
;TYPE:SKIN
G1 F1500 X100.658 Y81.99 E106.51312
M204 S3000
M205 X10 Y10
G0 F3000 X100.638 Y81.97
G0 X32.392 Y81.902
G0 X31.975 Y82.038
M204 S1800
M205 X8 Y8
G1 F1500 X31.84 Y82.186 E106.51873
M204 S3000
M205 X10 Y10
G0 F3000 X31.891 Y82.237
G0 X31.722 Y150.258
G0 X31.79 Y150.584
M204 S1800
M205 X8 Y8
G1 F1500 X32.065 Y150.859 E106.5252
M204 S3000
M205 X10 Y10
G0 F3000 X100.078 Y150.928
G0 X100.461 Y150.807
M204 S1800
M205 X8 Y8
G1 F1500 X100.61 Y150.674 E106.53086
M204 S3000
M205 X10 Y10
G0 F3000 X100.65 Y150.575
G1 F2400 E100.53086
;MESH:rbg_led_cube_pilon_v2.stl
G0 F3000 X103.606 Y151.121
G0 X104.146 Y153.273
M204 S1800
M205 X8 Y8
;TYPE:WALL-INNER
G1 F2400 E106.53086
G1 F1500 X104.146 Y82.862 E109.80949
G1 X174.557 Y82.862 E113.08812
G1 X174.557 Y153.273 E116.36675
G1 X104.146 Y153.273 E119.64538
M204 S3000
M205 X10 Y10
G0 F3000 X107.952 Y143.003
M204 S1800
M205 X8 Y8
G1 F1500 X109.682 Y143.718 E119.73255
G1 X124.752 Y128.648 E120.72493
G1 X124.752 Y107.458 E121.71163
G1 X109.632 Y93.418 E122.67241
G1 X107.952 Y94.153 E122.75779
G1 X107.952 Y143.003 E125.03245
M204 S3000
M205 X10 Y10
G0 F3000 X109.557 Y143.097
G0 X124.228 Y128.431
G0 X129.552 Y108.268
M204 S1800
M205 X8 Y8
G1 F1500 X129.552 Y126.765 E125.89375
G1 X130.118 Y127.868 E125.95148
G1 X148.049 Y127.868 E126.78642
G1 X149.152 Y127.302 E126.84415
G1 X149.152 Y109.371 E127.67909
G1 X148.586 Y108.268 E127.73682
G1 X129.552 Y108.268 E128.62312
M204 S3000
M205 X10 Y10
G0 F3000 X114.323 Y88.273
G0 X114.417 Y86.668
M204 S1800
M205 X8 Y8
G1 F1500 X113.702 Y88.398 E128.71029
G1 X128.772 Y103.468 E129.70267
G1 X149.962 Y103.468 E130.68937
G1 X164.002 Y88.348 E131.65014
G1 X163.267 Y86.668 E131.73553
G1 X114.417 Y86.668 E134.01019
M204 S3000
M205 X10 Y10
G0 F3000 X162.922 Y87.195
G0 X170.752 Y93.133
M204 S1800
M205 X8 Y8
G1 F1500 X169.022 Y92.418 E134.09736
G1 X153.952 Y107.488 E135.08974
G1 X153.952 Y128.678 E136.07644
G1 X169.072 Y142.718 E137.03721
G1 X170.752 Y141.983 E137.1226
G1 X170.752 Y93.133 E139.39726
M204 S3000
M205 X10 Y10
G0 F3000 X170.225 Y141.638
G0 X164.287 Y149.468
M204 S1800
M205 X8 Y8
G1 F1500 X165.002 Y147.738 E139.48443
G1 X149.932 Y132.668 E140.47681
G1 X128.742 Y132.668 E141.46351
G1 X114.702 Y147.788 E142.42428
G1 X115.437 Y149.468 E142.50967
G1 X164.287 Y149.468 E144.78433
M204 S3000
M205 X10 Y10
G0 F3000 X163.913 Y148.908
M204 S1800
M205 X8 Y8
G1 F1500 X164.342 Y147.87 E144.83663
G1 X149.7 Y133.228 E145.80083
G1 X128.986 Y133.228 E146.76536
G1 X115.362 Y147.9 E147.69767
G1 X115.803 Y148.908 E147.7489
G1 X163.913 Y148.908 E149.9891
M204 S3000
M205 X10 Y10
G0 F3000 X163.968 Y148.991
G0 X164.381 Y147.863
G0 X145.709 Y127.338
G0 X130.44 Y127.342
G0 X130.042 Y108.758
G0 X130.112 Y108.828
M204 S1800
M205 X8 Y8
G1 F1500 X130.112 Y126.63 E150.81804
G1 X130.46 Y127.308 E150.85353
G1 X147.914 Y127.308 E151.66626
G1 X148.592 Y126.96 E151.70174
G1 X148.592 Y109.506 E152.51447
G1 X148.244 Y108.828 E152.54996
G1 X130.112 Y108.828 E153.39426
M204 S3000
M205 X10 Y10
G0 F3000 X130.042 Y108.758
G0 X114.323 Y88.273
G0 X114.736 Y87.145
G0 X114.791 Y87.228
M204 S1800
M205 X8 Y8
G1 F1500 X114.362 Y88.266 E153.44656
G1 X129.004 Y102.908 E154.41076
G1 X149.718 Y102.908 E155.37529
G1 X150.78 Y101.765 E155.44794
G1 X163.342 Y88.236 E156.3076
G1 X162.901 Y87.228 E156.35883
G1 X114.791 Y87.228 E158.59904
M204 S3000
M205 X10 Y10
G0 F3000 X114.736 Y87.145
G0 X108.479 Y94.498
G0 X108.429 Y142.684
G0 X108.512 Y142.629
M204 S1800
M205 X8 Y8
G1 F1500 X109.55 Y143.058 E158.65134
G1 X124.192 Y128.416 E159.61554
G1 X124.192 Y107.702 E160.58007
G1 X123.049 Y106.64 E160.65272
G1 X109.52 Y94.078 E161.51238
G1 X108.512 Y94.519 E161.56361
G1 X108.512 Y142.629 E163.80381
M204 S3000
M205 X10 Y10
G0 F3000 X108.429 Y142.684
G0 X103.656 Y153.763
G0 X103.586 Y153.833
M204 S1800
M205 X8 Y8
G1 F1500 X103.586 Y82.302 E167.13459
G1 X175.117 Y82.302 E170.46538
G1 X175.117 Y153.833 E173.79616
G1 X103.586 Y153.833 E177.12694
M204 S3000
M205 X10 Y10
G0 F3000 X103.656 Y153.763
