;FLAVOR:Marlin
;TIME:18573
;Filament used: 29.8744m
;Layer height: 0.3
;MINX:48.6
;MINY:48.6
;MINZ:0.2
;MAXX:161.4
;MAXY:161.4
;MAXZ:104
;Generated with Cura_SteamEngine 4.4.1
M140 S60
M105
M190 S60
M104 S200
M105
M109 S200
M82 ;absolute extrusion mode
G21 ;metric values
G90 ;absolute positioning
M82 ;set extruder to absolute mode
M107 ;start with the fan off
G28 X0 Y0 ;move X/Y to min endstops
G28 Z0 ;move Z to min endstops
G1 Z15.0 F2400 ;move the platform down 15mm
G92 E0 ;zero the extruded length
G1 F200 E3 ;extrude 3mm of feed stock
G92 E0 ;zero the extruded length again
G1 F2400
G0 Y20 F2400
M117 Printing...
G5
G92 E0
G92 E0
G1 F2400 E-6
;LAYER_COUNT:347
;LAYER:0
M106 S255
M204 S3000
M205 X10 Y10
G1 F600 Z0.275
G0 F3000 X50.533 Y50.435 Z0.275
M204 S1800
M205 X8 Y8
;TYPE:SKIRT
G1 F600 Z0.2
G1 F2400 E0
G1 X51.071 Y49.964 E0.0333
G1 X51.659 Y49.556 E0.06662
G1 X52.288 Y49.216 E0.09991
G1 X52.952 Y48.949 E0.13324
G1 X53.641 Y48.757 E0.16654
G1 X54.347 Y48.643 E0.19984
G1 X54.83 Y48.612 E0.22238
G1 X55.151 Y48.603 E0.23733
G1 X55.33 Y48.6 E0.24567
G1 X154.293 Y48.6 E4.8538
G1 X154.385 Y48.601 E4.85809
G1 X155.083 Y48.611 E4.89059
G1 X155.796 Y48.661 E4.92387
G1 X156.5 Y48.79 E4.9572
G1 X157.184 Y48.998 E4.99049
G1 X157.841 Y49.28 E5.02378
G1 X158.463 Y49.634 E5.05711
G1 X159.041 Y50.055 E5.0904
G1 X159.569 Y50.538 E5.12372
G1 X160.039 Y51.076 E5.15699
G1 X160.447 Y51.664 E5.19031
G1 X160.786 Y52.294 E5.22363
G1 X161.053 Y52.957 E5.25691
G1 X161.244 Y53.647 E5.29025
G1 X161.357 Y54.353 E5.32354
G1 X161.388 Y54.83 E5.3458
G1 X161.397 Y55.15 E5.3607
G1 X161.4 Y55.33 E5.36909
G1 X161.4 Y154.343 E9.97955
G1 X161.391 Y155.07 E10.0134
G1 X161.342 Y155.784 E10.04673
G1 X161.214 Y156.488 E10.08005
G1 X161.008 Y157.173 E10.11335
G1 X160.727 Y157.83 E10.14663
G1 X160.374 Y158.453 E10.17997
G1 X159.954 Y159.032 E10.21328
G1 X159.472 Y159.56 E10.24657
G1 X158.935 Y160.032 E10.27986
G1 X158.347 Y160.44 E10.31318
G1 X157.718 Y160.781 E10.3465
G1 X157.055 Y161.049 E10.3798
G1 X156.366 Y161.241 E10.4131
G1 X155.66 Y161.356 E10.44641
G1 X155.17 Y161.388 E10.46927
G1 X154.849 Y161.397 E10.48423
G1 X154.67 Y161.4 E10.49256
G1 X55.707 Y161.4 E15.1007
G1 X55.624 Y161.399 E15.10456
G1 X54.926 Y161.39 E15.13706
G1 X54.213 Y161.341 E15.17034
G1 X53.509 Y161.213 E15.20366
G1 X52.824 Y161.007 E15.23697
G1 X52.167 Y160.725 E15.27026
G1 X51.545 Y160.372 E15.30356
G1 X50.966 Y159.952 E15.33687
G1 X50.437 Y159.47 E15.37019
G1 X49.966 Y158.932 E15.40349
G1 X49.558 Y158.345 E15.43678
G1 X49.218 Y157.715 E15.47011
G1 X48.95 Y157.052 E15.50341
G1 X48.758 Y156.363 E15.53672
G1 X48.644 Y155.657 E15.57002
G1 X48.611 Y155.164 E15.59302
G1 X48.602 Y154.831 E15.60853
G1 X48.6 Y154.658 E15.61659
G1 X48.6 Y55.674 E20.2257
G1 X48.601 Y55.587 E20.22975
G1 X48.61 Y54.922 E20.26072
G1 X48.659 Y54.209 E20.294
G1 X48.788 Y53.505 E20.32733
G1 X48.995 Y52.821 E20.3606
G1 X49.277 Y52.163 E20.39394
G1 X49.63 Y51.541 E20.42724
G1 X50.05 Y50.963 E20.46051
G1 X50.533 Y50.435 E20.49383
M204 S3000
M205 X10 Y10
G0 F3000 X51.08 Y50.688
M204 S1800
M205 X8 Y8
G1 F2400 X51.612 Y50.259 E20.52565
G1 X52.19 Y49.894 E20.55748
G1 X52.807 Y49.6 E20.58931
G1 X53.453 Y49.38 E20.62109
G1 X54.121 Y49.237 E20.65289
G1 X54.845 Y49.171 E20.68675
G1 X55.166 Y49.162 E20.7017
G1 X55.33 Y49.16 E20.70934
G1 X154.293 Y49.16 E25.31747
G1 X154.377 Y49.161 E25.32138
G1 X155.075 Y49.171 E25.35389
G1 X155.756 Y49.22 E25.38568
G1 X156.427 Y49.349 E25.41749
G1 X157.078 Y49.556 E25.4493
G1 X157.701 Y49.837 E25.48113
G1 X158.287 Y50.189 E25.51296
G1 X158.827 Y50.607 E25.54476
G1 X159.315 Y51.085 E25.57656
G1 X159.744 Y51.617 E25.60839
G1 X160.108 Y52.195 E25.64019
G1 X160.402 Y52.812 E25.67202
G1 X160.621 Y53.459 E25.70382
G1 X160.764 Y54.127 E25.73563
G1 X160.829 Y54.846 E25.76925
G1 X160.838 Y55.166 E25.78416
G1 X160.84 Y55.33 E25.79179
G1 X160.84 Y154.336 E30.40193
G1 X160.831 Y155.063 E30.43578
G1 X160.782 Y155.745 E30.46762
G1 X160.654 Y156.416 E30.49943
G1 X160.449 Y157.068 E30.53125
G1 X160.169 Y157.691 E30.56306
G1 X159.819 Y158.277 E30.59484
G1 X159.402 Y158.819 E30.62669
G1 X158.925 Y159.308 E30.65849
G1 X158.394 Y159.737 E30.69028
G1 X157.816 Y160.102 E30.72211
G1 X157.2 Y160.397 E30.75392
G1 X156.553 Y160.618 E30.78575
G1 X155.885 Y160.762 E30.81757
G1 X155.155 Y160.829 E30.85171
G1 X154.834 Y160.838 E30.86666
G1 X154.67 Y160.84 E30.8743
G1 X55.632 Y160.84 E35.48592
G1 X54.934 Y160.831 E35.51842
G1 X54.252 Y160.782 E35.55026
G1 X53.581 Y160.654 E35.58207
G1 X52.93 Y160.448 E35.61387
G1 X52.306 Y160.168 E35.64571
G1 X51.72 Y159.817 E35.67752
G1 X51.179 Y159.4 E35.70933
G1 X50.69 Y158.922 E35.74117
G1 X50.261 Y158.391 E35.77295
G1 X49.896 Y157.813 E35.80479
G1 X49.602 Y157.197 E35.83657
G1 X49.381 Y156.55 E35.8684
G1 X49.237 Y155.882 E35.90022
G1 X49.171 Y155.149 E35.93449
G1 X49.162 Y154.816 E35.95001
G1 X49.16 Y154.658 E35.95736
G1 X49.16 Y55.674 E40.56647
G1 X49.161 Y55.595 E40.57015
G1 X49.17 Y54.93 E40.60112
G1 X49.219 Y54.249 E40.63291
G1 X49.347 Y53.577 E40.66477
G1 X49.553 Y52.926 E40.69656
G1 X49.834 Y52.303 E40.72838
G1 X50.185 Y51.717 E40.76019
G1 X50.603 Y51.176 E40.79203
G1 X51.08 Y50.688 E40.8238
M204 S3000
M205 X10 Y10
G0 F3000 X51.154 Y51.401
M204 S1800
M205 X8 Y8
G1 F2400 X51.626 Y50.955 E40.85404
G1 X52.149 Y50.571 E40.88425
G1 X52.716 Y50.253 E40.91452
G1 X53.317 Y50.007 E40.94476
G1 X53.944 Y49.837 E40.97501
G1 X54.861 Y49.731 E41.01799
G1 X55.182 Y49.722 E41.03295
G1 X55.33 Y49.72 E41.03984
G1 X154.293 Y49.72 E45.64797
G1 X154.369 Y49.721 E45.65151
G1 X155.067 Y49.731 E45.68402
G1 X155.714 Y49.78 E45.71423
G1 X156.351 Y49.908 E45.74448
G1 X156.967 Y50.114 E45.77473
G1 X157.554 Y50.394 E45.80501
G1 X158.101 Y50.743 E45.83522
G1 X158.602 Y51.157 E45.86549
G1 X159.047 Y51.63 E45.89573
G1 X159.432 Y52.154 E45.92601
G1 X159.749 Y52.721 E45.95625
G1 X159.994 Y53.322 E45.98647
G1 X160.163 Y53.949 E46.01671
G1 X160.269 Y54.862 E46.05951
G1 X160.278 Y55.182 E46.07442
G1 X160.28 Y55.33 E46.08131
G1 X160.28 Y154.329 E50.69112
G1 X160.271 Y155.056 E50.72497
G1 X160.223 Y155.704 E50.75523
G1 X160.095 Y156.341 E50.78548
G1 X159.891 Y156.958 E50.81574
G1 X159.612 Y157.545 E50.84601
G1 X159.264 Y158.093 E50.87623
G1 X158.851 Y158.594 E50.90647
G1 X158.379 Y159.041 E50.93674
G1 X157.856 Y159.426 E50.96698
G1 X157.29 Y159.744 E50.99721
G1 X156.688 Y159.991 E51.02751
G1 X156.062 Y160.161 E51.05771
G1 X155.139 Y160.269 E51.10098
G1 X154.818 Y160.278 E51.11594
G1 X154.67 Y160.28 E51.12283
G1 X55.639 Y160.28 E55.73413
G1 X54.941 Y160.271 E55.76663
G1 X54.293 Y160.222 E55.79689
G1 X53.656 Y160.095 E55.82714
G1 X53.04 Y159.89 E55.85737
G1 X52.453 Y159.611 E55.88763
G1 X51.905 Y159.262 E55.91788
G1 X51.404 Y158.849 E55.94812
G1 X50.957 Y158.377 E55.97839
G1 X50.572 Y157.854 E56.00863
G1 X50.254 Y157.287 E56.0389
G1 X50.008 Y156.686 E56.06914
G1 X49.838 Y156.059 E56.09939
G1 X49.731 Y155.134 E56.14274
G1 X49.722 Y154.801 E56.15826
G1 X49.72 Y154.658 E56.16492
G1 X49.72 Y55.603 E60.77733
G1 X49.729 Y54.938 E60.8083
G1 X49.778 Y54.29 E60.83856
G1 X49.906 Y53.653 E60.86881
G1 X50.111 Y53.036 E60.89909
G1 X50.391 Y52.45 E60.92933
G1 X50.74 Y51.902 E60.95958
G1 X51.154 Y51.401 E60.98984
M204 S3000
M205 X10 Y10
G1 F2400 E54.98984
;MESH:rbg_led_cube_shell.stl
G0 F3000 X54.335 Y55.854
G0 X55.854 Y55.854
G0 X56.4 Y153.6
M204 S1800
M205 X8 Y8
;TYPE:WALL-INNER
G1 F2400 E60.98984
G1 F1500 X56.4 Y56.4 E65.51588
G1 X153.6 Y56.4 E70.04192
G1 X153.6 Y153.6 E74.56796
G1 X56.4 Y153.6 E79.094
M204 S3000
M205 X10 Y10
G0 F3000 X55.84 Y154.16
M204 S1800
M205 X8 Y8
G1 F1500 X55.84 Y55.84 E83.67219
G1 X154.16 Y55.84 E88.25038
G1 X154.16 Y154.16 E92.82857
G1 X55.84 Y154.16 E97.40677
M204 S3000
M205 X10 Y10
G0 F3000 X55.28 Y154.72
M204 S1800
M205 X8 Y8
;TYPE:WALL-OUTER
G1 F1500 X55.28 Y55.28 E102.03711
G1 X154.72 Y55.28 E106.66745
G1 X154.72 Y154.72 E111.29779
G1 X55.28 Y154.72 E115.92814
M204 S3000
M205 X10 Y10
G0 F3000 X55.28 Y154.52
G0 X55.91 Y154.09
G0 X56.95 Y153.05
M204 S1800
M205 X8 Y8
;TYPE:SKIN
G1 F1500 X56.95 Y56.95 E120.40296
G1 X153.05 Y56.95 E124.87777
G1 X153.05 Y153.05 E129.35259
G1 X56.95 Y153.05 E133.82741
M204 S3000
M205 X10 Y10
G0 F3000 X57.754 Y152.789
M204 S1800
M205 X8 Y8
G1 F1500 X57.209 Y152.245 E133.86327
M204 S3000
M205 X10 Y10
G0 F3000 X57.209 Y151.453
M204 S1800
M205 X8 Y8
G1 F1500 X58.546 Y152.789 E133.95128
M204 S3000
M205 X10 Y10
G0 F3000 X59.338 Y152.789
M204 S1800
M205 X8 Y8
G1 F1500 X57.209 Y150.661 E134.09144
M204 S3000
M205 X10 Y10
G0 F3000 X57.209 Y149.869
M204 S1800
M205 X8 Y8
G1 F1500 X60.13 Y152.789 E134.28376
M204 S3000
M205 X10 Y10
G0 F3000 X60.922 Y152.789
M204 S1800
M205 X8 Y8
G1 F1500 X57.209 Y149.077 E134.52824
M204 S3000
M205 X10 Y10
G0 F3000 X57.209 Y148.285
M204 S1800
M205 X8 Y8
G1 F1500 X61.714 Y152.789 E134.82487
M204 S3000
M205 X10 Y10
G0 F3000 X62.506 Y152.789
M204 S1800
M205 X8 Y8
G1 F1500 X57.209 Y147.493 E135.17365
M204 S3000
M205 X10 Y10
G0 F3000 X57.209 Y146.701
M204 S1800
M205 X8 Y8
G1 F1500 X63.298 Y152.789 E135.57459
M204 S3000
M205 X10 Y10
G0 F3000 X64.09 Y152.789
M204 S1800
M205 X8 Y8
G1 F1500 X57.209 Y145.909 E136.02768
M204 S3000
M205 X10 Y10
G0 F3000 X57.209 Y145.117
M204 S1800
M205 X8 Y8
G1 F1500 X64.881 Y152.789 E136.5329
M204 S3000
M205 X10 Y10
G0 F3000 X65.673 Y152.789
M204 S1800
M205 X8 Y8
G1 F1500 X57.209 Y144.325 E137.09027
M204 S3000
M205 X10 Y10
G0 F3000 X57.209 Y143.533
M204 S1800
M205 X8 Y8
G1 F1500 X66.465 Y152.789 E137.69979
M204 S3000
M205 X10 Y10
G0 F3000 X67.257 Y152.789
M204 S1800
M205 X8 Y8
G1 F1500 X57.209 Y142.741 E138.36147
M204 S3000
M205 X10 Y10
G0 F3000 X57.209 Y141.949
M204 S1800
M205 X8 Y8
G1 F1500 X68.049 Y152.789 E139.0753
M204 S3000
M205 X10 Y10
G0 F3000 X68.841 Y152.789
M204 S1800
M205 X8 Y8
G1 F1500 X57.209 Y141.157 E139.84129
M204 S3000
M205 X10 Y10
G0 F3000 X57.209 Y140.365
M204 S1800
M205 X8 Y8
G1 F1500 X69.633 Y152.789 E140.65943
M204 S3000
M205 X10 Y10
G0 F3000 X70.425 Y152.789
M204 S1800
M205 X8 Y8
G1 F1500 X57.209 Y139.573 E141.52972
M204 S3000
M205 X10 Y10
G0 F3000 X57.209 Y138.781
M204 S1800
M205 X8 Y8
G1 F1500 X71.217 Y152.789 E142.45217
M204 S3000
M205 X10 Y10
G0 F3000 X72.009 Y152.789
M204 S1800
M205 X8 Y8
G1 F1500 X57.209 Y137.989 E143.42678
M204 S3000
M205 X10 Y10
G0 F3000 X57.209 Y137.197
M204 S1800
M205 X8 Y8
G1 F1500 X72.801 Y152.789 E144.45354
M204 S3000
M205 X10 Y10
G0 F3000 X73.593 Y152.789
M204 S1800
M205 X8 Y8
G1 F1500 X57.209 Y136.405 E145.53245
M204 S3000
M205 X10 Y10
G0 F3000 X57.209 Y135.613
M204 S1800
M205 X8 Y8
G1 F1500 X74.385 Y152.789 E146.66352
M204 S3000
M205 X10 Y10
G0 F3000 X75.177 Y152.789
M204 S1800
M205 X8 Y8
G1 F1500 X57.209 Y134.821 E147.84675
M204 S3000
M205 X10 Y10
G0 F3000 X57.209 Y134.029
M204 S1800
M205 X8 Y8
G1 F1500 X75.969 Y152.789 E149.08212
M204 S3000
M205 X10 Y10
G0 F3000 X76.761 Y152.789
M204 S1800
M205 X8 Y8
G1 F1500 X57.209 Y133.238 E150.36962
M204 S3000
M205 X10 Y10
G0 F3000 X57.209 Y132.446
M204 S1800
M205 X8 Y8
G1 F1500 X77.553 Y152.789 E151.70928
M204 S3000
M205 X10 Y10
G0 F3000 X78.345 Y152.789
M204 S1800
M205 X8 Y8
G1 F1500 X57.209 Y131.654 E153.10109
M204 S3000
M205 X10 Y10
G0 F3000 X57.209 Y130.862
M204 S1800
M205 X8 Y8
G1 F1500 X79.137 Y152.789 E154.54505
M204 S3000
M205 X10 Y10
G0 F3000 X79.929 Y152.789
M204 S1800
M205 X8 Y8
G1 F1500 X57.209 Y130.07 E156.04117
M204 S3000
M205 X10 Y10
G0 F3000 X57.209 Y129.278
M204 S1800
M205 X8 Y8
G1 F1500 X80.721 Y152.789 E157.58944
M204 S3000
M205 X10 Y10
G0 F3000 X81.513 Y152.789
M204 S1800
M205 X8 Y8
G1 F1500 X57.209 Y128.486 E159.18987
M204 S3000
M205 X10 Y10
G0 F3000 X57.209 Y127.694
M204 S1800
M205 X8 Y8
G1 F1500 X82.305 Y152.789 E160.84245
M204 S3000
M205 X10 Y10
G0 F3000 X83.097 Y152.789
M204 S1800
M205 X8 Y8
G1 F1500 X57.209 Y126.902 E162.54719
M204 S3000
M205 X10 Y10
G0 F3000 X57.209 Y126.11
M204 S1800
M205 X8 Y8
G1 F1500 X83.889 Y152.789 E164.30408
M204 S3000
M205 X10 Y10
G0 F3000 X84.68 Y152.789
M204 S1800
M205 X8 Y8
G1 F1500 X57.209 Y125.318 E166.11309
M204 S3000
M205 X10 Y10
G0 F3000 X57.209 Y124.526
M204 S1800
M205 X8 Y8
G1 F1500 X85.472 Y152.789 E167.97426
M204 S3000
M205 X10 Y10
G0 F3000 X86.264 Y152.789
M204 S1800
M205 X8 Y8
G1 F1500 X57.209 Y123.734 E169.88758
M204 S3000
M205 X10 Y10
G0 F3000 X57.209 Y122.942
M204 S1800
M205 X8 Y8
G1 F1500 X87.056 Y152.789 E171.85305
M204 S3000
M205 X10 Y10
G0 F3000 X87.848 Y152.789
M204 S1800
M205 X8 Y8
G1 F1500 X57.209 Y122.15 E173.87068
M204 S3000
M205 X10 Y10
G0 F3000 X57.209 Y121.358
M204 S1800
M205 X8 Y8
G1 F1500 X88.64 Y152.789 E175.94047
M204 S3000
M205 X10 Y10
G0 F3000 X89.432 Y152.789
M204 S1800
M205 X8 Y8
G1 F1500 X57.209 Y120.566 E178.06241
M204 S3000
M205 X10 Y10
G0 F3000 X57.209 Y119.774
M204 S1800
M205 X8 Y8
G1 F1500 X90.224 Y152.789 E180.2365
M204 S3000
M205 X10 Y10
G0 F3000 X91.016 Y152.789
M204 S1800
M205 X8 Y8
G1 F1500 X57.209 Y118.982 E182.46275
M204 S3000
M205 X10 Y10
G0 F3000 X57.209 Y118.19
M204 S1800
M205 X8 Y8
G1 F1500 X91.808 Y152.789 E184.74115
M204 S3000
M205 X10 Y10
G0 F3000 X92.6 Y152.789
M204 S1800
M205 X8 Y8
G1 F1500 X57.209 Y117.398 E187.07171
M204 S3000
M205 X10 Y10
G0 F3000 X57.209 Y116.606
M204 S1800
M205 X8 Y8
G1 F1500 X93.392 Y152.789 E189.45442
M204 S3000
M205 X10 Y10
G0 F3000 X94.184 Y152.789
M204 S1800
M205 X8 Y8
G1 F1500 X57.209 Y115.814 E191.88929
M204 S3000
M205 X10 Y10
G0 F3000 X57.209 Y115.022
M204 S1800
M205 X8 Y8
G1 F1500 X94.976 Y152.789 E194.37631
M204 S3000
M205 X10 Y10
G0 F3000 X95.768 Y152.789
M204 S1800
M205 X8 Y8
G1 F1500 X57.209 Y114.23 E196.91549
M204 S3000
M205 X10 Y10
G0 F3000 X57.209 Y113.439
M204 S1800
M205 X8 Y8
G1 F1500 X96.56 Y152.789 E199.50679
M204 S3000
M205 X10 Y10
G0 F3000 X97.352 Y152.789
M204 S1800
M205 X8 Y8
G1 F1500 X57.209 Y112.647 E202.15024
M204 S3000
M205 X10 Y10
G0 F3000 X57.209 Y111.855
M204 S1800
M205 X8 Y8
G1 F1500 X98.144 Y152.789 E204.84584
M204 S3000
M205 X10 Y10
G0 F3000 X98.936 Y152.789
M204 S1800
M205 X8 Y8
G1 F1500 X57.209 Y111.063 E207.59361
M204 S3000
M205 X10 Y10
G0 F3000 X57.209 Y110.271
M204 S1800
M205 X8 Y8
G1 F1500 X99.728 Y152.789 E210.39352
M204 S3000
M205 X10 Y10
G0 F3000 X100.52 Y152.789
M204 S1800
M205 X8 Y8
G1 F1500 X57.209 Y109.479 E213.24559
M204 S3000
M205 X10 Y10
G0 F3000 X57.209 Y108.687
M204 S1800
M205 X8 Y8
G1 F1500 X101.312 Y152.789 E216.14982
M204 S3000
M205 X10 Y10
G0 F3000 X102.104 Y152.789
M204 S1800
M205 X8 Y8
G1 F1500 X57.209 Y107.895 E219.1062
M204 S3000
M205 X10 Y10
G0 F3000 X57.209 Y107.103
M204 S1800
M205 X8 Y8
G1 F1500 X102.896 Y152.789 E222.11473
M204 S3000
M205 X10 Y10
G0 F3000 X103.688 Y152.789
M204 S1800
M205 X8 Y8
G1 F1500 X57.209 Y106.311 E225.17542
M204 S3000
M205 X10 Y10
G0 F3000 X57.209 Y105.519
M204 S1800
M205 X8 Y8
G1 F1500 X104.479 Y152.789 E228.28823
M204 S3000
M205 X10 Y10
G0 F3000 X105.271 Y152.789
M204 S1800
M205 X8 Y8
G1 F1500 X57.209 Y104.727 E231.45319
M204 S3000
M205 X10 Y10
G0 F3000 X57.209 Y103.935
M204 S1800
M205 X8 Y8
G1 F1500 X106.063 Y152.789 E234.67031
M204 S3000
M205 X10 Y10
G0 F3000 X106.855 Y152.789
M204 S1800
M205 X8 Y8
G1 F1500 X57.209 Y103.143 E237.93959
M204 S3000
M205 X10 Y10
G0 F3000 X57.209 Y102.351
M204 S1800
M205 X8 Y8
G1 F1500 X107.647 Y152.789 E241.26102
M204 S3000
M205 X10 Y10
G0 F3000 X108.439 Y152.789
M204 S1800
M205 X8 Y8
G1 F1500 X57.209 Y101.559 E244.6346
M204 S3000
M205 X10 Y10
G0 F3000 X57.209 Y100.767
M204 S1800
M205 X8 Y8
G1 F1500 X109.231 Y152.789 E248.06034
M204 S3000
M205 X10 Y10
G0 F3000 X110.023 Y152.789
M204 S1800
M205 X8 Y8
G1 F1500 X57.209 Y99.975 E251.53823
M204 S3000
M205 X10 Y10
G0 F3000 X57.209 Y99.183
M204 S1800
M205 X8 Y8
G1 F1500 X110.815 Y152.789 E255.06827
M204 S3000
M205 X10 Y10
G0 F3000 X111.607 Y152.789
M204 S1800
M205 X8 Y8
G1 F1500 X57.209 Y98.391 E258.65048
M204 S3000
M205 X10 Y10
G0 F3000 X57.209 Y97.599
M204 S1800
M205 X8 Y8
G1 F1500 X112.399 Y152.789 E262.28483
M204 S3000
M205 X10 Y10
G0 F3000 X113.191 Y152.789
M204 S1800
M205 X8 Y8
G1 F1500 X57.209 Y96.807 E265.97134
M204 S3000
M205 X10 Y10
G0 F3000 X57.209 Y96.015
M204 S1800
M205 X8 Y8
G1 F1500 X113.983 Y152.789 E269.71001
M204 S3000
M205 X10 Y10
G0 F3000 X114.775 Y152.789
M204 S1800
M205 X8 Y8
