;FLAVOR:Marlin
;TIME:8488
;Filament used: 13.9812m
;Layer height: 0.3
;MINX:63.6
;MINY:63.6
;MINZ:0.3
;MAXX:146.4
;MAXY:146.4
;MAXZ:73.8
;Generated with Cura_SteamEngine 4.4.1
M140 S60
M105
M190 S60
M104 S200
M105
M109 S200
M82 ;absolute extrusion mode
G21 ;metric values
G90 ;absolute positioning
M82 ;set extruder to absolute mode
M107 ;start with the fan off
G28 X0 Y0 ;move X/Y to min endstops
G28 Z0 ;move Z to min endstops
G1 Z15.0 F2400 ;move the platform down 15mm
G92 E0 ;zero the extruded length
G1 F200 E3 ;extrude 3mm of feed stock
G92 E0 ;zero the extruded length again
G1 F2400
G0 Y20 F2400
M117 Printing...
G5
G92 E0
G92 E0
G1 F2400 E-6
;LAYER_COUNT:246
;LAYER:0
M106 S255
M204 S3000
M205 X10 Y10
G1 F600 Z0.375
G0 F3000 X65.533 Y65.435 Z0.375
M204 S1800
M205 X8 Y8
;TYPE:SKIRT
G1 F600 Z0.3
G1 F2400 E0
G1 X66.071 Y64.964 E0.04994
G1 X66.659 Y64.556 E0.09993
G1 X67.288 Y64.216 E0.14987
G1 X67.952 Y63.949 E0.19986
G1 X68.641 Y63.757 E0.24982
G1 X69.347 Y63.643 E0.29977
G1 X69.83 Y63.612 E0.33357
G1 X70.151 Y63.603 E0.356
G1 X70.33 Y63.6 E0.36851
G1 X139.293 Y63.6 E5.18531
G1 X139.385 Y63.601 E5.19174
G1 X140.083 Y63.611 E5.2405
G1 X140.796 Y63.661 E5.29042
G1 X141.5 Y63.79 E5.34041
G1 X142.184 Y63.998 E5.39035
G1 X142.841 Y64.28 E5.44028
G1 X143.463 Y64.634 E5.49027
G1 X144.041 Y65.055 E5.54022
G1 X144.569 Y65.538 E5.5902
G1 X145.039 Y66.076 E5.6401
G1 X145.447 Y66.664 E5.69008
G1 X145.786 Y67.294 E5.74005
G1 X146.053 Y67.957 E5.78998
G1 X146.244 Y68.647 E5.83998
G1 X146.357 Y69.353 E5.88992
G1 X146.388 Y69.83 E5.92331
G1 X146.397 Y70.15 E5.94567
G1 X146.4 Y70.33 E5.95824
G1 X146.4 Y139.343 E10.77854
G1 X146.391 Y140.07 E10.82933
G1 X146.342 Y140.784 E10.87931
G1 X146.214 Y141.488 E10.92929
G1 X146.008 Y142.173 E10.97925
G1 X145.727 Y142.83 E11.02916
G1 X145.374 Y143.453 E11.07918
G1 X144.954 Y144.032 E11.12914
G1 X144.472 Y144.56 E11.17907
G1 X143.935 Y145.032 E11.22901
G1 X143.347 Y145.44 E11.279
G1 X142.718 Y145.781 E11.32897
G1 X142.055 Y146.049 E11.37892
G1 X141.366 Y146.241 E11.42888
G1 X140.66 Y146.356 E11.47884
G1 X140.17 Y146.388 E11.51313
G1 X139.849 Y146.397 E11.53556
G1 X139.67 Y146.4 E11.54807
G1 X70.707 Y146.4 E16.36488
G1 X70.624 Y146.399 E16.37068
G1 X69.926 Y146.39 E16.41943
G1 X69.213 Y146.341 E16.46935
G1 X68.509 Y146.213 E16.51933
G1 X67.824 Y146.007 E16.56929
G1 X67.167 Y145.725 E16.61923
G1 X66.545 Y145.372 E16.66918
G1 X65.966 Y144.952 E16.71914
G1 X65.437 Y144.47 E16.76913
G1 X64.966 Y143.932 E16.81907
G1 X64.558 Y143.345 E16.869
G1 X64.218 Y142.715 E16.919
G1 X63.95 Y142.052 E16.96895
G1 X63.758 Y141.363 E17.01891
G1 X63.644 Y140.657 E17.06886
G1 X63.611 Y140.164 E17.10337
G1 X63.602 Y139.831 E17.12664
G1 X63.6 Y139.658 E17.13872
G1 X63.6 Y70.674 E21.957
G1 X63.601 Y70.587 E21.96307
G1 X63.61 Y69.922 E22.00953
G1 X63.659 Y69.209 E22.05944
G1 X63.788 Y68.505 E22.10943
G1 X63.995 Y67.821 E22.15935
G1 X64.277 Y67.163 E22.20935
G1 X64.63 Y66.541 E22.2593
G1 X65.05 Y65.963 E22.30921
G1 X65.533 Y65.435 E22.35919
M204 S3000
M205 X10 Y10
G0 F3000 X66.08 Y65.688
M204 S1800
M205 X8 Y8
G1 F2400 X66.612 Y65.259 E22.40692
G1 X67.19 Y64.894 E22.45467
G1 X67.807 Y64.6 E22.50241
G1 X68.453 Y64.38 E22.55007
G1 X69.121 Y64.237 E22.59779
G1 X69.845 Y64.171 E22.64857
G1 X70.166 Y64.162 E22.671
G1 X70.33 Y64.16 E22.68245
G1 X139.293 Y64.16 E27.49926
G1 X139.377 Y64.161 E27.50513
G1 X140.075 Y64.171 E27.55389
G1 X140.756 Y64.22 E27.60157
G1 X141.427 Y64.349 E27.6493
G1 X142.078 Y64.556 E27.69701
G1 X142.701 Y64.837 E27.74475
G1 X143.287 Y65.189 E27.7925
G1 X143.827 Y65.607 E27.84019
G1 X144.315 Y66.085 E27.8879
G1 X144.744 Y66.617 E27.93564
G1 X145.108 Y67.195 E27.98335
G1 X145.402 Y67.812 E28.03109
G1 X145.621 Y68.459 E28.07879
G1 X145.764 Y69.127 E28.12651
G1 X145.829 Y69.846 E28.17693
G1 X145.838 Y70.166 E28.19929
G1 X145.84 Y70.33 E28.21075
G1 X145.84 Y139.336 E33.03056
G1 X145.831 Y140.063 E33.08134
G1 X145.782 Y140.745 E33.1291
G1 X145.654 Y141.416 E33.17681
G1 X145.449 Y142.068 E33.22455
G1 X145.169 Y142.691 E33.27226
G1 X144.819 Y143.277 E33.31993
G1 X144.402 Y143.819 E33.3677
G1 X143.925 Y144.308 E33.41541
G1 X143.394 Y144.737 E33.46309
G1 X142.816 Y145.102 E33.51084
G1 X142.2 Y145.397 E33.55854
G1 X141.553 Y145.618 E33.6063
G1 X140.885 Y145.762 E33.65403
G1 X140.155 Y145.829 E33.70523
G1 X139.834 Y145.838 E33.72766
G1 X139.67 Y145.84 E33.73911
G1 X70.632 Y145.84 E38.56116
G1 X69.934 Y145.831 E38.60992
G1 X69.252 Y145.782 E38.65767
G1 X68.581 Y145.654 E38.70539
G1 X67.93 Y145.448 E38.75308
G1 X67.306 Y145.168 E38.80085
G1 X66.72 Y144.817 E38.84856
G1 X66.179 Y144.4 E38.89627
G1 X65.69 Y143.922 E38.94403
G1 X65.261 Y143.391 E38.99171
G1 X64.896 Y142.813 E39.03946
G1 X64.602 Y142.197 E39.08713
G1 X64.381 Y141.55 E39.13489
G1 X64.237 Y140.882 E39.18262
G1 X64.171 Y140.149 E39.23402
G1 X64.162 Y139.816 E39.25729
G1 X64.16 Y139.658 E39.26832
G1 X64.16 Y70.674 E44.0866
G1 X64.161 Y70.595 E44.09212
G1 X64.17 Y69.93 E44.13857
G1 X64.219 Y69.249 E44.18626
G1 X64.347 Y68.577 E44.23404
G1 X64.553 Y67.926 E44.28173
G1 X64.834 Y67.303 E44.32947
G1 X65.185 Y66.717 E44.37718
G1 X65.603 Y66.176 E44.42493
G1 X66.08 Y65.688 E44.47259
M204 S3000
M205 X10 Y10
G0 F3000 X66.154 Y66.401
M204 S1800
M205 X8 Y8
G1 F2400 X66.626 Y65.955 E44.51795
G1 X67.149 Y65.571 E44.56327
G1 X67.716 Y65.253 E44.60868
G1 X68.317 Y65.007 E44.65403
G1 X68.944 Y64.837 E44.69941
G1 X69.861 Y64.731 E44.76388
G1 X70.182 Y64.722 E44.78631
G1 X70.33 Y64.72 E44.79665
G1 X139.293 Y64.72 E49.61346
G1 X139.369 Y64.721 E49.61877
G1 X140.067 Y64.731 E49.66753
G1 X140.714 Y64.78 E49.71285
G1 X141.351 Y64.908 E49.75823
G1 X141.967 Y65.114 E49.8036
G1 X142.554 Y65.394 E49.84902
G1 X143.101 Y65.743 E49.89434
G1 X143.602 Y66.157 E49.93974
G1 X144.047 Y66.63 E49.9851
G1 X144.432 Y67.154 E50.03051
G1 X144.749 Y67.721 E50.07588
G1 X144.994 Y68.322 E50.12122
G1 X145.163 Y68.949 E50.16657
G1 X145.269 Y69.862 E50.23077
G1 X145.278 Y70.182 E50.25313
G1 X145.28 Y70.33 E50.26347
G1 X145.28 Y139.329 E55.08279
G1 X145.271 Y140.056 E55.13357
G1 X145.223 Y140.704 E55.17896
G1 X145.095 Y141.341 E55.22434
G1 X144.891 Y141.958 E55.26973
G1 X144.612 Y142.545 E55.31512
G1 X144.264 Y143.093 E55.36047
G1 X143.851 Y143.594 E55.40582
G1 X143.379 Y144.041 E55.45122
G1 X142.856 Y144.426 E55.49658
G1 X142.29 Y144.744 E55.54193
G1 X141.688 Y144.991 E55.58738
G1 X141.062 Y145.161 E55.63268
G1 X140.139 Y145.269 E55.69759
G1 X139.818 Y145.278 E55.72002
G1 X139.67 Y145.28 E55.73036
G1 X70.639 Y145.28 E60.55192
G1 X69.941 Y145.271 E60.60067
G1 X69.293 Y145.222 E60.64606
G1 X68.656 Y145.095 E60.69143
G1 X68.04 Y144.89 E60.73678
G1 X67.453 Y144.611 E60.78217
G1 X66.905 Y144.262 E60.82755
G1 X66.404 Y143.849 E60.8729
G1 X65.957 Y143.377 E60.91831
G1 X65.572 Y142.854 E60.96367
G1 X65.254 Y142.287 E61.00907
G1 X65.008 Y141.686 E61.05443
G1 X64.838 Y141.059 E61.0998
G1 X64.731 Y140.134 E61.16484
G1 X64.722 Y139.801 E61.18811
G1 X64.72 Y139.658 E61.1981
G1 X64.72 Y70.603 E66.02133
G1 X64.729 Y69.938 E66.06779
G1 X64.778 Y69.29 E66.11318
G1 X64.906 Y68.653 E66.15856
G1 X65.111 Y68.036 E66.20397
G1 X65.391 Y67.45 E66.24933
G1 X65.74 Y66.902 E66.29471
G1 X66.154 Y66.401 E66.3401
M204 S3000
M205 X10 Y10
G1 F2400 E60.3401
;MESH:rbg_led_cube_shell_v2.stl
G0 F3000 X69.335 Y70.854
G0 X70.854 Y70.854
G0 X71.4 Y138.6
M204 S1800
M205 X8 Y8
;TYPE:WALL-INNER
G1 F2400 E66.3401
G1 F1500 X71.4 Y71.4 E71.03378
G1 X138.6 Y71.4 E75.72745
G1 X138.6 Y138.6 E80.42112
G1 X71.4 Y138.6 E85.11479
M204 S3000
M205 X10 Y10
G0 F3000 X70.84 Y139.16
M204 S1800
M205 X8 Y8
G1 F1500 X70.84 Y70.84 E89.88668
G1 X139.16 Y70.84 E94.65858
G1 X139.16 Y139.16 E99.43048
G1 X70.84 Y139.16 E104.20238
M204 S3000
M205 X10 Y10
G0 F3000 X70.28 Y139.72
M204 S1800
M205 X8 Y8
;TYPE:WALL-OUTER
G1 F1500 X70.28 Y70.28 E109.0525
G1 X139.72 Y70.28 E113.90263
G1 X139.72 Y139.72 E118.75276
G1 X70.28 Y139.72 E123.60288
M204 S3000
M205 X10 Y10
G0 F3000 X70.28 Y139.52
G0 X70.91 Y139.09
G0 X71.95 Y138.05
M204 S1800
M205 X8 Y8
;TYPE:SKIN
G1 F1500 X71.95 Y71.95 E128.21972
G1 X138.05 Y71.95 E132.83656
G1 X138.05 Y138.05 E137.4534
G1 X71.95 Y138.05 E142.07024
M204 S3000
M205 X10 Y10
G0 F3000 X72.848 Y137.789
M204 S1800
M205 X8 Y8
G1 F1500 X72.209 Y137.15 E142.13336
M204 S3000
M205 X10 Y10
G0 F3000 X72.209 Y136.358
M204 S1800
M205 X8 Y8
G1 F1500 X73.64 Y137.789 E142.27471
M204 S3000
M205 X10 Y10
G0 F3000 X74.432 Y137.789
M204 S1800
M205 X8 Y8
G1 F1500 X72.209 Y135.566 E142.49429
M204 S3000
M205 X10 Y10
G0 F3000 X72.209 Y134.774
M204 S1800
M205 X8 Y8
G1 F1500 X75.224 Y137.789 E142.79211
M204 S3000
M205 X10 Y10
G0 F3000 X76.016 Y137.789
M204 S1800
M205 X8 Y8
G1 F1500 X72.209 Y133.982 E143.16815
M204 S3000
M205 X10 Y10
G0 F3000 X72.209 Y133.19
M204 S1800
M205 X8 Y8
G1 F1500 X76.808 Y137.789 E143.62243
M204 S3000
M205 X10 Y10
G0 F3000 X77.6 Y137.789
M204 S1800
M205 X8 Y8
G1 F1500 X72.209 Y132.398 E144.15494
M204 S3000
M205 X10 Y10
G0 F3000 X72.209 Y131.606
M204 S1800
M205 X8 Y8
G1 F1500 X78.392 Y137.789 E144.76568
M204 S3000
M205 X10 Y10
G0 F3000 X79.184 Y137.789
M204 S1800
M205 X8 Y8
G1 F1500 X72.209 Y130.814 E145.45465
M204 S3000
M205 X10 Y10
G0 F3000 X72.209 Y130.022
M204 S1800
M205 X8 Y8
G1 F1500 X79.976 Y137.789 E146.22186
M204 S3000
M205 X10 Y10
G0 F3000 X80.768 Y137.789
M204 S1800
M205 X8 Y8
G1 F1500 X72.209 Y129.23 E147.0673
M204 S3000
M205 X10 Y10
G0 F3000 X72.209 Y128.438
M204 S1800
M205 X8 Y8
G1 F1500 X81.56 Y137.789 E147.99097
M204 S3000
M205 X10 Y10
G0 F3000 X82.352 Y137.789
M204 S1800
M205 X8 Y8
G1 F1500 X72.209 Y127.646 E148.99287
M204 S3000
M205 X10 Y10
G0 F3000 X72.209 Y126.854
M204 S1800
M205 X8 Y8
G1 F1500 X83.144 Y137.789 E150.073
M204 S3000
M205 X10 Y10
G0 F3000 X83.936 Y137.789
M204 S1800
M205 X8 Y8
G1 F1500 X72.209 Y126.062 E151.23136
M204 S3000
M205 X10 Y10
G0 F3000 X72.209 Y125.271
M204 S1800
M205 X8 Y8
G1 F1500 X84.728 Y137.789 E152.46791
M204 S3000
M205 X10 Y10
G0 F3000 X85.52 Y137.789
M204 S1800
M205 X8 Y8
G1 F1500 X72.209 Y124.479 E153.78269
M204 S3000
M205 X10 Y10
G0 F3000 X72.209 Y123.687
M204 S1800
M205 X8 Y8
G1 F1500 X86.312 Y137.789 E155.1757
M204 S3000
M205 X10 Y10
G0 F3000 X87.104 Y137.789
M204 S1800
M205 X8 Y8
G1 F1500 X72.209 Y122.895 E156.64694
M204 S3000
M205 X10 Y10
G0 F3000 X72.209 Y122.103
M204 S1800
M205 X8 Y8
G1 F1500 X87.896 Y137.789 E158.19642
M204 S3000
M205 X10 Y10
G0 F3000 X88.688 Y137.789
M204 S1800
M205 X8 Y8
G1 F1500 X72.209 Y121.311 E159.82412
M204 S3000
M205 X10 Y10
G0 F3000 X72.209 Y120.519
M204 S1800
M205 X8 Y8
G1 F1500 X89.48 Y137.789 E161.53006
M204 S3000
M205 X10 Y10
G0 F3000 X90.272 Y137.789
M204 S1800
M205 X8 Y8
G1 F1500 X72.209 Y119.727 E163.31423
M204 S3000
M205 X10 Y10
G0 F3000 X72.209 Y118.935
M204 S1800
M205 X8 Y8
G1 F1500 X91.064 Y137.789 E165.17663
M204 S3000
M205 X10 Y10
G0 F3000 X91.855 Y137.789
M204 S1800
M205 X8 Y8
G1 F1500 X72.209 Y118.143 E167.11722
M204 S3000
M205 X10 Y10
G0 F3000 X72.209 Y117.351
M204 S1800
M205 X8 Y8
G1 F1500 X92.647 Y137.789 E169.13603
M204 S3000
M205 X10 Y10
G0 F3000 X93.439 Y137.789
M204 S1800
M205 X8 Y8
G1 F1500 X72.209 Y116.559 E171.23308
M204 S3000
M205 X10 Y10
G0 F3000 X72.209 Y115.767
M204 S1800
M205 X8 Y8
G1 F1500 X94.231 Y137.789 E173.40836
M204 S3000
M205 X10 Y10
G0 F3000 X95.023 Y137.789
M204 S1800
M205 X8 Y8
G1 F1500 X72.209 Y114.975 E175.66187
M204 S3000
M205 X10 Y10
G0 F3000 X72.209 Y114.183
M204 S1800
M205 X8 Y8
G1 F1500 X95.815 Y137.789 E177.99361
M204 S3000
M205 X10 Y10
G0 F3000 X96.607 Y137.789
M204 S1800
M205 X8 Y8
G1 F1500 X72.209 Y113.391 E180.40359
M204 S3000
M205 X10 Y10
G0 F3000 X72.209 Y112.599
M204 S1800
M205 X8 Y8
G1 F1500 X97.399 Y137.789 E182.8918
M204 S3000
M205 X10 Y10
G0 F3000 X98.191 Y137.789
M204 S1800
M205 X8 Y8
G1 F1500 X72.209 Y111.807 E185.45823
M204 S3000
M205 X10 Y10
G0 F3000 X72.209 Y111.015
M204 S1800
M205 X8 Y8
G1 F1500 X98.983 Y137.789 E188.1029
M204 S3000
M205 X10 Y10
G0 F3000 X99.775 Y137.789
M204 S1800
M205 X8 Y8
G1 F1500 X72.209 Y110.223 E190.82581
M204 S3000
M205 X10 Y10
G0 F3000 X72.209 Y109.431
M204 S1800
M205 X8 Y8
G1 F1500 X100.567 Y137.789 E193.62694
M204 S3000
M205 X10 Y10
G0 F3000 X101.359 Y137.789
M204 S1800
M205 X8 Y8
G1 F1500 X72.209 Y108.639 E196.50631
M204 S3000
M205 X10 Y10
G0 F3000 X72.209 Y107.847
M204 S1800
M205 X8 Y8
G1 F1500 X102.151 Y137.789 E199.4639
M204 S3000
M205 X10 Y10
G0 F3000 X102.943 Y137.789
M204 S1800
M205 X8 Y8
G1 F1500 X72.209 Y107.055 E202.49973
M204 S3000
M205 X10 Y10
G0 F3000 X72.209 Y106.264
M204 S1800
M205 X8 Y8
G1 F1500 X103.735 Y137.789 E205.61375
M204 S3000
M205 X10 Y10
G0 F3000 X104.527 Y137.789
M204 S1800
M205 X8 Y8
G1 F1500 X72.209 Y105.472 E208.80599
M204 S3000
M205 X10 Y10
G0 F3000 X72.209 Y104.68
M204 S1800
M205 X8 Y8
G1 F1500 X105.319 Y137.789 E212.07647
M204 S3000
M205 X10 Y10
G0 F3000 X106.111 Y137.789
M204 S1800
M205 X8 Y8
G1 F1500 X72.209 Y103.888 E215.42517
M204 S3000
M205 X10 Y10
G0 F3000 X72.209 Y103.096
M204 S1800
M205 X8 Y8
G1 F1500 X106.903 Y137.789 E218.85211
M204 S3000
M205 X10 Y10
G0 F3000 X107.695 Y137.789
M204 S1800
M205 X8 Y8
G1 F1500 X72.209 Y102.304 E222.35728
M204 S3000
M205 X10 Y10
G0 F3000 X72.209 Y101.512
M204 S1800
M205 X8 Y8
G1 F1500 X108.487 Y137.789 E225.94069
M204 S3000
M205 X10 Y10
G0 F3000 X109.279 Y137.789
M204 S1800
M205 X8 Y8
G1 F1500 X72.209 Y100.72 E229.60232
M204 S3000
M205 X10 Y10
G0 F3000 X72.209 Y99.928
M204 S1800
M205 X8 Y8
G1 F1500 X110.071 Y137.789 E233.34219
M204 S3000
M205 X10 Y10
G0 F3000 X110.863 Y137.789
M204 S1800
M205 X8 Y8
G1 F1500 X72.209 Y99.136 E237.16029
M204 S3000
M205 X10 Y10
G0 F3000 X72.209 Y98.344
M204 S1800
M205 X8 Y8
G1 F1500 X111.654 Y137.789 E241.05657
M204 S3000
M205 X10 Y10
G0 F3000 X112.446 Y137.789
M204 S1800
M205 X8 Y8
G1 F1500 X72.209 Y97.552 E245.03108
M204 S3000
M205 X10 Y10
G0 F3000 X72.209 Y96.76
M204 S1800
M205 X8 Y8
G1 F1500 X113.238 Y137.789 E249.08382
M204 S3000
M205 X10 Y10
G0 F3000 X114.03 Y137.789
M204 S1800
M205 X8 Y8
G1 F1500 X72.209 Y95.968 E253.2148
M204 S3000
M205 X10 Y10
G0 F3000 X72.209 Y95.176
M204 S1800
M205 X8 Y8
G1 F1500 X114.822 Y137.789 E257.42401
M204 S3000
M205 X10 Y10
G0 F3000 X115.614 Y137.789
M204 S1800
M205 X8 Y8
G1 F1500 X72.209 Y94.384 E261.71145
M204 S3000
M205 X10 Y10
G0 F3000 X72.209 Y93.592
M204 S1800
M205 X8 Y8
G1 F1500 X116.406 Y137.789 E266.07712
M204 S3000
M205 X10 Y10
G0 F3000 X117.198 Y137.789
M204 S1800
M205 X8 Y8
G1 F1500 X72.209 Y92.8 E270.52102
M204 S3000
M205 X10 Y10
G0 F3000 X72.209 Y92.008
M204 S1800
M205 X8 Y8
G1 F1500 X117.99 Y137.789 E275.04316
M204 S3000
M205 X10 Y10
G0 F3000 X118.782 Y137.789
M204 S1800
M205 X8 Y8
G1 F1500 X72.209 Y91.216 E279.64353
M204 S3000
M205 X10 Y10
G0 F3000 X72.209 Y90.424
M204 S1800
M205 X8 Y8
G1 F1500 X119.574 Y137.789 E284.32213
M204 S3000
M205 X10 Y10
G0 F3000 X120.366 Y137.789
M204 S1800
M205 X8 Y8
G1 F1500 X72.209 Y89.632 E289.07896
M204 S3000
M205 X10 Y10
G0 F3000 X72.209 Y88.84
M204 S1800
M205 X8 Y8
G1 F1500 X121.158 Y137.789 E293.91402
M204 S3000
M205 X10 Y10
G0 F3000 X121.95 Y137.789
M204 S1800
M205 X8 Y8
G1 F1500 X72.209 Y88.048 E298.82732
M204 S3000
M205 X10 Y10
G0 F3000 X72.209 Y87.256
M204 S1800
M205 X8 Y8
G1 F1500 X122.742 Y137.789 E303.81884
M204 S3000
M205 X10 Y10
G0 F3000 X123.534 Y137.789
M204 S1800
M205 X8 Y8
G1 F1500 X72.209 Y86.465 E308.88855
M204 S3000
M205 X10 Y10
G0 F3000 X72.209 Y85.673
M204 S1800
M205 X8 Y8
G1 F1500 X124.326 Y137.789 E314.03649
M204 S3000
M205 X10 Y10
G0 F3000 X125.118 Y137.789
M204 S1800
M205 X8 Y8
G1 F1500 X72.209 Y84.881 E319.26266
M204 S3000
M205 X10 Y10
G0 F3000 X72.209 Y84.089
M204 S1800
M205 X8 Y8
G1 F1500 X125.91 Y137.789 E324.56707
M204 S3000
M205 X10 Y10
G0 F3000 X126.702 Y137.789
M204 S1800
M205 X8 Y8
G1 F1500 X72.209 Y83.297 E329.94971
M204 S3000
M205 X10 Y10
G0 F3000 X72.209 Y82.505
M204 S1800
M205 X8 Y8
G1 F1500 X127.494 Y137.789 E335.41057
M204 S3000
M205 X10 Y10
G0 F3000 X128.286 Y137.789
M204 S1800
M205 X8 Y8
G1 F1500 X72.209 Y81.713 E340.94967
M204 S3000
M205 X10 Y10
G0 F3000 X72.209 Y80.921
M204 S1800
M205 X8 Y8
G1 F1500 X129.078 Y137.789 E346.56701
M204 S3000
M205 X10 Y10
G0 F3000 X129.87 Y137.789
M204 S1800
M205 X8 Y8
