;FLAVOR:Marlin
;TIME:7427
;Filament used: 10.8758m
;Layer height: 0.3
;MINX:28.887
;MINY:61.904
;MINZ:0.3
;MAXX:188.043
;MAXY:147.915
;MAXZ:51.3
;Generated with Cura_SteamEngine 4.4.1
M82 ;absolute extrusion mode
G21 ;metric values
G90 ;absolute positioning
M82 ;set extruder to absolute mode
M107 ;start with the fan off

M104 S200 T0 ; start heating T0 to what is set in Cura
M140 S60 ; start heating the bed to what is set in Cura
M190 S60 ; start heating the bed to what is set in Cura
M109 S200 T0 ; start heating T0 to what is set in Cura

G28 X0 Y0 ;move X/Y to min endstops
G28 Z0 ;move Z to min endstops
G1 Z15.0 F2400 ;move the platform down 15mm
G92 E0 ;zero the extruded length
G1 F200 E3 ;extrude 3mm of feed stock
G92 E0 ;zero the extruded length again
G1 F2400
G0 Y20 F2400
M117 Printing...
G5
G92 E0
G92 E0
G1 F2400 E-6
;LAYER_COUNT:171
;LAYER:0
M106 S255
M204 S3000
M205 X10 Y10
G1 F600 Z0.375
G0 F3000 X32.573 Y64.217 Z0.375
M204 S1800
M205 X8 Y8
;TYPE:SKIRT
G1 F600 Z0.3
G1 F2400 E0
G1 X33.236 Y63.95 E0.04992
G1 X33.925 Y63.758 E0.09988
G1 X34.631 Y63.644 E0.14983
G1 X35.117 Y63.612 E0.18385
G1 X35.438 Y63.603 E0.20628
G1 X35.617 Y63.6 E0.21878
G1 X90.079 Y63.6 E4.02275
G1 X92.741 Y63.562 E4.2087
G1 X95.381 Y63.45 E4.39326
G1 X98.026 Y63.263 E4.57847
G1 X100.683 Y62.999 E4.76496
G1 X103.287 Y62.666 E4.94832
G1 X106.064 Y62.229 E5.14467
G1 X107.354 Y62.007 E5.2361
G1 X108.242 Y61.917 E5.29844
G1 X108.565 Y61.907 E5.32101
G1 X108.763 Y61.904 E5.33484
G1 X180.936 Y61.904 E10.37586
G1 X181.028 Y61.905 E10.38228
G1 X181.726 Y61.915 E10.43104
G1 X182.439 Y61.965 E10.48096
G1 X183.143 Y62.094 E10.53095
G1 X183.827 Y62.302 E10.58089
G1 X184.484 Y62.584 E10.63083
G1 X185.106 Y62.938 E10.68081
G1 X185.684 Y63.359 E10.73076
G1 X186.212 Y63.842 E10.78074
G1 X186.682 Y64.38 E10.83064
G1 X187.09 Y64.968 E10.88063
G1 X187.429 Y65.598 E10.9306
G1 X187.696 Y66.261 E10.98052
G1 X187.887 Y66.951 E11.03052
G1 X188 Y67.657 E11.08046
G1 X188.031 Y68.134 E11.11385
G1 X188.04 Y68.453 E11.13614
G1 X188.043 Y68.633 E11.14871
G1 X188.043 Y140.853 E16.19301
G1 X188.034 Y141.585 E16.24414
G1 X187.985 Y142.298 E16.29406
G1 X187.857 Y143.002 E16.34404
G1 X187.651 Y143.687 E16.394
G1 X187.37 Y144.345 E16.44398
G1 X187.017 Y144.967 E16.49393
G1 X186.598 Y145.546 E16.54385
G1 X186.116 Y146.075 E16.59383
G1 X185.578 Y146.546 E16.64378
G1 X184.991 Y146.955 E16.69375
G1 X184.362 Y147.296 E16.74372
G1 X183.699 Y147.564 E16.79367
G1 X183.01 Y147.756 E16.84363
G1 X182.304 Y147.871 E16.89359
G1 X181.813 Y147.903 E16.92796
G1 X181.492 Y147.912 E16.95039
G1 X181.313 Y147.915 E16.96289
G1 X109.14 Y147.915 E22.00391
G1 X109.048 Y147.914 E22.01033
G1 X108.351 Y147.904 E22.05902
G1 X107.458 Y147.829 E22.12161
G1 X106.469 Y147.675 E22.19152
G1 X106.374 Y147.659 E22.19825
G1 X105.603 Y147.527 E22.25289
G1 X102.988 Y147.155 E22.43737
G1 X100.354 Y146.856 E22.62253
G1 X97.724 Y146.633 E22.80688
G1 X95.103 Y146.486 E22.99024
G1 X91.036 Y146.4 E23.27437
G1 X35.994 Y146.4 E27.11885
G1 X35.902 Y146.399 E27.12527
G1 X35.204 Y146.389 E27.17403
G1 X34.491 Y146.339 E27.22395
G1 X33.787 Y146.21 E27.27394
G1 X33.103 Y146.002 E27.32388
G1 X32.446 Y145.72 E27.37382
G1 X31.824 Y145.366 E27.4238
G1 X31.246 Y144.945 E27.47375
G1 X30.718 Y144.462 E27.52373
G1 X30.248 Y143.924 E27.57363
G1 X29.84 Y143.336 E27.62362
G1 X29.501 Y142.706 E27.67359
G1 X29.234 Y142.043 E27.72351
G1 X29.043 Y141.353 E27.77351
G1 X28.93 Y140.647 E27.82345
G1 X28.898 Y140.163 E27.85733
G1 X28.889 Y139.831 E27.88053
G1 X28.887 Y139.658 E27.89261
G1 X28.887 Y70.698 E32.70921
G1 X28.888 Y70.614 E32.71508
G1 X28.897 Y69.925 E32.76321
G1 X28.946 Y69.212 E32.81313
G1 X29.074 Y68.508 E32.8631
G1 X29.281 Y67.823 E32.91309
G1 X29.562 Y67.166 E32.963
G1 X29.915 Y66.544 E33.01295
G1 X30.336 Y65.965 E33.06295
G1 X30.818 Y65.437 E33.11289
G1 X31.356 Y64.966 E33.16283
G1 X31.943 Y64.557 E33.2128
G1 X32.573 Y64.217 E33.2628
M204 S3000
M205 X10 Y10
G0 F3000 X33.091 Y64.601
M204 S1800
M205 X8 Y8
G1 F2400 X33.738 Y64.381 E33.31053
G1 X34.406 Y64.237 E33.35826
G1 X35.132 Y64.171 E33.40918
G1 X35.453 Y64.162 E33.43161
G1 X35.617 Y64.16 E33.44306
G1 X90.087 Y64.16 E37.24759
G1 X92.738 Y64.123 E37.43277
G1 X95.445 Y64.008 E37.62202
G1 X98.048 Y63.823 E37.80429
G1 X100.74 Y63.556 E37.99323
G1 X103.375 Y63.219 E38.17878
G1 X106.176 Y62.778 E38.37683
G1 X107.449 Y62.559 E38.46705
G1 X108.259 Y62.477 E38.52391
G1 X108.582 Y62.467 E38.54648
G1 X108.763 Y62.464 E38.55913
G1 X180.936 Y62.464 E43.60014
G1 X181.02 Y62.465 E43.60601
G1 X181.718 Y62.475 E43.65477
G1 X182.399 Y62.524 E43.70246
G1 X183.07 Y62.653 E43.75018
G1 X183.721 Y62.86 E43.7979
G1 X184.344 Y63.141 E43.84563
G1 X184.93 Y63.493 E43.89338
G1 X185.47 Y63.911 E43.94107
G1 X185.958 Y64.389 E43.98879
G1 X186.387 Y64.921 E44.03652
G1 X186.751 Y65.499 E44.08423
G1 X187.045 Y66.116 E44.13197
G1 X187.264 Y66.763 E44.17968
G1 X187.407 Y67.431 E44.22739
G1 X187.472 Y68.149 E44.27775
G1 X187.481 Y68.468 E44.30004
G1 X187.483 Y68.633 E44.31156
G1 X187.483 Y140.846 E49.35537
G1 X187.474 Y141.578 E49.4065
G1 X187.425 Y142.259 E49.45419
G1 X187.298 Y142.931 E49.50196
G1 X187.092 Y143.582 E49.54965
G1 X186.813 Y144.206 E49.59739
G1 X186.462 Y144.792 E49.6451
G1 X186.045 Y145.333 E49.69281
G1 X185.568 Y145.822 E49.74053
G1 X185.037 Y146.252 E49.78825
G1 X184.459 Y146.617 E49.836
G1 X183.843 Y146.912 E49.8837
G1 X183.197 Y147.133 E49.93139
G1 X182.529 Y147.277 E49.97912
G1 X181.798 Y147.344 E50.03039
G1 X181.477 Y147.353 E50.05282
G1 X181.313 Y147.355 E50.06428
G1 X109.14 Y147.355 E55.10529
G1 X109.056 Y147.354 E55.11116
G1 X108.359 Y147.344 E55.15985
G1 X107.544 Y147.275 E55.21697
G1 X106.555 Y147.121 E55.28689
G1 X106.469 Y147.107 E55.29297
G1 X105.708 Y146.977 E55.34689
G1 X103.06 Y146.6 E55.53371
G1 X100.395 Y146.298 E55.72104
G1 X97.766 Y146.075 E55.90533
G1 X95.118 Y145.926 E56.09057
G1 X91.048 Y145.84 E56.37491
G1 X35.994 Y145.84 E60.22023
G1 X35.91 Y145.839 E60.2261
G1 X35.212 Y145.829 E60.27485
G1 X34.531 Y145.78 E60.32254
G1 X33.86 Y145.651 E60.37027
G1 X33.209 Y145.444 E60.41798
G1 X32.586 Y145.163 E60.46572
G1 X32 Y144.811 E60.51346
G1 X31.46 Y144.393 E60.56116
G1 X30.972 Y143.915 E60.60887
G1 X30.543 Y143.383 E60.65661
G1 X30.179 Y142.805 E60.70432
G1 X29.885 Y142.188 E60.75205
G1 X29.666 Y141.541 E60.79976
G1 X29.523 Y140.873 E60.84748
G1 X29.458 Y140.148 E60.89832
G1 X29.449 Y139.816 E60.92152
G1 X29.447 Y139.658 E60.93255
G1 X29.447 Y70.622 E65.75446
G1 X29.456 Y69.933 E65.80259
G1 X29.505 Y69.251 E65.85035
G1 X29.633 Y68.58 E65.89806
G1 X29.839 Y67.929 E65.94575
G1 X30.119 Y67.306 E65.99346
G1 X30.471 Y66.719 E66.04126
G1 X30.888 Y66.178 E66.08897
G1 X31.365 Y65.69 E66.13664
G1 X31.897 Y65.26 E66.18442
G1 X32.475 Y64.896 E66.23213
G1 X33.091 Y64.601 E66.27983
M204 S3000
M205 X10 Y10
G0 F3000 X33.001 Y65.254
M204 S1800
M205 X8 Y8
G1 F2400 X33.602 Y65.008 E66.32519
G1 X34.229 Y64.838 E66.37056
G1 X35.148 Y64.731 E66.43519
G1 X35.469 Y64.722 E66.45761
G1 X35.617 Y64.72 E66.46795
G1 X90.095 Y64.72 E70.27304
G1 X92.77 Y64.682 E70.4599
G1 X95.436 Y64.569 E70.64627
G1 X98.143 Y64.377 E70.83582
G1 X100.796 Y64.114 E71.02203
G1 X103.43 Y63.777 E71.20751
G1 X106.283 Y63.328 E71.40923
G1 X107.544 Y63.111 E71.4986
G1 X108.277 Y63.037 E71.55006
G1 X108.6 Y63.027 E71.57263
G1 X108.763 Y63.024 E71.58402
G1 X180.936 Y63.024 E76.62503
G1 X181.012 Y63.025 E76.63034
G1 X181.71 Y63.035 E76.6791
G1 X182.357 Y63.084 E76.72442
G1 X182.994 Y63.212 E76.7698
G1 X183.61 Y63.418 E76.81517
G1 X184.197 Y63.698 E76.86059
G1 X184.744 Y64.047 E76.90591
G1 X185.245 Y64.461 E76.95131
G1 X185.69 Y64.934 E76.99667
G1 X186.075 Y65.458 E77.04209
G1 X186.392 Y66.025 E77.08746
G1 X186.637 Y66.626 E77.13279
G1 X186.806 Y67.253 E77.17815
G1 X186.912 Y68.165 E77.24227
G1 X186.921 Y68.484 E77.26456
G1 X186.923 Y68.633 E77.27497
G1 X186.923 Y140.839 E82.31829
G1 X186.914 Y141.571 E82.36942
G1 X186.866 Y142.219 E82.41481
G1 X186.739 Y142.856 E82.46018
G1 X186.534 Y143.472 E82.50552
G1 X186.256 Y144.059 E82.55089
G1 X185.907 Y144.608 E82.59632
G1 X185.494 Y145.109 E82.64167
G1 X185.022 Y145.555 E82.68703
G1 X184.499 Y145.941 E82.73243
G1 X183.933 Y146.259 E82.77778
G1 X183.332 Y146.506 E82.82316
G1 X182.705 Y146.676 E82.86854
G1 X181.782 Y146.784 E82.93345
G1 X181.461 Y146.793 E82.95588
G1 X181.313 Y146.795 E82.96621
G1 X109.14 Y146.795 E88.00723
G1 X109.064 Y146.794 E88.01254
G1 X108.367 Y146.784 E88.06123
G1 X107.631 Y146.722 E88.11281
G1 X106.642 Y146.568 E88.18273
G1 X106.563 Y146.555 E88.18832
G1 X105.772 Y146.42 E88.24436
G1 X103.129 Y146.044 E88.43083
G1 X100.471 Y145.742 E88.61767
G1 X97.813 Y145.517 E88.80399
G1 X95.132 Y145.366 E88.99154
G1 X91.06 Y145.28 E89.27602
G1 X35.994 Y145.28 E93.12218
G1 X35.918 Y145.279 E93.12748
G1 X35.22 Y145.269 E93.17624
G1 X34.573 Y145.22 E93.22156
G1 X33.936 Y145.092 E93.26694
G1 X33.32 Y144.886 E93.31231
G1 X32.733 Y144.606 E93.35774
G1 X32.186 Y144.257 E93.40306
G1 X31.685 Y143.843 E93.44845
G1 X31.24 Y143.37 E93.49381
G1 X30.855 Y142.846 E93.53923
G1 X30.538 Y142.279 E93.5846
G1 X30.293 Y141.678 E93.62993
G1 X30.124 Y141.051 E93.67529
G1 X30.018 Y140.133 E93.73983
G1 X30.009 Y139.801 E93.76303
G1 X30.007 Y139.658 E93.77302
G1 X30.007 Y70.629 E98.59444
G1 X30.016 Y69.94 E98.64257
G1 X30.065 Y69.292 E98.68796
G1 X30.192 Y68.655 E98.73332
G1 X30.397 Y68.039 E98.77867
G1 X30.676 Y67.452 E98.82406
G1 X31.025 Y66.904 E98.86944
G1 X31.439 Y66.403 E98.91484
G1 X31.911 Y65.957 E98.96019
G1 X32.434 Y65.572 E99.00555
G1 X33.001 Y65.254 E99.05096
M204 S3000
M205 X10 Y10
G1 F2400 E93.05096
;MESH:rbg_led_cube_shell_v3.stl
G0 F3000 X35.581 Y69.335
G0 X35.581 Y70.294
G0 X35.724 Y71.124
G0 X35.807 Y71.179
M204 S1800
M205 X8 Y8
;TYPE:WALL-OUTER
G1 F2400 E99.05096
G1 F1500 X35.807 Y138.821 E103.7755
G1 X36.028 Y138.912 E103.7922
G1 X36.153 Y138.964 E103.80165
G1 X54.269 Y120.848 E105.59111
G1 X54.439 Y121.018 E105.6079
G1 X36.323 Y139.134 E106.37479
G1 X36.375 Y139.259 E106.38424
G1 X36.466 Y139.48 E106.40094
G1 X104.109 Y139.48 E111.12555
G1 X104.2 Y139.259 E111.14224
G1 X104.252 Y139.134 E111.1517
G1 X86.136 Y121.018 E112.94115
G1 X86.305 Y120.848 E112.9579
G1 X104.421 Y138.964 E113.72157
G1 X104.546 Y138.912 E113.73103
G1 X104.767 Y138.821 E113.74772
G1 X104.767 Y71.179 E118.47226
G1 X104.546 Y71.088 E118.48896
G1 X104.421 Y71.036 E118.49841
G1 X86.305 Y89.152 E120.28787
G1 X86.136 Y88.982 E120.30461
G1 X104.252 Y70.866 E121.06828
G1 X104.2 Y70.741 E121.07774
G1 X104.109 Y70.52 E121.09443
G1 X36.466 Y70.52 E125.81904
G1 X36.375 Y70.741 E125.83574
G1 X36.323 Y70.866 E125.84519
G1 X54.439 Y88.982 E127.63465
G1 X54.269 Y89.152 E127.65144
G1 X36.153 Y71.036 E128.41833
G1 X36.028 Y71.088 E128.42778
G1 X35.807 Y71.179 E128.44448
M204 S3000
M205 X10 Y10
G0 F3000 X35.807 Y71.379
G0 X35.707 Y71.379
G0 X35.774 Y138.843
G0 X36.444 Y139.513
G0 X104.348 Y139.62
G0 X104.348 Y139.72
M204 S1800
M205 X8 Y8
G1 F1500 X104.109 Y139.72 E128.45721
G1 X36.466 Y139.72 E130.48204
G1 X36.227 Y139.72 E130.49478
G1 X35.567 Y139.72 E130.54087
G1 X35.567 Y139.06 E130.58697
G1 X35.567 Y138.821 E130.5997
G1 X35.567 Y71.179 E132.62451
G1 X35.567 Y70.94 E132.63724
G1 X35.567 Y70.28 E132.68334
G1 X36.227 Y70.28 E132.72944
G1 X36.466 Y70.28 E132.74217
G1 X104.109 Y70.28 E134.767
G1 X104.348 Y70.28 E134.77974
G1 X105.007 Y70.28 E134.82576
G1 X105.007 Y70.94 E134.87186
G1 X105.007 Y71.179 E134.88459
G1 X105.007 Y138.821 E136.9094
G1 X105.007 Y139.06 E136.92213
G1 X105.007 Y139.72 E136.96823
G1 X104.348 Y139.72 E137.01426
M204 S3000
M205 X10 Y10
G0 F3000 X104.148 Y139.72
G0 X104.571 Y139.361
M204 S1800
M205 X8 Y8
;TYPE:SKIN
G1 F1500 X104.694 Y139.201 E137.02275
M204 S3000
M205 X10 Y10
G0 F3000 X104.657 Y139.164
G0 X104.8 Y71.157
G0 X104.731 Y70.79
M204 S1800
M205 X8 Y8
G1 F1500 X104.496 Y70.555 E137.03104
M204 S3000
M205 X10 Y10
G0 F3000 X36.444 Y70.487
G0 X36.085 Y70.592
M204 S1800
M205 X8 Y8
G1 F1500 X35.924 Y70.713 E137.03956
M204 S3000
M205 X10 Y10
G0 F3000 X36.007 Y70.796
G0 X35.774 Y138.843
G0 X36.024 Y139.262
M204 S1800
M205 X8 Y8
G1 F1500 X35.882 Y139.403 E137.0489
M204 S3000
M205 X10 Y10
G0 F3000 X35.856 Y139.472
G1 F2400 E131.0489
;MESH:rbg_led_cube_pilon_v3.stl
G0 F3000 X104.131 Y139.513
G0 X104.109 Y140.665
G0 X105.94 Y140.653
G0 X107.768 Y139.48
G0 X109.293 Y139.48
G0 X109.833 Y140.115
M204 S1800
M205 X8 Y8
;TYPE:WALL-INNER
G1 F2400 E137.0489
G1 F1500 X109.833 Y69.704 E141.96684
G1 X180.243 Y69.704 E146.88472
G1 X180.243 Y140.115 E151.80267
G1 X109.833 Y140.115 E156.72054
M204 S3000
M205 X10 Y10
G0 F3000 X113.638 Y129.845
M204 S1800
M205 X8 Y8
G1 F1500 X115.368 Y130.56 E156.85129
G1 X119.838 Y126.09 E157.29283
G1 X119.838 Y124.31 E157.41715
G1 X121.618 Y124.31 E157.54148
G1 X130.438 Y115.49 E158.4127
G1 X130.438 Y94.3 E159.89274
G1 X125.926 Y90.11 E160.32282
G1 X124.438 Y90.11 E160.42675
G1 X124.438 Y88.728 E160.52327
G1 X115.318 Y80.26 E161.39252
G1 X113.638 Y80.995 E161.5206
G1 X113.638 Y129.845 E164.93259
M204 S3000
M205 X10 Y10
G0 F3000 X115.243 Y129.939
G0 X135.238 Y114.71
M204 S1800
M205 X8 Y8
G1 F1500 X154.838 Y114.71 E166.30158
G1 X154.838 Y95.11 E167.67057
G1 X135.238 Y95.11 E169.03955
G1 X135.238 Y114.71 E170.40854
M204 S3000
M205 X10 Y10
G0 F3000 X155.401 Y120.034
G0 X170.067 Y134.705
G0 X169.973 Y136.31
M204 S1800
M205 X8 Y8
G1 F1500 X170.688 Y134.58 E170.53929
G1 X166.218 Y130.11 E170.98082
G1 X164.438 Y130.11 E171.10515
G1 X164.438 Y128.33 E171.22948
G1 X155.618 Y119.51 E172.1007
G1 X134.428 Y119.51 E173.58074
G1 X130.238 Y124.021 E174.01076
G1 X130.238 Y125.51 E174.11476
G1 X128.857 Y125.51 E174.21122
G1 X120.388 Y134.63 E175.08051
G1 X121.123 Y136.31 E175.2086
G1 X169.973 Y136.31 E178.62059
M204 S3000
M205 X10 Y10
G0 F3000 X175.911 Y128.48
G0 X176.438 Y79.975
M204 S1800
M205 X8 Y8
G1 F1500 X174.708 Y79.26 E178.75133
G1 X170.238 Y83.73 E179.19287
G1 X170.238 Y85.51 E179.3172
G1 X168.458 Y85.51 E179.44152
G1 X159.638 Y94.33 E180.31274
G1 X159.638 Y115.52 E181.79278
G1 X164.15 Y119.71 E182.22286
G1 X165.638 Y119.71 E182.32679
G1 X165.638 Y121.091 E182.42325
G1 X174.758 Y129.56 E183.29254
G1 X176.438 Y128.825 E183.42062
G1 X176.438 Y79.975 E186.83261
M204 S3000
M205 X10 Y10
G0 F3000 X168.608 Y74.037
G0 X120.103 Y73.51
M204 S1800
M205 X8 Y8
G1 F1500 X119.388 Y75.24 E186.96336
G1 X123.858 Y79.71 E187.4049
G1 X125.638 Y79.71 E187.52922
G1 X125.638 Y81.49 E187.65355
G1 X134.458 Y90.31 E188.52477
G1 X155.648 Y90.31 E190.00481
G1 X159.838 Y85.798 E190.43488
G1 X159.838 Y84.31 E190.53882
G1 X161.219 Y84.31 E190.63527
G1 X169.688 Y75.19 E191.50457
G1 X168.953 Y73.51 E191.63265
G1 X120.103 Y73.51 E195.04464
M204 S3000
M205 X10 Y10
G0 F3000 X120.477 Y74.07
M204 S1800
M205 X8 Y8
G1 F1500 X120.048 Y75.108 E195.12309
G1 X124.09 Y79.15 E195.52235
G1 X126.198 Y79.15 E195.66958
G1 X126.198 Y81.258 E195.81682
G1 X134.69 Y89.75 E196.65564
G1 X155.404 Y89.75 E198.10243
G1 X159.278 Y85.578 E198.50009
G1 X159.278 Y83.75 E198.62777
G1 X160.975 Y83.75 E198.7463
G1 X169.028 Y75.078 E199.57289
G1 X168.587 Y74.07 E199.64974
G1 X120.477 Y74.07 E203.01004
M204 S3000
M205 X10 Y10
G0 F3000 X120.422 Y73.987
G0 X120.009 Y75.115
G0 X129.914 Y94.529
G0 X135.728 Y114.22
G0 X135.798 Y114.15
M204 S1800
M205 X8 Y8
G1 F1500 X154.278 Y114.15 E204.3008
G1 X154.278 Y95.67 E205.59156
G1 X135.798 Y95.67 E206.88232
G1 X135.798 Y114.15 E208.17308
M204 S3000
M205 X10 Y10
G0 F3000 X135.728 Y114.22
G0 X115.243 Y129.939
G0 X114.115 Y129.526
G0 X114.198 Y129.471
M204 S1800
M205 X8 Y8
G1 F1500 X115.236 Y129.9 E208.25153
G1 X119.278 Y125.858 E208.65079
G1 X119.278 Y123.75 E208.79802
G1 X121.386 Y123.75 E208.94526
G1 X129.878 Y115.258 E209.78408
G1 X129.878 Y94.544 E211.23087
G1 X125.706 Y90.67 E211.62853
G1 X123.878 Y90.67 E211.75621
G1 X123.878 Y88.972 E211.87481
G1 X115.206 Y80.92 E212.70135
G1 X114.198 Y81.361 E212.7782
G1 X114.198 Y129.471 E216.1385
M204 S3000
M205 X10 Y10
G0 F3000 X114.115 Y129.526
G0 X109.343 Y140.605
G0 X109.273 Y140.675
M204 S1800
M205 X8 Y8
G1 F1500 X109.273 Y69.144 E221.13468
G1 X180.803 Y69.144 E226.13078
G1 X180.803 Y140.675 E231.12696
G1 X109.273 Y140.675 E236.12306
M204 S3000
M205 X10 Y10
