;FLAVOR:Marlin
;TIME:7331
;Filament used: 11.1611m
;Layer height: 0.3
;MINX:62
;MINY:62
;MINZ:0.3
;MAXX:148
;MAXY:148
;MAXZ:21.3
;Generated with Cura_SteamEngine 4.4.1
M82 ;absolute extrusion mode
G21 ;metric values
G90 ;absolute positioning
M82 ;set extruder to absolute mode
M107 ;start with the fan off

M104 S200 T0 ; start heating T0 to what is set in Cura
M140 S60 ; start heating the bed to what is set in Cura
M190 S60 ; start heating the bed to what is set in Cura
M109 S200 T0 ; start heating T0 to what is set in Cura

G28 X0 Y0 ;move X/Y to min endstops
G28 Z0 ;move Z to min endstops
G1 Z15.0 F2400 ;move the platform down 15mm
G92 E0 ;zero the extruded length
G1 F200 E3 ;extrude 3mm of feed stock
G92 E0 ;zero the extruded length again
G1 F2400
G0 Y20 F2400
M117 Printing...
G5
G92 E0
G92 E0
G1 F2400 E-6
;LAYER_COUNT:71
;LAYER:0
M106 S255
M204 S3000
M205 X10 Y10
G1 F600 Z0.375
G0 F3000 X63.933 Y63.835 Z0.375
M204 S1800
M205 X8 Y8
;TYPE:SKIRT
G1 F600 Z0.3
G1 F2400 E0
G1 X64.471 Y63.364 E0.04994
G1 X65.059 Y62.956 E0.09993
G1 X65.688 Y62.616 E0.14987
G1 X66.352 Y62.349 E0.19986
G1 X67.041 Y62.157 E0.24982
G1 X67.747 Y62.043 E0.29977
G1 X68.23 Y62.012 E0.33357
G1 X68.551 Y62.003 E0.356
G1 X68.73 Y62 E0.36851
G1 X140.893 Y62 E5.40882
G1 X140.985 Y62.001 E5.41525
G1 X141.683 Y62.011 E5.46401
G1 X142.396 Y62.061 E5.51393
G1 X143.1 Y62.19 E5.56392
G1 X143.784 Y62.398 E5.61386
G1 X144.441 Y62.68 E5.66379
G1 X145.063 Y63.034 E5.71378
G1 X145.641 Y63.455 E5.76373
G1 X146.169 Y63.938 E5.81371
G1 X146.639 Y64.476 E5.8636
G1 X147.047 Y65.064 E5.91359
G1 X147.386 Y65.694 E5.96356
G1 X147.653 Y66.357 E6.01348
G1 X147.844 Y67.047 E6.06349
G1 X147.957 Y67.753 E6.11343
G1 X147.988 Y68.23 E6.14682
G1 X147.997 Y68.55 E6.16918
G1 X148 Y68.73 E6.18175
G1 X148 Y140.943 E11.22556
G1 X147.991 Y141.67 E11.27634
G1 X147.942 Y142.384 E11.32633
G1 X147.814 Y143.088 E11.37631
G1 X147.608 Y143.773 E11.42627
G1 X147.327 Y144.43 E11.47618
G1 X146.974 Y145.053 E11.52619
G1 X146.554 Y145.632 E11.57615
G1 X146.072 Y146.16 E11.62609
G1 X145.535 Y146.632 E11.67602
G1 X144.947 Y147.04 E11.72601
G1 X144.318 Y147.381 E11.77599
G1 X143.655 Y147.649 E11.82593
G1 X142.966 Y147.841 E11.87589
G1 X142.26 Y147.956 E11.92585
G1 X141.77 Y147.988 E11.96015
G1 X141.449 Y147.997 E11.98258
G1 X141.27 Y148 E11.99508
G1 X69.107 Y148 E17.0354
G1 X69.024 Y147.999 E17.0412
G1 X68.326 Y147.99 E17.08996
G1 X67.613 Y147.941 E17.13987
G1 X66.909 Y147.813 E17.18985
G1 X66.224 Y147.607 E17.23981
G1 X65.567 Y147.325 E17.28975
G1 X64.945 Y146.972 E17.3397
G1 X64.366 Y146.552 E17.38966
G1 X63.837 Y146.07 E17.43965
G1 X63.366 Y145.532 E17.48959
G1 X62.958 Y144.945 E17.53952
G1 X62.618 Y144.315 E17.58953
G1 X62.35 Y143.652 E17.63947
G1 X62.158 Y142.963 E17.68943
G1 X62.044 Y142.257 E17.73938
G1 X62.011 Y141.764 E17.77389
G1 X62.002 Y141.431 E17.79716
G1 X62 Y141.258 E17.80925
G1 X62 Y69.074 E22.85103
G1 X62.001 Y68.987 E22.85711
G1 X62.01 Y68.322 E22.90356
G1 X62.059 Y67.609 E22.95348
G1 X62.188 Y66.905 E23.00347
G1 X62.395 Y66.221 E23.05338
G1 X62.677 Y65.563 E23.10338
G1 X63.03 Y64.941 E23.15334
G1 X63.45 Y64.363 E23.20324
G1 X63.933 Y63.835 E23.25322
M204 S3000
M205 X10 Y10
G0 F3000 X64.48 Y64.088
M204 S1800
M205 X8 Y8
G1 F2400 X65.012 Y63.659 E23.30096
G1 X65.59 Y63.294 E23.3487
G1 X66.207 Y63 E23.39644
G1 X66.853 Y62.78 E23.44411
G1 X67.521 Y62.637 E23.49182
G1 X68.245 Y62.571 E23.5426
G1 X68.566 Y62.562 E23.56503
G1 X68.73 Y62.56 E23.57648
G1 X140.893 Y62.56 E28.6168
G1 X140.977 Y62.561 E28.62267
G1 X141.675 Y62.571 E28.67143
G1 X142.356 Y62.62 E28.71912
G1 X143.027 Y62.749 E28.76684
G1 X143.678 Y62.956 E28.81455
G1 X144.301 Y63.237 E28.86229
G1 X144.887 Y63.589 E28.91004
G1 X145.427 Y64.007 E28.95773
G1 X145.915 Y64.485 E29.00544
G1 X146.344 Y65.017 E29.05318
G1 X146.708 Y65.595 E29.10089
G1 X147.002 Y66.212 E29.14863
G1 X147.221 Y66.859 E29.19634
G1 X147.364 Y67.527 E29.24405
G1 X147.429 Y68.246 E29.29447
G1 X147.438 Y68.566 E29.31683
G1 X147.44 Y68.73 E29.32829
G1 X147.44 Y140.936 E34.37161
G1 X147.431 Y141.663 E34.42239
G1 X147.382 Y142.345 E34.47015
G1 X147.254 Y143.016 E34.51786
G1 X147.049 Y143.668 E34.5656
G1 X146.769 Y144.291 E34.61331
G1 X146.419 Y144.877 E34.66098
G1 X146.002 Y145.419 E34.70875
G1 X145.525 Y145.908 E34.75646
G1 X144.994 Y146.337 E34.80414
G1 X144.416 Y146.702 E34.85189
G1 X143.8 Y146.997 E34.89959
G1 X143.153 Y147.218 E34.94734
G1 X142.485 Y147.362 E34.99507
G1 X141.755 Y147.429 E35.04628
G1 X141.434 Y147.438 E35.06871
G1 X141.27 Y147.44 E35.08016
G1 X69.032 Y147.44 E40.12572
G1 X68.334 Y147.431 E40.17447
G1 X67.652 Y147.382 E40.22223
G1 X66.981 Y147.254 E40.26994
G1 X66.33 Y147.048 E40.31764
G1 X65.706 Y146.768 E40.36541
G1 X65.12 Y146.417 E40.41312
G1 X64.579 Y146 E40.46083
G1 X64.09 Y145.522 E40.50859
G1 X63.661 Y144.991 E40.55627
G1 X63.296 Y144.413 E40.60402
G1 X63.002 Y143.797 E40.65169
G1 X62.781 Y143.15 E40.69944
G1 X62.637 Y142.482 E40.74717
G1 X62.571 Y141.749 E40.79858
G1 X62.562 Y141.416 E40.82184
G1 X62.56 Y141.258 E40.83288
G1 X62.56 Y69.074 E45.87467
G1 X62.561 Y68.995 E45.88018
G1 X62.57 Y68.33 E45.92664
G1 X62.619 Y67.649 E45.97432
G1 X62.747 Y66.977 E46.0221
G1 X62.953 Y66.326 E46.0698
G1 X63.234 Y65.703 E46.11753
G1 X63.585 Y65.117 E46.16524
G1 X64.003 Y64.576 E46.21299
G1 X64.48 Y64.088 E46.26066
M204 S3000
M205 X10 Y10
G0 F3000 X64.554 Y64.801
M204 S1800
M205 X8 Y8
G1 F2400 X65.026 Y64.355 E46.30602
G1 X65.549 Y63.971 E46.35133
G1 X66.116 Y63.653 E46.39674
G1 X66.717 Y63.407 E46.4421
G1 X67.344 Y63.237 E46.48747
G1 X68.261 Y63.131 E46.55195
G1 X68.582 Y63.122 E46.57438
G1 X68.73 Y63.12 E46.58472
G1 X140.893 Y63.12 E51.62503
G1 X140.969 Y63.121 E51.63034
G1 X141.667 Y63.131 E51.6791
G1 X142.314 Y63.18 E51.72442
G1 X142.951 Y63.308 E51.7698
G1 X143.567 Y63.514 E51.81517
G1 X144.154 Y63.794 E51.86059
G1 X144.701 Y64.143 E51.90591
G1 X145.202 Y64.557 E51.95131
G1 X145.647 Y65.03 E51.99667
G1 X146.032 Y65.554 E52.04208
G1 X146.349 Y66.121 E52.08746
G1 X146.594 Y66.722 E52.13279
G1 X146.763 Y67.349 E52.17814
G1 X146.869 Y68.262 E52.24234
G1 X146.878 Y68.582 E52.2647
G1 X146.88 Y68.73 E52.27504
G1 X146.88 Y140.929 E57.31787
G1 X146.871 Y141.656 E57.36865
G1 X146.823 Y142.304 E57.41404
G1 X146.695 Y142.941 E57.45942
G1 X146.491 Y143.558 E57.50481
G1 X146.212 Y144.145 E57.55021
G1 X145.864 Y144.693 E57.59555
G1 X145.451 Y145.194 E57.6409
G1 X144.979 Y145.641 E57.6863
G1 X144.456 Y146.026 E57.73166
G1 X143.89 Y146.344 E57.77701
G1 X143.288 Y146.591 E57.82246
G1 X142.662 Y146.761 E57.86776
G1 X141.739 Y146.869 E57.93267
G1 X141.418 Y146.878 E57.9551
G1 X141.27 Y146.88 E57.96544
G1 X69.039 Y146.88 E63.01051
G1 X68.341 Y146.871 E63.05926
G1 X67.693 Y146.822 E63.10465
G1 X67.056 Y146.695 E63.15002
G1 X66.44 Y146.49 E63.19537
G1 X65.853 Y146.211 E63.24076
G1 X65.305 Y145.862 E63.28614
G1 X64.804 Y145.449 E63.33149
G1 X64.357 Y144.977 E63.37689
G1 X63.972 Y144.454 E63.42225
G1 X63.654 Y143.887 E63.46766
G1 X63.408 Y143.286 E63.51302
G1 X63.238 Y142.659 E63.55839
G1 X63.131 Y141.734 E63.62343
G1 X63.122 Y141.401 E63.6467
G1 X63.12 Y141.258 E63.65669
G1 X63.12 Y69.003 E68.70343
G1 X63.129 Y68.338 E68.74988
G1 X63.178 Y67.69 E68.79527
G1 X63.306 Y67.053 E68.84065
G1 X63.511 Y66.436 E68.88607
G1 X63.791 Y65.85 E68.93143
G1 X64.14 Y65.302 E68.97681
G1 X64.554 Y64.801 E69.0222
M204 S3000
M205 X10 Y10
G1 F2400 E63.0222
;MESH:rgb_cube_case_v10.stl
G0 F3000 X67.735 Y69.254
G0 X69.254 Y69.254
G0 X115.8 Y94.4
M204 S1800
M205 X8 Y8
;TYPE:WALL-INNER
G1 F2400 E69.0222
G1 F1500 X128.6 Y94.4 E69.91623
G1 X128.6 Y81.6 E70.81027
G1 X115.8 Y81.6 E71.7043
G1 X115.8 Y94.4 E72.59833
M204 S3000
M205 X10 Y10
G0 F3000 X69.8 Y140.2
M204 S1800
M205 X8 Y8
G1 F1500 X69.8 Y69.8 E77.51551
G1 X140.2 Y69.8 E82.43269
G1 X140.2 Y140.2 E87.34987
G1 X69.8 Y140.2 E92.26705
M204 S3000
M205 X10 Y10
G0 F3000 X69.24 Y140.76
M204 S1800
M205 X8 Y8
G1 F1500 X69.24 Y69.24 E97.26245
G1 X140.76 Y69.24 E102.25786
G1 X140.76 Y140.76 E107.25326
G1 X69.24 Y140.76 E112.24867
M204 S3000
M205 X10 Y10
G0 F3000 X69.31 Y140.69
G0 X116.29 Y93.91
G0 X116.36 Y93.84
M204 S1800
M205 X8 Y8
G1 F1500 X128.04 Y93.84 E113.06447
G1 X128.04 Y82.16 E113.88028
G1 X116.36 Y82.16 E114.69608
G1 X116.36 Y93.84 E115.51189
M204 S3000
M205 X10 Y10
G0 F3000 X116.92 Y93.28
M204 S1800
M205 X8 Y8
;TYPE:WALL-OUTER
G1 F1500 X127.48 Y93.28 E116.24947
G1 X127.48 Y82.72 E116.98704
G1 X116.92 Y82.72 E117.72462
G1 X116.92 Y93.28 E118.4622
M204 S3000
M205 X10 Y10
G0 F3000 X117.12 Y93.28
G0 X117.12 Y93.94
G0 X69.31 Y140.69
G0 X68.68 Y141.32
M204 S1800
M205 X8 Y8
G1 F1500 X68.68 Y68.68 E123.53583
G1 X141.32 Y68.68 E128.60946
G1 X141.32 Y141.32 E133.6831
G1 X68.68 Y141.32 E138.75673
M204 S3000
M205 X10 Y10
G0 F3000 X68.68 Y141.12
G0 X69.31 Y140.69
G0 X70.35 Y139.65
M204 S1800
M205 X8 Y8
;TYPE:SKIN
G1 F1500 X70.35 Y70.35 E143.59708
G1 X139.65 Y70.35 E148.43743
G1 X139.65 Y139.65 E153.27777
G1 X70.35 Y139.65 E158.11812
M204 S3000
M205 X10 Y10
G0 F3000 X115.25 Y94.95
M204 S1800
M205 X8 Y8
G1 F1500 X129.15 Y94.95 E159.08898
G1 X129.15 Y81.05 E160.05985
G1 X115.25 Y81.05 E161.03071
G1 X115.25 Y94.95 E162.00157
M204 S3000
M205 X10 Y10
G0 F3000 X128.068 Y93.868
G0 X139.389 Y71.281
M204 S1800
M205 X8 Y8
G1 F1500 X138.718 Y70.61 E162.06785
M204 S3000
M205 X10 Y10
G0 F3000 X137.926 Y70.61
M204 S1800
M205 X8 Y8
G1 F1500 X139.389 Y72.073 E162.21237
M204 S3000
M205 X10 Y10
G0 F3000 X139.389 Y72.865
M204 S1800
M205 X8 Y8
G1 F1500 X137.134 Y70.61 E162.43511
M204 S3000
M205 X10 Y10
G0 F3000 X136.342 Y70.61
M204 S1800
M205 X8 Y8
G1 F1500 X139.389 Y73.657 E162.73608
M204 S3000
M205 X10 Y10
G0 F3000 X139.389 Y74.449
M204 S1800
M205 X8 Y8
G1 F1500 X135.55 Y70.61 E163.11529
M204 S3000
M205 X10 Y10
G0 F3000 X134.758 Y70.61
M204 S1800
M205 X8 Y8
G1 F1500 X139.389 Y75.241 E163.57273
M204 S3000
M205 X10 Y10
G0 F3000 X139.389 Y76.033
M204 S1800
M205 X8 Y8
G1 F1500 X133.967 Y70.61 E164.10835
M204 S3000
M205 X10 Y10
G0 F3000 X133.175 Y70.61
M204 S1800
M205 X8 Y8
G1 F1500 X139.389 Y76.825 E164.72221
M204 S3000
M205 X10 Y10
G0 F3000 X139.389 Y77.616
M204 S1800
M205 X8 Y8
G1 F1500 X132.383 Y70.61 E165.41424
M204 S3000
M205 X10 Y10
G0 F3000 X131.591 Y70.61
M204 S1800
M205 X8 Y8
G1 F1500 X139.389 Y78.408 E166.18451
M204 S3000
M205 X10 Y10
G0 F3000 X139.389 Y79.2
M204 S1800
M205 X8 Y8
G1 F1500 X130.799 Y70.61 E167.03301
M204 S3000
M205 X10 Y10
G0 F3000 X130.007 Y70.61
M204 S1800
M205 X8 Y8
G1 F1500 X139.389 Y79.992 E167.95974
M204 S3000
M205 X10 Y10
G0 F3000 X139.389 Y80.784
M204 S1800
M205 X8 Y8
G1 F1500 X129.215 Y70.61 E168.9647
M204 S3000
M205 X10 Y10
G0 F3000 X128.423 Y70.61
M204 S1800
M205 X8 Y8
G1 F1500 X139.389 Y81.576 E170.0479
M204 S3000
M205 X10 Y10
G0 F3000 X139.389 Y82.368
M204 S1800
M205 X8 Y8
G1 F1500 X127.631 Y70.61 E171.20932
M204 S3000
M205 X10 Y10
G0 F3000 X126.839 Y70.61
M204 S1800
M205 X8 Y8
G1 F1500 X139.389 Y83.16 E172.44898
M204 S3000
M205 X10 Y10
G0 F3000 X139.389 Y83.952
M204 S1800
M205 X8 Y8
G1 F1500 X126.047 Y70.61 E173.76687
M204 S3000
M205 X10 Y10
G0 F3000 X125.255 Y70.61
M204 S1800
M205 X8 Y8
G1 F1500 X139.389 Y84.744 E175.16299
M204 S3000
M205 X10 Y10
G0 F3000 X139.389 Y85.536
M204 S1800
M205 X8 Y8
G1 F1500 X124.463 Y70.61 E176.63735
M204 S3000
M205 X10 Y10
G0 F3000 X123.671 Y70.61
M204 S1800
M205 X8 Y8
G1 F1500 X139.389 Y86.328 E178.18993
M204 S3000
M205 X10 Y10
G0 F3000 X139.389 Y87.12
M204 S1800
M205 X8 Y8
G1 F1500 X122.879 Y70.61 E179.82075
M204 S3000
M205 X10 Y10
G0 F3000 X122.087 Y70.61
M204 S1800
M205 X8 Y8
G1 F1500 X139.389 Y87.912 E181.5298
M204 S3000
M205 X10 Y10
G0 F3000 X139.389 Y88.704
M204 S1800
M205 X8 Y8
G1 F1500 X121.295 Y70.61 E183.31708
M204 S3000
M205 X10 Y10
G0 F3000 X120.503 Y70.61
M204 S1800
M205 X8 Y8
G1 F1500 X139.389 Y89.496 E185.18259
M204 S3000
M205 X10 Y10
G0 F3000 X139.389 Y90.288
M204 S1800
M205 X8 Y8
G1 F1500 X119.711 Y70.61 E187.12634
M204 S3000
M205 X10 Y10
G0 F3000 X118.919 Y70.61
M204 S1800
M205 X8 Y8
G1 F1500 X129.099 Y80.789 E188.13185
M204 S3000
M205 X10 Y10
G0 F3000 X129.409 Y81.099
M204 S1800
M205 X8 Y8
G1 F1500 X139.389 Y91.08 E189.11769
M204 S3000
M205 X10 Y10
G0 F3000 X139.389 Y91.872
M204 S1800
M205 X8 Y8
G1 F1500 X129.409 Y81.891 E190.10354
M204 S3000
M205 X10 Y10
G0 F3000 X129.409 Y82.683
M204 S1800
M205 X8 Y8
G1 F1500 X139.389 Y92.664 E191.08939
M204 S3000
M205 X10 Y10
G0 F3000 X139.389 Y93.456
M204 S1800
M205 X8 Y8
G1 F1500 X129.409 Y83.475 E192.07524
M204 S3000
M205 X10 Y10
G0 F3000 X129.409 Y84.267
M204 S1800
M205 X8 Y8
G1 F1500 X139.389 Y94.248 E193.06109
M204 S3000
M205 X10 Y10
G0 F3000 X139.389 Y95.04
M204 S1800
M205 X8 Y8
G1 F1500 X129.409 Y85.059 E194.04694
M204 S3000
M205 X10 Y10
G0 F3000 X129.409 Y85.851
M204 S1800
M205 X8 Y8
G1 F1500 X139.389 Y95.832 E195.03279
M204 S3000
M205 X10 Y10
G0 F3000 X139.389 Y96.624
M204 S1800
M205 X8 Y8
G1 F1500 X129.409 Y86.643 E196.01864
M204 S3000
M205 X10 Y10
G0 F3000 X129.409 Y87.435
M204 S1800
M205 X8 Y8
G1 F1500 X139.389 Y97.415 E197.00444
M204 S3000
M205 X10 Y10
G0 F3000 X139.389 Y98.207
M204 S1800
M205 X8 Y8
G1 F1500 X129.409 Y88.227 E197.99024
M204 S3000
M205 X10 Y10
G0 F3000 X129.409 Y89.019
M204 S1800
M205 X8 Y8
G1 F1500 X139.389 Y98.999 E198.97604
M204 S3000
M205 X10 Y10
G0 F3000 X139.389 Y99.791
M204 S1800
M205 X8 Y8
G1 F1500 X129.409 Y89.811 E199.96184
M204 S3000
M205 X10 Y10
G0 F3000 X129.409 Y90.603
M204 S1800
M205 X8 Y8
G1 F1500 X139.389 Y100.583 E200.94764
M204 S3000
M205 X10 Y10
G0 F3000 X139.389 Y101.375
M204 S1800
M205 X8 Y8
G1 F1500 X129.409 Y91.394 E201.93349
M204 S3000
M205 X10 Y10
G0 F3000 X129.409 Y92.186
M204 S1800
M205 X8 Y8
G1 F1500 X139.389 Y102.167 E202.91934
M204 S3000
M205 X10 Y10
G0 F3000 X139.389 Y102.959
M204 S1800
M205 X8 Y8
G1 F1500 X129.409 Y92.978 E203.90519
M204 S3000
M205 X10 Y10
G0 F3000 X129.409 Y93.77
M204 S1800
M205 X8 Y8
G1 F1500 X139.389 Y103.751 E204.89104
M204 S3000
M205 X10 Y10
G0 F3000 X139.389 Y104.543
M204 S1800
M205 X8 Y8
G1 F1500 X129.409 Y94.562 E205.87689
M204 S3000
M205 X10 Y10
G0 F3000 X129.264 Y95.209
M204 S1800
M205 X8 Y8
G1 F1500 X139.389 Y105.335 E206.87706
M204 S3000
M205 X10 Y10
G0 F3000 X139.389 Y106.127
M204 S1800
M205 X8 Y8
G1 F1500 X128.472 Y95.209 E207.95546
M204 S3000
M205 X10 Y10
G0 F3000 X127.68 Y95.209
M204 S1800
M205 X8 Y8
G1 F1500 X139.389 Y106.919 E209.1121
M204 S3000
M205 X10 Y10
G0 F3000 X139.389 Y107.711
M204 S1800
M205 X8 Y8
G1 F1500 X126.888 Y95.209 E210.34697
M204 S3000
M205 X10 Y10
G0 F3000 X126.096 Y95.209
M204 S1800
M205 X8 Y8
G1 F1500 X139.389 Y108.503 E211.66007
M204 S3000
M205 X10 Y10
G0 F3000 X139.389 Y109.295
M204 S1800
M205 X8 Y8
G1 F1500 X125.304 Y95.209 E213.0514
M204 S3000
M205 X10 Y10
G0 F3000 X124.512 Y95.209
M204 S1800
M205 X8 Y8
G1 F1500 X139.389 Y110.087 E214.52096
M204 S3000
M205 X10 Y10
G0 F3000 X139.389 Y110.879
M204 S1800
M205 X8 Y8
G1 F1500 X123.72 Y95.209 E216.06876
M204 S3000
M205 X10 Y10
G0 F3000 X122.928 Y95.209
M204 S1800
M205 X8 Y8
G1 F1500 X139.389 Y111.671 E217.69478
M204 S3000
M205 X10 Y10
G0 F3000 X139.389 Y112.463
M204 S1800
M205 X8 Y8
G1 F1500 X122.136 Y95.209 E219.39904
M204 S3000
M205 X10 Y10
G0 F3000 X121.344 Y95.209
M204 S1800
M205 X8 Y8
G1 F1500 X139.389 Y113.255 E221.18153
M204 S3000
M205 X10 Y10
G0 F3000 X139.389 Y114.047
M204 S1800
M205 X8 Y8
G1 F1500 X120.552 Y95.209 E223.04226
M204 S3000
M205 X10 Y10
G0 F3000 X119.76 Y95.209
M204 S1800
M205 X8 Y8
G1 F1500 X139.389 Y114.839 E224.98121
M204 S3000
M205 X10 Y10
G0 F3000 X139.389 Y115.631
M204 S1800
M205 X8 Y8
G1 F1500 X118.968 Y95.209 E226.9984
M204 S3000
M205 X10 Y10
G0 F3000 X118.176 Y95.209
M204 S1800
M205 X8 Y8
G1 F1500 X139.389 Y116.423 E229.09381
M204 S3000
M205 X10 Y10
G0 F3000 X139.389 Y117.214
M204 S1800
M205 X8 Y8
G1 F1500 X117.384 Y95.209 E231.26741
M204 S3000
M205 X10 Y10
G0 F3000 X116.592 Y95.209
M204 S1800
M205 X8 Y8
G1 F1500 X139.389 Y118.006 E233.51925
M204 S3000
M205 X10 Y10
G0 F3000 X139.389 Y118.798
M204 S1800
M205 X8 Y8
G1 F1500 X115.8 Y95.209 E235.84931
M204 S3000
M205 X10 Y10
G0 F3000 X115.008 Y95.209
M204 S1800
M205 X8 Y8
G1 F1500 X139.389 Y119.59 E238.25761
M204 S3000
M205 X10 Y10
G0 F3000 X139.389 Y120.382
M204 S1800
M205 X8 Y8
