;FLAVOR:Marlin
;TIME:7502
;Filament used: 11.2347m
;Layer height: 0.3
;MINX:64.882
;MINY:62
;MINZ:0.3
;MAXX:150.882
;MAXY:148
;MAXZ:21.3
;Generated with Cura_SteamEngine 4.4.1
M82 ;absolute extrusion mode
G21 ;metric values
G90 ;absolute positioning
M82 ;set extruder to absolute mode
M107 ;start with the fan off

M104 S200 T0 ; start heating T0 to what is set in Cura
M140 S60 ; start heating the bed to what is set in Cura
M190 S60 ; start heating the bed to what is set in Cura
M109 S200 T0 ; start heating T0 to what is set in Cura

G28 X0 Y0 ;move X/Y to min endstops
G28 Z0 ;move Z to min endstops
G1 Z15.0 F2400 ;move the platform down 15mm
G92 E0 ;zero the extruded length
G1 F200 E3 ;extrude 3mm of feed stock
G92 E0 ;zero the extruded length again
G1 F2400
G0 Y20 F2400
M117 Printing...
G5
G92 E0
G92 E0
G1 F2400 E-6
;LAYER_COUNT:71
;LAYER:0
M106 S255
M204 S3000
M205 X10 Y10
G1 F600 Z0.375
G0 F3000 X66.815 Y63.835 Z0.375
M204 S1800
M205 X8 Y8
;TYPE:SKIRT
G1 F600 Z0.3
G1 F2400 E0
G1 X67.353 Y63.364 E0.04994
G1 X67.941 Y62.956 E0.09993
G1 X68.57 Y62.616 E0.14987
G1 X69.234 Y62.349 E0.19986
G1 X69.923 Y62.157 E0.24982
G1 X70.629 Y62.043 E0.29977
G1 X71.112 Y62.012 E0.33357
G1 X71.433 Y62.003 E0.356
G1 X71.612 Y62 E0.36851
G1 X143.775 Y62 E5.40882
G1 X143.867 Y62.001 E5.41525
G1 X144.565 Y62.011 E5.46401
G1 X145.278 Y62.061 E5.51393
G1 X145.982 Y62.19 E5.56392
G1 X146.666 Y62.398 E5.61386
G1 X147.323 Y62.68 E5.66379
G1 X147.945 Y63.034 E5.71378
G1 X148.523 Y63.455 E5.76373
G1 X149.051 Y63.938 E5.81371
G1 X149.521 Y64.476 E5.8636
G1 X149.929 Y65.064 E5.91359
G1 X150.268 Y65.694 E5.96356
G1 X150.535 Y66.357 E6.01348
G1 X150.726 Y67.047 E6.06349
G1 X150.839 Y67.753 E6.11343
G1 X150.87 Y68.23 E6.14682
G1 X150.879 Y68.55 E6.16918
G1 X150.882 Y68.73 E6.18175
G1 X150.882 Y140.943 E11.22556
G1 X150.873 Y141.67 E11.27634
G1 X150.824 Y142.384 E11.32633
G1 X150.696 Y143.088 E11.37631
G1 X150.49 Y143.773 E11.42627
G1 X150.209 Y144.43 E11.47618
G1 X149.856 Y145.053 E11.52619
G1 X149.436 Y145.632 E11.57615
G1 X148.954 Y146.16 E11.62609
G1 X148.417 Y146.632 E11.67602
G1 X147.829 Y147.04 E11.72601
G1 X147.2 Y147.381 E11.77599
G1 X146.537 Y147.649 E11.82593
G1 X145.848 Y147.841 E11.87589
G1 X145.142 Y147.956 E11.92585
G1 X144.652 Y147.988 E11.96015
G1 X144.331 Y147.997 E11.98258
G1 X144.152 Y148 E11.99508
G1 X71.989 Y148 E17.0354
G1 X71.906 Y147.999 E17.0412
G1 X71.208 Y147.99 E17.08996
G1 X70.495 Y147.941 E17.13987
G1 X69.791 Y147.813 E17.18985
G1 X69.106 Y147.607 E17.23981
G1 X68.449 Y147.325 E17.28975
G1 X67.827 Y146.972 E17.3397
G1 X67.248 Y146.552 E17.38966
G1 X66.719 Y146.07 E17.43965
G1 X66.248 Y145.532 E17.48959
G1 X65.84 Y144.945 E17.53952
G1 X65.5 Y144.315 E17.58953
G1 X65.232 Y143.652 E17.63947
G1 X65.04 Y142.963 E17.68943
G1 X64.926 Y142.257 E17.73938
G1 X64.893 Y141.764 E17.77389
G1 X64.884 Y141.431 E17.79716
G1 X64.882 Y141.258 E17.80925
G1 X64.882 Y69.074 E22.85103
G1 X64.883 Y68.987 E22.85711
G1 X64.892 Y68.322 E22.90356
G1 X64.941 Y67.609 E22.95348
G1 X65.07 Y66.905 E23.00347
G1 X65.277 Y66.221 E23.05338
G1 X65.559 Y65.563 E23.10338
G1 X65.912 Y64.941 E23.15334
G1 X66.332 Y64.363 E23.20324
G1 X66.815 Y63.835 E23.25322
M204 S3000
M205 X10 Y10
G0 F3000 X67.362 Y64.088
M204 S1800
M205 X8 Y8
G1 F2400 X67.894 Y63.659 E23.30096
G1 X68.472 Y63.294 E23.3487
G1 X69.089 Y63 E23.39644
G1 X69.735 Y62.78 E23.44411
G1 X70.403 Y62.637 E23.49182
G1 X71.127 Y62.571 E23.5426
G1 X71.448 Y62.562 E23.56503
G1 X71.612 Y62.56 E23.57648
G1 X143.775 Y62.56 E28.6168
G1 X143.859 Y62.561 E28.62267
G1 X144.557 Y62.571 E28.67143
G1 X145.238 Y62.62 E28.71912
G1 X145.909 Y62.749 E28.76684
G1 X146.56 Y62.956 E28.81455
G1 X147.183 Y63.237 E28.86229
G1 X147.769 Y63.589 E28.91004
G1 X148.309 Y64.007 E28.95773
G1 X148.797 Y64.485 E29.00544
G1 X149.226 Y65.017 E29.05318
G1 X149.59 Y65.595 E29.10089
G1 X149.884 Y66.212 E29.14863
G1 X150.103 Y66.859 E29.19634
G1 X150.246 Y67.527 E29.24405
G1 X150.311 Y68.246 E29.29447
G1 X150.32 Y68.566 E29.31683
G1 X150.322 Y68.73 E29.32829
G1 X150.322 Y140.936 E34.37161
G1 X150.313 Y141.663 E34.42239
G1 X150.264 Y142.345 E34.47015
G1 X150.136 Y143.016 E34.51786
G1 X149.931 Y143.668 E34.5656
G1 X149.651 Y144.291 E34.61331
G1 X149.301 Y144.877 E34.66098
G1 X148.884 Y145.419 E34.70875
G1 X148.407 Y145.908 E34.75646
G1 X147.876 Y146.337 E34.80414
G1 X147.298 Y146.702 E34.85189
G1 X146.682 Y146.997 E34.89959
G1 X146.035 Y147.218 E34.94734
G1 X145.367 Y147.362 E34.99507
G1 X144.637 Y147.429 E35.04628
G1 X144.316 Y147.438 E35.06871
G1 X144.152 Y147.44 E35.08016
G1 X71.914 Y147.44 E40.12572
G1 X71.216 Y147.431 E40.17447
G1 X70.534 Y147.382 E40.22223
G1 X69.863 Y147.254 E40.26994
G1 X69.212 Y147.048 E40.31764
G1 X68.588 Y146.768 E40.36541
G1 X68.002 Y146.417 E40.41312
G1 X67.461 Y146 E40.46083
G1 X66.972 Y145.522 E40.50859
G1 X66.543 Y144.991 E40.55627
G1 X66.178 Y144.413 E40.60402
G1 X65.884 Y143.797 E40.65169
G1 X65.663 Y143.15 E40.69944
G1 X65.519 Y142.482 E40.74717
G1 X65.453 Y141.749 E40.79858
G1 X65.444 Y141.416 E40.82184
G1 X65.442 Y141.258 E40.83288
G1 X65.442 Y69.074 E45.87467
G1 X65.443 Y68.995 E45.88018
G1 X65.452 Y68.33 E45.92664
G1 X65.501 Y67.649 E45.97432
G1 X65.629 Y66.977 E46.0221
G1 X65.835 Y66.326 E46.0698
G1 X66.116 Y65.703 E46.11753
G1 X66.467 Y65.117 E46.16524
G1 X66.885 Y64.576 E46.21299
G1 X67.362 Y64.088 E46.26066
M204 S3000
M205 X10 Y10
G0 F3000 X67.436 Y64.801
M204 S1800
M205 X8 Y8
G1 F2400 X67.908 Y64.355 E46.30602
G1 X68.431 Y63.971 E46.35133
G1 X68.998 Y63.653 E46.39674
G1 X69.599 Y63.407 E46.4421
G1 X70.226 Y63.237 E46.48747
G1 X71.143 Y63.131 E46.55195
G1 X71.464 Y63.122 E46.57438
G1 X71.612 Y63.12 E46.58472
G1 X143.775 Y63.12 E51.62503
G1 X143.851 Y63.121 E51.63034
G1 X144.549 Y63.131 E51.6791
G1 X145.196 Y63.18 E51.72442
G1 X145.833 Y63.308 E51.7698
G1 X146.449 Y63.514 E51.81517
G1 X147.036 Y63.794 E51.86059
G1 X147.583 Y64.143 E51.90591
G1 X148.084 Y64.557 E51.95131
G1 X148.529 Y65.03 E51.99667
G1 X148.914 Y65.554 E52.04208
G1 X149.231 Y66.121 E52.08746
G1 X149.476 Y66.722 E52.13279
G1 X149.645 Y67.349 E52.17814
G1 X149.751 Y68.262 E52.24234
G1 X149.76 Y68.582 E52.2647
G1 X149.762 Y68.73 E52.27504
G1 X149.762 Y140.929 E57.31787
G1 X149.753 Y141.656 E57.36865
G1 X149.705 Y142.304 E57.41404
G1 X149.577 Y142.941 E57.45942
G1 X149.373 Y143.558 E57.50481
G1 X149.094 Y144.145 E57.55021
G1 X148.746 Y144.693 E57.59555
G1 X148.333 Y145.194 E57.6409
G1 X147.861 Y145.641 E57.6863
G1 X147.338 Y146.026 E57.73166
G1 X146.772 Y146.344 E57.77701
G1 X146.17 Y146.591 E57.82246
G1 X145.544 Y146.761 E57.86776
G1 X144.621 Y146.869 E57.93267
G1 X144.3 Y146.878 E57.9551
G1 X144.152 Y146.88 E57.96544
G1 X71.921 Y146.88 E63.01051
G1 X71.223 Y146.871 E63.05926
G1 X70.575 Y146.822 E63.10465
G1 X69.938 Y146.695 E63.15002
G1 X69.322 Y146.49 E63.19537
G1 X68.735 Y146.211 E63.24076
G1 X68.187 Y145.862 E63.28614
G1 X67.686 Y145.449 E63.33149
G1 X67.239 Y144.977 E63.37689
G1 X66.854 Y144.454 E63.42225
G1 X66.536 Y143.887 E63.46766
G1 X66.29 Y143.286 E63.51302
G1 X66.12 Y142.659 E63.55839
G1 X66.013 Y141.734 E63.62343
G1 X66.004 Y141.401 E63.6467
G1 X66.002 Y141.258 E63.65669
G1 X66.002 Y69.003 E68.70343
G1 X66.011 Y68.338 E68.74988
G1 X66.06 Y67.69 E68.79527
G1 X66.188 Y67.053 E68.84065
G1 X66.393 Y66.436 E68.88607
G1 X66.673 Y65.85 E68.93143
G1 X67.022 Y65.302 E68.97681
G1 X67.436 Y64.801 E69.0222
M204 S3000
M205 X10 Y10
G1 F2400 E63.0222
;MESH:rgb_cube_case_v11.stl
G0 F3000 X70.617 Y69.254
G0 X72.136 Y69.254
G0 X118.102 Y94.55
M204 S1800
M205 X8 Y8
;TYPE:WALL-INNER
G1 F2400 E69.0222
G1 F1500 X131.902 Y94.55 E69.98608
G1 X131.902 Y81.45 E70.90107
G1 X118.102 Y81.45 E71.86495
G1 X118.102 Y94.55 E72.77993
M204 S3000
M205 X10 Y10
G0 F3000 X72.682 Y140.2
M204 S1800
M205 X8 Y8
G1 F1500 X72.682 Y69.8 E77.69711
G1 X143.082 Y69.8 E82.61429
G1 X143.082 Y140.2 E87.53147
G1 X72.682 Y140.2 E92.44865
M204 S3000
M205 X10 Y10
G0 F3000 X72.122 Y140.76
M204 S1800
M205 X8 Y8
G1 F1500 X72.122 Y69.24 E97.44405
G1 X143.642 Y69.24 E102.43946
G1 X143.642 Y140.76 E107.43486
G1 X72.122 Y140.76 E112.43027
M204 S3000
M205 X10 Y10
G0 F3000 X72.192 Y140.69
G0 X118.592 Y94.06
G0 X118.662 Y93.99
M204 S1800
M205 X8 Y8
G1 F1500 X131.342 Y93.99 E113.31592
G1 X131.342 Y82.01 E114.15268
G1 X118.662 Y82.01 E115.03833
G1 X118.662 Y93.99 E115.87509
M204 S3000
M205 X10 Y10
G0 F3000 X119.222 Y93.43
M204 S1800
M205 X8 Y8
;TYPE:WALL-OUTER
G1 F1500 X130.782 Y93.43 E116.68251
G1 X130.782 Y82.57 E117.44104
G1 X119.222 Y82.57 E118.24847
G1 X119.222 Y93.43 E119.007
M204 S3000
M205 X10 Y10
G0 F3000 X119.422 Y93.43
G0 X119.422 Y94.09
G0 X72.192 Y140.69
G0 X71.562 Y141.32
M204 S1800
M205 X8 Y8
G1 F1500 X71.562 Y68.68 E124.08063
G1 X144.202 Y68.68 E129.15426
G1 X144.202 Y141.32 E134.2279
G1 X71.562 Y141.32 E139.30153
M204 S3000
M205 X10 Y10
G0 F3000 X71.562 Y141.12
G0 X72.192 Y140.69
G0 X73.232 Y139.65
M204 S1800
M205 X8 Y8
;TYPE:SKIN
G1 F1500 X73.232 Y70.35 E144.14188
G1 X142.532 Y70.35 E148.98223
G1 X142.532 Y139.65 E153.82258
G1 X73.232 Y139.65 E158.66292
M204 S3000
M205 X10 Y10
G0 F3000 X117.552 Y95.1
M204 S1800
M205 X8 Y8
G1 F1500 X132.452 Y95.1 E159.70363
G1 X132.452 Y80.9 E160.69545
G1 X117.552 Y80.9 E161.73616
G1 X117.552 Y95.1 E162.72798
M204 S3000
M205 X10 Y10
G0 F3000 X118.634 Y81.982
G0 X142.271 Y70.994
M204 S1800
M205 X8 Y8
G1 F1500 X141.886 Y70.61 E162.76596
M204 S3000
M205 X10 Y10
G0 F3000 X141.094 Y70.61
M204 S1800
M205 X8 Y8
G1 F1500 X142.271 Y71.786 E162.88217
M204 S3000
M205 X10 Y10
G0 F3000 X142.271 Y72.578
M204 S1800
M205 X8 Y8
G1 F1500 X140.302 Y70.61 E163.07661
M204 S3000
M205 X10 Y10
G0 F3000 X139.51 Y70.61
M204 S1800
M205 X8 Y8
G1 F1500 X142.271 Y73.37 E163.34929
M204 S3000
M205 X10 Y10
G0 F3000 X142.271 Y74.162
M204 S1800
M205 X8 Y8
G1 F1500 X138.718 Y70.61 E163.70019
M204 S3000
M205 X10 Y10
G0 F3000 X137.926 Y70.61
M204 S1800
M205 X8 Y8
G1 F1500 X142.271 Y74.954 E164.12933
M204 S3000
M205 X10 Y10
G0 F3000 X142.271 Y75.746
M204 S1800
M205 X8 Y8
G1 F1500 X137.134 Y70.61 E164.6367
M204 S3000
M205 X10 Y10
G0 F3000 X136.342 Y70.61
M204 S1800
M205 X8 Y8
G1 F1500 X142.271 Y76.538 E165.22231
M204 S3000
M205 X10 Y10
G0 F3000 X142.271 Y77.33
M204 S1800
M205 X8 Y8
G1 F1500 X135.55 Y70.61 E165.88614
M204 S3000
M205 X10 Y10
G0 F3000 X134.758 Y70.61
M204 S1800
M205 X8 Y8
G1 F1500 X142.271 Y78.122 E166.62821
M204 S3000
M205 X10 Y10
G0 F3000 X142.271 Y78.914
M204 S1800
M205 X8 Y8
G1 F1500 X133.967 Y70.61 E167.44846
M204 S3000
M205 X10 Y10
G0 F3000 X133.175 Y70.61
M204 S1800
M205 X8 Y8
G1 F1500 X142.271 Y79.706 E168.34694
M204 S3000
M205 X10 Y10
G0 F3000 X142.271 Y80.498
M204 S1800
M205 X8 Y8
G1 F1500 X132.383 Y70.61 E169.32365
M204 S3000
M205 X10 Y10
G0 F3000 X131.591 Y70.61
M204 S1800
M205 X8 Y8
G1 F1500 X142.271 Y81.29 E170.37859
M204 S3000
M205 X10 Y10
G0 F3000 X142.271 Y82.082
M204 S1800
M205 X8 Y8
G1 F1500 X130.799 Y70.61 E171.51177
M204 S3000
M205 X10 Y10
G0 F3000 X130.007 Y70.61
M204 S1800
M205 X8 Y8
G1 F1500 X142.271 Y82.874 E172.72318
M204 S3000
M205 X10 Y10
G0 F3000 X142.271 Y83.666
M204 S1800
M205 X8 Y8
G1 F1500 X129.215 Y70.61 E174.01282
M204 S3000
M205 X10 Y10
G0 F3000 X128.423 Y70.61
M204 S1800
M205 X8 Y8
G1 F1500 X142.271 Y84.458 E175.38069
M204 S3000
M205 X10 Y10
G0 F3000 X142.271 Y85.25
M204 S1800
M205 X8 Y8
G1 F1500 X127.631 Y70.61 E176.82679
M204 S3000
M205 X10 Y10
G0 F3000 X126.839 Y70.61
M204 S1800
M205 X8 Y8
G1 F1500 X142.271 Y86.042 E178.35113
M204 S3000
M205 X10 Y10
G0 F3000 X142.271 Y86.834
M204 S1800
M205 X8 Y8
G1 F1500 X126.047 Y70.61 E179.9537
M204 S3000
M205 X10 Y10
G0 F3000 X125.255 Y70.61
M204 S1800
M205 X8 Y8
G1 F1500 X142.271 Y87.626 E181.6345
M204 S3000
M205 X10 Y10
G0 F3000 X142.271 Y88.418
M204 S1800
M205 X8 Y8
G1 F1500 X124.463 Y70.61 E183.39353
M204 S3000
M205 X10 Y10
G0 F3000 X123.671 Y70.61
M204 S1800
M205 X8 Y8
G1 F1500 X142.271 Y89.21 E185.23079
M204 S3000
M205 X10 Y10
G0 F3000 X142.271 Y90.001
M204 S1800
M205 X8 Y8
G1 F1500 X122.879 Y70.61 E187.14623
M204 S3000
M205 X10 Y10
G0 F3000 X122.087 Y70.61
M204 S1800
M205 X8 Y8
G1 F1500 X132.117 Y80.639 E188.13692
M204 S3000
M205 X10 Y10
G0 F3000 X131.325 Y80.639
M204 S1800
M205 X8 Y8
G1 F1500 X121.295 Y70.61 E189.12761
M204 S3000
M205 X10 Y10
G0 F3000 X120.503 Y70.61
M204 S1800
M205 X8 Y8
G1 F1500 X130.533 Y80.639 E190.1183
M204 S3000
M205 X10 Y10
G0 F3000 X129.741 Y80.639
M204 S1800
M205 X8 Y8
G1 F1500 X119.711 Y70.61 E191.10899
M204 S3000
M205 X10 Y10
G0 F3000 X118.919 Y70.61
M204 S1800
M205 X8 Y8
G1 F1500 X128.949 Y80.639 E192.09968
M204 S3000
M205 X10 Y10
G0 F3000 X128.157 Y80.639
M204 S1800
M205 X8 Y8
G1 F1500 X118.127 Y70.61 E193.09037
M204 S3000
M205 X10 Y10
G0 F3000 X117.335 Y70.61
M204 S1800
M205 X8 Y8
G1 F1500 X127.365 Y80.639 E194.08106
M204 S3000
M205 X10 Y10
G0 F3000 X126.573 Y80.639
M204 S1800
M205 X8 Y8
G1 F1500 X116.543 Y70.61 E195.07175
M204 S3000
M205 X10 Y10
G0 F3000 X115.751 Y70.61
M204 S1800
M205 X8 Y8
G1 F1500 X125.781 Y80.639 E196.06244
M204 S3000
M205 X10 Y10
G0 F3000 X124.989 Y80.639
M204 S1800
M205 X8 Y8
G1 F1500 X114.96 Y70.61 E197.05308
M204 S3000
M205 X10 Y10
G0 F3000 X114.168 Y70.61
M204 S1800
M205 X8 Y8
G1 F1500 X124.197 Y80.639 E198.04372
M204 S3000
M205 X10 Y10
G0 F3000 X123.405 Y80.639
M204 S1800
M205 X8 Y8
G1 F1500 X113.376 Y70.61 E199.03436
M204 S3000
M205 X10 Y10
G0 F3000 X112.584 Y70.61
M204 S1800
M205 X8 Y8
G1 F1500 X122.613 Y80.639 E200.025
M204 S3000
M205 X10 Y10
G0 F3000 X121.821 Y80.639
M204 S1800
M205 X8 Y8
G1 F1500 X111.792 Y70.61 E201.01564
M204 S3000
M205 X10 Y10
G0 F3000 X111 Y70.61
M204 S1800
M205 X8 Y8
G1 F1500 X121.029 Y80.639 E202.00628
M204 S3000
M205 X10 Y10
G0 F3000 X120.237 Y80.639
M204 S1800
M205 X8 Y8
G1 F1500 X110.208 Y70.61 E202.99692
M204 S3000
M205 X10 Y10
G0 F3000 X109.416 Y70.61
M204 S1800
M205 X8 Y8
G1 F1500 X119.445 Y80.639 E203.98756
M204 S3000
M205 X10 Y10
G0 F3000 X118.653 Y80.639
M204 S1800
M205 X8 Y8
G1 F1500 X108.624 Y70.61 E204.9782
M204 S3000
M205 X10 Y10
G0 F3000 X107.832 Y70.61
M204 S1800
M205 X8 Y8
G1 F1500 X117.861 Y80.639 E205.96884
M204 S3000
M205 X10 Y10
G0 F3000 X117.291 Y80.861
M204 S1800
M205 X8 Y8
G1 F1500 X107.04 Y70.61 E206.98141
M204 S3000
M205 X10 Y10
G0 F3000 X106.248 Y70.61
M204 S1800
M205 X8 Y8
G1 F1500 X117.291 Y81.653 E208.07221
M204 S3000
M205 X10 Y10
G0 F3000 X117.291 Y82.445
M204 S1800
M205 X8 Y8
G1 F1500 X105.456 Y70.61 E209.24124
M204 S3000
M205 X10 Y10
G0 F3000 X104.664 Y70.61
M204 S1800
M205 X8 Y8
G1 F1500 X117.291 Y83.237 E210.48851
M204 S3000
M205 X10 Y10
G0 F3000 X117.291 Y84.029
M204 S1800
M205 X8 Y8
G1 F1500 X103.872 Y70.61 E211.814
M204 S3000
M205 X10 Y10
G0 F3000 X103.08 Y70.61
M204 S1800
M205 X8 Y8
G1 F1500 X117.291 Y84.82 E213.21768
M204 S3000
M205 X10 Y10
G0 F3000 X117.291 Y85.612
M204 S1800
M205 X8 Y8
G1 F1500 X102.288 Y70.61 E214.69959
M204 S3000
M205 X10 Y10
G0 F3000 X101.496 Y70.61
M204 S1800
M205 X8 Y8
G1 F1500 X117.291 Y86.404 E216.25973
M204 S3000
M205 X10 Y10
G0 F3000 X117.291 Y87.196
M204 S1800
M205 X8 Y8
G1 F1500 X100.704 Y70.61 E217.89811
M204 S3000
M205 X10 Y10
G0 F3000 X99.912 Y70.61
M204 S1800
M205 X8 Y8
G1 F1500 X117.291 Y87.988 E219.61471
M204 S3000
M205 X10 Y10
G0 F3000 X117.291 Y88.78
M204 S1800
M205 X8 Y8
G1 F1500 X99.12 Y70.61 E221.40955
M204 S3000
M205 X10 Y10
G0 F3000 X98.328 Y70.61
M204 S1800
M205 X8 Y8
G1 F1500 X117.291 Y89.572 E223.28262
M204 S3000
M205 X10 Y10
G0 F3000 X117.291 Y90.364
M204 S1800
M205 X8 Y8
G1 F1500 X97.536 Y70.61 E225.23392
M204 S3000
M205 X10 Y10
G0 F3000 X96.744 Y70.61
M204 S1800
M205 X8 Y8
G1 F1500 X117.291 Y91.156 E227.26346
M204 S3000
M205 X10 Y10
G0 F3000 X117.291 Y91.948
M204 S1800
M205 X8 Y8
G1 F1500 X95.952 Y70.61 E229.37122
M204 S3000
M205 X10 Y10
G0 F3000 X95.161 Y70.61
M204 S1800
M205 X8 Y8
G1 F1500 X117.291 Y92.74 E231.55717
M204 S3000
M205 X10 Y10
G0 F3000 X117.291 Y93.532
M204 S1800
M205 X8 Y8
G1 F1500 X94.369 Y70.61 E233.82135
M204 S3000
M205 X10 Y10
G0 F3000 X93.577 Y70.61
M204 S1800
M205 X8 Y8
G1 F1500 X117.291 Y94.324 E236.16376
M204 S3000
M205 X10 Y10
G0 F3000 X117.291 Y95.116
M204 S1800
M205 X8 Y8
G1 F1500 X92.785 Y70.61 E238.5844
M204 S3000
M205 X10 Y10
G0 F3000 X91.993 Y70.61
