;FLAVOR:Marlin
;TIME:13117
;Filament used: 20.2535m
;Layer height: 0.3
;MINX:32.694
;MINY:74.825
;MINZ:0.3
;MAXX:191.114
;MAXY:160.835
;MAXZ:73.8
;Generated with Cura_SteamEngine 4.4.1
M82 ;absolute extrusion mode
G21 ;metric values
G90 ;absolute positioning
M82 ;set extruder to absolute mode
M107 ;start with the fan off

M104 S200 T0 ; start heating T0 to what is set in Cura
M140 S60 ; start heating the bed to what is set in Cura
M190 S60 ; start heating the bed to what is set in Cura
M109 S200 T0 ; start heating T0 to what is set in Cura

G28 X0 Y0 ;move X/Y to min endstops
G28 Z0 ;move Z to min endstops
G1 Z15.0 F2400 ;move the platform down 15mm
G92 E0 ;zero the extruded length
G1 F200 E3 ;extrude 3mm of feed stock
G92 E0 ;zero the extruded length again
G1 F2400
G0 Y20 F2400
M117 Printing...
G5
G92 E0
G92 E0
G1 F2400 E-6
;LAYER_COUNT:246
;LAYER:0
M106 S255
M204 S3000
M205 X10 Y10
G1 F600 Z0.375
G0 F3000 X36.383 Y75.62 Z0.375
M204 S1800
M205 X8 Y8
;TYPE:SKIRT
G1 F600 Z0.3
G1 F2400 E0
G1 X37.046 Y75.353 E0.04992
G1 X37.735 Y75.161 E0.09988
G1 X38.441 Y75.047 E0.14983
G1 X38.924 Y75.016 E0.18364
G1 X39.245 Y75.007 E0.20606
G1 X39.424 Y75.004 E0.21857
G1 X105.669 Y75.004 E4.84554
G1 X108.339 Y74.966 E5.03204
G1 X111.566 Y74.831 E5.25764
G1 X111.834 Y74.825 E5.27636
G1 X184.007 Y74.825 E10.31737
G1 X184.099 Y74.826 E10.3238
G1 X184.797 Y74.836 E10.37256
G1 X185.51 Y74.886 E10.42248
G1 X186.214 Y75.015 E10.47247
G1 X186.898 Y75.223 E10.52241
G1 X187.555 Y75.505 E10.57234
G1 X188.177 Y75.859 E10.62233
G1 X188.755 Y76.28 E10.67228
G1 X189.283 Y76.763 E10.72226
G1 X189.753 Y77.301 E10.77216
G1 X190.161 Y77.889 E10.82214
G1 X190.5 Y78.519 E10.87211
G1 X190.767 Y79.182 E10.92204
G1 X190.958 Y79.872 E10.97204
G1 X191.071 Y80.578 E11.02198
G1 X191.102 Y81.055 E11.05537
G1 X191.111 Y81.375 E11.07773
G1 X191.114 Y81.555 E11.0903
G1 X191.114 Y153.778 E16.13481
G1 X191.105 Y154.505 E16.18559
G1 X191.056 Y155.219 E16.23558
G1 X190.928 Y155.923 E16.28556
G1 X190.722 Y156.608 E16.33552
G1 X190.441 Y157.265 E16.38543
G1 X190.088 Y157.888 E16.43544
G1 X189.668 Y158.467 E16.4854
G1 X189.186 Y158.995 E16.53534
G1 X188.649 Y159.467 E16.58527
G1 X188.061 Y159.875 E16.63526
G1 X187.432 Y160.216 E16.68524
G1 X186.769 Y160.484 E16.73518
G1 X186.08 Y160.676 E16.78514
G1 X185.374 Y160.791 E16.8351
G1 X184.884 Y160.823 E16.8694
G1 X184.563 Y160.832 E16.89183
G1 X184.384 Y160.835 E16.90433
G1 X112.211 Y160.835 E21.94535
G1 X112.119 Y160.834 E21.95178
G1 X111.42 Y160.824 E22.0006
G1 X110.707 Y160.774 E22.05053
G1 X110.003 Y160.645 E22.10052
G1 X109.464 Y160.514 E22.13926
G1 X106.826 Y159.907 E22.32833
G1 X104.216 Y159.38 E22.51431
G1 X101.624 Y158.937 E22.69797
G1 X99.011 Y158.565 E22.88232
G1 X96.379 Y158.265 E23.06735
G1 X93.75 Y158.041 E23.25164
G1 X91.071 Y157.889 E23.43906
G1 X88.454 Y157.814 E23.62192
G1 X87.06 Y157.804 E23.71929
G1 X39.801 Y157.804 E27.02016
G1 X39.709 Y157.803 E27.02658
G1 X39.011 Y157.793 E27.07534
G1 X38.298 Y157.743 E27.12526
G1 X37.594 Y157.614 E27.17525
G1 X36.91 Y157.406 E27.22519
G1 X36.253 Y157.124 E27.27513
G1 X35.631 Y156.77 E27.32511
G1 X35.053 Y156.349 E27.37506
G1 X34.525 Y155.866 E27.42504
G1 X34.055 Y155.328 E27.47494
G1 X33.647 Y154.74 E27.52492
G1 X33.308 Y154.11 E27.57489
G1 X33.041 Y153.447 E27.62482
G1 X32.85 Y152.757 E27.67482
G1 X32.737 Y152.051 E27.72476
G1 X32.705 Y151.567 E27.75864
G1 X32.696 Y151.235 E27.78184
G1 X32.694 Y151.062 E27.79392
G1 X32.694 Y82.076 E32.61234
G1 X32.695 Y81.989 E32.61841
G1 X32.704 Y81.326 E32.66473
G1 X32.753 Y80.613 E32.71465
G1 X32.882 Y79.909 E32.76464
G1 X33.089 Y79.224 E32.81462
G1 X33.371 Y78.567 E32.86455
G1 X33.724 Y77.945 E32.91451
G1 X34.145 Y77.366 E32.96451
G1 X34.627 Y76.838 E33.01444
G1 X35.166 Y76.368 E33.06439
G1 X35.753 Y75.96 E33.11432
G1 X36.383 Y75.62 E33.16433
M204 S3000
M205 X10 Y10
G0 F3000 X36.901 Y76.004
M204 S1800
M205 X8 Y8
G1 F2400 X37.548 Y75.784 E33.21206
G1 X38.216 Y75.641 E33.25977
G1 X38.939 Y75.575 E33.31048
G1 X39.26 Y75.566 E33.33291
G1 X39.424 Y75.564 E33.34437
G1 X105.677 Y75.564 E37.97189
G1 X108.334 Y75.526 E38.15749
G1 X111.589 Y75.39 E38.38504
G1 X111.834 Y75.385 E38.40216
G1 X184.007 Y75.385 E43.44317
G1 X184.091 Y75.386 E43.44904
G1 X184.789 Y75.396 E43.4978
G1 X185.47 Y75.445 E43.54549
G1 X186.141 Y75.574 E43.59321
G1 X186.792 Y75.781 E43.64092
G1 X187.415 Y76.062 E43.68866
G1 X188.001 Y76.414 E43.73641
G1 X188.541 Y76.832 E43.7841
G1 X189.029 Y77.31 E43.83182
G1 X189.458 Y77.842 E43.87955
G1 X189.822 Y78.42 E43.92726
G1 X190.116 Y79.037 E43.975
G1 X190.335 Y79.684 E44.02271
G1 X190.478 Y80.352 E44.07042
G1 X190.543 Y81.071 E44.12084
G1 X190.552 Y81.391 E44.1432
G1 X190.554 Y81.555 E44.15466
G1 X190.554 Y153.771 E49.19868
G1 X190.545 Y154.498 E49.24946
G1 X190.496 Y155.18 E49.29722
G1 X190.368 Y155.851 E49.34493
G1 X190.163 Y156.503 E49.39267
G1 X189.883 Y157.126 E49.44038
G1 X189.533 Y157.712 E49.48805
G1 X189.116 Y158.254 E49.53582
G1 X188.639 Y158.743 E49.58353
G1 X188.108 Y159.172 E49.63121
G1 X187.53 Y159.537 E49.67896
G1 X186.914 Y159.832 E49.72666
G1 X186.267 Y160.053 E49.77441
G1 X185.599 Y160.197 E49.82214
G1 X184.869 Y160.264 E49.87335
G1 X184.548 Y160.273 E49.89577
G1 X184.384 Y160.275 E49.90723
G1 X112.211 Y160.275 E54.94825
G1 X112.127 Y160.274 E54.95411
G1 X111.428 Y160.264 E55.00294
G1 X110.747 Y160.215 E55.05063
G1 X110.135 Y160.1 E55.09412
G1 X109.628 Y159.977 E55.13056
G1 X106.96 Y159.362 E55.3218
G1 X104.317 Y158.829 E55.51012
G1 X101.723 Y158.386 E55.69392
G1 X99.049 Y158.005 E55.88258
G1 X96.452 Y157.709 E56.06514
G1 X93.797 Y157.483 E56.25126
G1 X91.117 Y157.331 E56.43875
G1 X88.428 Y157.253 E56.62664
G1 X87.063 Y157.244 E56.72198
G1 X39.801 Y157.244 E60.02306
G1 X39.717 Y157.243 E60.02893
G1 X39.019 Y157.233 E60.07768
G1 X38.338 Y157.184 E60.12537
G1 X37.667 Y157.055 E60.1731
G1 X37.016 Y156.848 E60.22081
G1 X36.393 Y156.567 E60.26855
G1 X35.807 Y156.215 E60.31629
G1 X35.267 Y155.797 E60.36399
G1 X34.779 Y155.319 E60.4117
G1 X34.35 Y154.787 E60.45944
G1 X33.986 Y154.209 E60.50715
G1 X33.692 Y153.592 E60.55488
G1 X33.473 Y152.945 E60.60259
G1 X33.33 Y152.277 E60.65031
G1 X33.265 Y151.552 E60.70115
G1 X33.256 Y151.22 E60.72435
G1 X33.254 Y151.062 E60.73538
G1 X33.254 Y82.076 E65.5538
G1 X33.255 Y81.997 E65.55932
G1 X33.264 Y81.334 E65.60563
G1 X33.313 Y80.652 E65.65339
G1 X33.441 Y79.981 E65.7011
G1 X33.647 Y79.33 E65.74879
G1 X33.928 Y78.707 E65.79653
G1 X34.279 Y78.121 E65.84424
G1 X34.697 Y77.58 E65.89199
G1 X35.175 Y77.092 E65.9397
G1 X35.706 Y76.663 E65.98738
G1 X36.284 Y76.298 E66.03513
G1 X36.901 Y76.004 E66.08287
M204 S3000
M205 X10 Y10
G0 F3000 X36.81 Y76.657
M204 S1800
M205 X8 Y8
G1 F2400 X37.411 Y76.411 E66.12822
G1 X38.038 Y76.241 E66.1736
G1 X38.955 Y76.135 E66.23807
G1 X39.276 Y76.126 E66.2605
G1 X39.424 Y76.124 E66.27084
G1 X105.685 Y76.124 E70.89893
G1 X108.366 Y76.086 E71.0862
G1 X111.613 Y75.95 E71.31319
G1 X111.834 Y75.945 E71.32863
G1 X184.007 Y75.945 E76.36965
G1 X184.083 Y75.946 E76.37496
G1 X184.781 Y75.956 E76.42372
G1 X185.428 Y76.005 E76.46904
G1 X186.065 Y76.133 E76.51442
G1 X186.681 Y76.339 E76.55978
G1 X187.268 Y76.619 E76.60521
G1 X187.815 Y76.968 E76.65053
G1 X188.316 Y77.382 E76.69592
G1 X188.761 Y77.855 E76.74128
G1 X189.146 Y78.379 E76.7867
G1 X189.463 Y78.946 E76.83207
G1 X189.708 Y79.547 E76.8774
G1 X189.877 Y80.174 E76.92276
G1 X189.983 Y81.087 E76.98696
G1 X189.992 Y81.407 E77.00932
G1 X189.994 Y81.555 E77.01966
G1 X189.994 Y153.764 E82.06319
G1 X189.985 Y154.491 E82.11397
G1 X189.937 Y155.139 E82.15935
G1 X189.809 Y155.776 E82.20473
G1 X189.605 Y156.393 E82.25012
G1 X189.326 Y156.98 E82.29552
G1 X188.978 Y157.528 E82.34086
G1 X188.565 Y158.029 E82.38621
G1 X188.093 Y158.476 E82.43162
G1 X187.57 Y158.861 E82.47698
G1 X187.004 Y159.179 E82.52232
G1 X186.402 Y159.426 E82.56777
G1 X185.776 Y159.596 E82.61308
G1 X184.853 Y159.704 E82.67799
G1 X184.532 Y159.713 E82.70041
G1 X184.384 Y159.715 E82.71075
G1 X112.211 Y159.715 E87.75177
G1 X112.135 Y159.714 E87.75708
G1 X111.436 Y159.704 E87.80591
G1 X110.789 Y159.655 E87.85123
G1 X110.267 Y159.556 E87.88833
G1 X109.708 Y159.42 E87.92852
G1 X107.087 Y158.817 E88.11637
G1 X104.425 Y158.279 E88.30606
G1 X101.786 Y157.829 E88.49304
G1 X99.153 Y157.454 E88.6788
G1 X96.497 Y157.151 E88.86552
G1 X93.804 Y156.922 E89.05429
G1 X91.165 Y156.771 E89.23892
G1 X88.448 Y156.694 E89.42877
G1 X87.067 Y156.684 E89.52523
G1 X39.801 Y156.684 E92.82658
G1 X39.725 Y156.683 E92.83189
G1 X39.027 Y156.673 E92.88065
G1 X38.38 Y156.624 E92.92597
G1 X37.743 Y156.496 E92.97135
G1 X37.127 Y156.29 E93.01672
G1 X36.54 Y156.01 E93.06214
G1 X35.993 Y155.661 E93.10746
G1 X35.492 Y155.247 E93.15286
G1 X35.047 Y154.774 E93.19822
G1 X34.662 Y154.25 E93.24363
G1 X34.345 Y153.683 E93.28901
G1 X34.1 Y153.082 E93.33434
G1 X33.931 Y152.455 E93.37969
G1 X33.825 Y151.537 E93.44424
G1 X33.816 Y151.205 E93.46744
G1 X33.814 Y151.062 E93.47743
G1 X33.814 Y82.004 E98.30087
G1 X33.823 Y81.341 E98.34718
G1 X33.872 Y80.694 E98.3925
G1 X34 Y80.057 E98.43788
G1 X34.205 Y79.44 E98.4833
G1 X34.485 Y78.854 E98.52866
G1 X34.834 Y78.306 E98.57404
G1 X35.248 Y77.805 E98.61943
G1 X35.72 Y77.359 E98.66479
G1 X36.243 Y76.974 E98.71015
G1 X36.81 Y76.657 E98.75552
M204 S3000
M205 X10 Y10
G1 F2400 E92.75552
;MESH:rgb_cube_shell_v6.stl
G0 F3000 X39.948 Y80.739
G0 X39.948 Y82.258
G0 X40.494 Y150.004
M204 S1800
M205 X8 Y8
;TYPE:WALL-INNER
G1 F2400 E98.75552
G1 F1500 X40.494 Y82.804 E103.44919
G1 X107.694 Y82.804 E108.14286
G1 X107.694 Y150.004 E112.83653
G1 X40.494 Y150.004 E117.5302
M204 S3000
M205 X10 Y10
G0 F3000 X39.934 Y150.564
M204 S1800
M205 X8 Y8
G1 F1500 X39.934 Y82.244 E122.3021
G1 X108.254 Y82.244 E127.074
G1 X108.254 Y150.564 E131.8459
G1 X39.934 Y150.564 E136.61779
M204 S3000
M205 X10 Y10
G0 F3000 X39.374 Y151.124
M204 S1800
M205 X8 Y8
;TYPE:WALL-OUTER
G1 F1500 X39.374 Y81.684 E141.46792
G1 X108.814 Y81.684 E146.31805
G1 X108.814 Y151.124 E151.16817
G1 X39.374 Y151.124 E156.0183
M204 S3000
M205 X10 Y10
G0 F3000 X39.374 Y150.924
G0 X40.004 Y150.494
G0 X41.044 Y149.454
M204 S1800
M205 X8 Y8
;TYPE:SKIN
G1 F1500 X41.044 Y83.354 E160.63514
G1 X107.144 Y83.354 E165.25198
G1 X107.144 Y149.454 E169.86882
G1 X41.044 Y149.454 E174.48565
M204 S3000
M205 X10 Y10
G0 F3000 X41.486 Y149.193
M204 S1800
M205 X8 Y8
G1 F1500 X41.304 Y149.01 E174.50368
M204 S3000
M205 X10 Y10
G0 F3000 X41.304 Y148.218
M204 S1800
M205 X8 Y8
G1 F1500 X42.278 Y149.193 E174.59994
M204 S3000
M205 X10 Y10
G0 F3000 X43.07 Y149.193
M204 S1800
M205 X8 Y8
G1 F1500 X41.304 Y147.426 E174.77443
M204 S3000
M205 X10 Y10
G0 F3000 X41.304 Y146.634
M204 S1800
M205 X8 Y8
G1 F1500 X43.862 Y149.193 E175.02715
M204 S3000
M205 X10 Y10
G0 F3000 X44.654 Y149.193
M204 S1800
M205 X8 Y8
G1 F1500 X41.304 Y145.842 E175.35811
M204 S3000
M205 X10 Y10
G0 F3000 X41.304 Y145.05
M204 S1800
M205 X8 Y8
G1 F1500 X45.446 Y149.193 E175.76729
M204 S3000
M205 X10 Y10
G0 F3000 X46.238 Y149.193
M204 S1800
M205 X8 Y8
G1 F1500 X41.304 Y144.258 E176.25471
M204 S3000
M205 X10 Y10
G0 F3000 X41.304 Y143.467
M204 S1800
M205 X8 Y8
G1 F1500 X47.03 Y149.193 E176.82031
M204 S3000
M205 X10 Y10
G0 F3000 X47.822 Y149.193
M204 S1800
M205 X8 Y8
G1 F1500 X41.304 Y142.675 E177.46414
M204 S3000
M205 X10 Y10
G0 F3000 X41.304 Y141.883
M204 S1800
M205 X8 Y8
G1 F1500 X48.614 Y149.193 E178.18621
M204 S3000
M205 X10 Y10
G0 F3000 X49.406 Y149.193
M204 S1800
M205 X8 Y8
G1 F1500 X41.304 Y141.091 E178.9865
M204 S3000
M205 X10 Y10
G0 F3000 X41.304 Y140.299
M204 S1800
M205 X8 Y8
G1 F1500 X50.198 Y149.193 E179.86503
M204 S3000
M205 X10 Y10
G0 F3000 X50.99 Y149.193
M204 S1800
M205 X8 Y8
G1 F1500 X41.304 Y139.507 E180.82179
M204 S3000
M205 X10 Y10
G0 F3000 X41.304 Y138.715
M204 S1800
M205 X8 Y8
G1 F1500 X51.782 Y149.193 E181.85678
M204 S3000
M205 X10 Y10
G0 F3000 X52.574 Y149.193
M204 S1800
M205 X8 Y8
G1 F1500 X41.304 Y137.923 E182.97001
M204 S3000
M205 X10 Y10
G0 F3000 X41.304 Y137.131
M204 S1800
M205 X8 Y8
G1 F1500 X53.366 Y149.193 E184.16146
M204 S3000
M205 X10 Y10
G0 F3000 X54.158 Y149.193
M204 S1800
M205 X8 Y8
G1 F1500 X41.304 Y136.339 E185.43115
M204 S3000
M205 X10 Y10
G0 F3000 X41.304 Y135.547
M204 S1800
M205 X8 Y8
G1 F1500 X54.949 Y149.193 E186.77902
M204 S3000
M205 X10 Y10
G0 F3000 X55.741 Y149.193
M204 S1800
M205 X8 Y8
G1 F1500 X41.304 Y134.755 E188.20512
M204 S3000
M205 X10 Y10
G0 F3000 X41.304 Y133.963
M204 S1800
M205 X8 Y8
G1 F1500 X56.533 Y149.193 E189.70945
M204 S3000
M205 X10 Y10
G0 F3000 X57.325 Y149.193
M204 S1800
M205 X8 Y8
G1 F1500 X41.304 Y133.171 E191.29201
M204 S3000
M205 X10 Y10
G0 F3000 X41.304 Y132.379
M204 S1800
M205 X8 Y8
G1 F1500 X58.117 Y149.193 E192.95281
M204 S3000
M205 X10 Y10
G0 F3000 X58.909 Y149.193
M204 S1800
M205 X8 Y8
G1 F1500 X41.304 Y131.587 E194.69184
M204 S3000
M205 X10 Y10
G0 F3000 X41.304 Y130.795
M204 S1800
M205 X8 Y8
G1 F1500 X59.701 Y149.193 E196.5091
M204 S3000
M205 X10 Y10
G0 F3000 X60.493 Y149.193
M204 S1800
M205 X8 Y8
G1 F1500 X41.304 Y130.003 E198.40459
M204 S3000
M205 X10 Y10
G0 F3000 X41.304 Y129.211
M204 S1800
M205 X8 Y8
G1 F1500 X61.285 Y149.193 E200.37832
M204 S3000
M205 X10 Y10
G0 F3000 X62.077 Y149.193
M204 S1800
M205 X8 Y8
G1 F1500 X41.304 Y128.419 E202.43027
M204 S3000
M205 X10 Y10
G0 F3000 X41.304 Y127.627
M204 S1800
M205 X8 Y8
G1 F1500 X62.869 Y149.193 E204.56046
M204 S3000
M205 X10 Y10
G0 F3000 X63.661 Y149.193
M204 S1800
M205 X8 Y8
G1 F1500 X41.304 Y126.835 E206.76888
M204 S3000
M205 X10 Y10
G0 F3000 X41.304 Y126.043
M204 S1800
M205 X8 Y8
G1 F1500 X64.453 Y149.193 E209.05553
M204 S3000
M205 X10 Y10
G0 F3000 X65.245 Y149.193
M204 S1800
M205 X8 Y8
G1 F1500 X41.304 Y125.251 E211.42041
M204 S3000
M205 X10 Y10
G0 F3000 X41.304 Y124.459
M204 S1800
M205 X8 Y8
G1 F1500 X66.037 Y149.193 E213.86353
M204 S3000
M205 X10 Y10
G0 F3000 X66.829 Y149.193
M204 S1800
M205 X8 Y8
G1 F1500 X41.304 Y123.668 E216.38482
M204 S3000
M205 X10 Y10
G0 F3000 X41.304 Y122.876
M204 S1800
M205 X8 Y8
G1 F1500 X67.621 Y149.193 E218.98435
M204 S3000
M205 X10 Y10
G0 F3000 X68.413 Y149.193
M204 S1800
M205 X8 Y8
G1 F1500 X41.304 Y122.084 E221.66211
M204 S3000
M205 X10 Y10
G0 F3000 X41.304 Y121.292
M204 S1800
M205 X8 Y8
G1 F1500 X69.205 Y149.193 E224.41811
M204 S3000
M205 X10 Y10
G0 F3000 X69.997 Y149.193
M204 S1800
M205 X8 Y8
G1 F1500 X41.304 Y120.5 E227.25233
M204 S3000
M205 X10 Y10
G0 F3000 X41.304 Y119.708
M204 S1800
M205 X8 Y8
G1 F1500 X70.789 Y149.193 E230.16479
M204 S3000
M205 X10 Y10
G0 F3000 X71.581 Y149.193
M204 S1800
M205 X8 Y8
G1 F1500 X41.304 Y118.916 E233.15548
M204 S3000
M205 X10 Y10
G0 F3000 X41.304 Y118.124
M204 S1800
M205 X8 Y8
G1 F1500 X72.373 Y149.193 E236.2244
M204 S3000
M205 X10 Y10
G0 F3000 X73.165 Y149.193
M204 S1800
M205 X8 Y8
G1 F1500 X41.304 Y117.332 E239.37155
M204 S3000
M205 X10 Y10
G0 F3000 X41.304 Y116.54
M204 S1800
M205 X8 Y8
G1 F1500 X73.957 Y149.193 E242.59693
M204 S3000
M205 X10 Y10
G0 F3000 X74.748 Y149.193
M204 S1800
M205 X8 Y8
G1 F1500 X41.304 Y115.748 E245.9005
M204 S3000
M205 X10 Y10
G0 F3000 X41.304 Y114.956
M204 S1800
M205 X8 Y8
G1 F1500 X75.54 Y149.193 E249.2823
M204 S3000
M205 X10 Y10
G0 F3000 X76.332 Y149.193
M204 S1800
M205 X8 Y8
G1 F1500 X41.304 Y114.164 E252.74233
M204 S3000
M205 X10 Y10
G0 F3000 X41.304 Y113.372
M204 S1800
M205 X8 Y8
G1 F1500 X77.124 Y149.193 E256.28059
M204 S3000
M205 X10 Y10
G0 F3000 X77.916 Y149.193
M204 S1800
M205 X8 Y8
G1 F1500 X41.304 Y112.58 E259.89708
M204 S3000
M205 X10 Y10
G0 F3000 X41.304 Y111.788
M204 S1800
M205 X8 Y8
G1 F1500 X78.708 Y149.193 E263.59181
M204 S3000
M205 X10 Y10
G0 F3000 X79.5 Y149.193
M204 S1800
M205 X8 Y8
G1 F1500 X41.304 Y110.996 E267.36476
M204 S3000
M205 X10 Y10
G0 F3000 X41.304 Y110.204
M204 S1800
M205 X8 Y8
G1 F1500 X80.292 Y149.193 E271.21595
M204 S3000
M205 X10 Y10
G0 F3000 X81.084 Y149.193
M204 S1800
M205 X8 Y8
G1 F1500 X41.304 Y109.412 E275.14537
M204 S3000
M205 X10 Y10
G0 F3000 X41.304 Y108.62
M204 S1800
M205 X8 Y8
G1 F1500 X81.876 Y149.193 E279.15303
M204 S3000
M205 X10 Y10
G0 F3000 X82.668 Y149.193
M204 S1800
M205 X8 Y8
G1 F1500 X41.304 Y107.828 E283.23891
M204 S3000
M205 X10 Y10
G0 F3000 X41.304 Y107.036
M204 S1800
M205 X8 Y8
