;FLAVOR:Marlin
;TIME:4515
;Filament used: 6.55247m
;Layer height: 0.3
;MINX:61.995
;MINY:61.995
;MINZ:0.3
;MAXX:148.005
;MAXY:148.005
;MAXZ:51.3
;Generated with Cura_SteamEngine 4.4.1
M82 ;absolute extrusion mode
G21 ;metric values
G90 ;absolute positioning
M82 ;set extruder to absolute mode
M107 ;start with the fan off

M104 S200 T0 ; start heating T0 to what is set in Cura
M140 S60 ; start heating the bed to what is set in Cura
M190 S60 ; start heating the bed to what is set in Cura
M109 S200 T0 ; start heating T0 to what is set in Cura

G28 X0 Y0 ;move X/Y to min endstops
G28 Z0 ;move Z to min endstops
G1 Z15.0 F2400 ;move the platform down 15mm
G92 E0 ;zero the extruded length
G1 F200 E3 ;extrude 3mm of feed stock
G92 E0 ;zero the extruded length again
G1 F2400
G0 Y20 F2400
M117 Printing...
G5
G92 E0
G92 E0
G1 F2400 E-6
;LAYER_COUNT:171
;LAYER:0
M106 S255
M204 S3000
M205 X10 Y10
G1 F600 Z0.375
G0 F3000 X63.928 Y63.83 Z0.375
M204 S1800
M205 X8 Y8
;TYPE:SKIRT
G1 F600 Z0.3
G1 F2400 E0
G1 X64.466 Y63.359 E0.04994
G1 X65.054 Y62.951 E0.09993
G1 X65.683 Y62.611 E0.14987
G1 X66.347 Y62.344 E0.19986
G1 X67.036 Y62.152 E0.24982
G1 X67.742 Y62.038 E0.29977
G1 X68.225 Y62.007 E0.33357
G1 X68.546 Y61.998 E0.356
G1 X68.725 Y61.995 E0.36851
G1 X140.898 Y61.995 E5.40952
G1 X140.99 Y61.996 E5.41595
G1 X141.688 Y62.006 E5.46471
G1 X142.401 Y62.056 E5.51463
G1 X143.105 Y62.185 E5.56462
G1 X143.789 Y62.393 E5.61455
G1 X144.446 Y62.675 E5.66449
G1 X145.068 Y63.029 E5.71448
G1 X145.646 Y63.45 E5.76442
G1 X146.174 Y63.933 E5.81441
G1 X146.644 Y64.471 E5.8643
G1 X147.052 Y65.059 E5.91429
G1 X147.391 Y65.689 E5.96426
G1 X147.658 Y66.352 E6.01418
G1 X147.849 Y67.042 E6.06419
G1 X147.962 Y67.748 E6.11413
G1 X147.993 Y68.225 E6.14751
G1 X148.002 Y68.545 E6.16987
G1 X148.005 Y68.725 E6.18245
G1 X148.005 Y140.948 E11.22696
G1 X147.996 Y141.675 E11.27774
G1 X147.947 Y142.389 E11.32773
G1 X147.819 Y143.093 E11.3777
G1 X147.613 Y143.778 E11.42767
G1 X147.332 Y144.435 E11.47758
G1 X146.979 Y145.058 E11.52759
G1 X146.559 Y145.637 E11.57755
G1 X146.077 Y146.165 E11.62748
G1 X145.54 Y146.637 E11.67742
G1 X144.952 Y147.045 E11.72741
G1 X144.323 Y147.386 E11.77738
G1 X143.66 Y147.654 E11.82733
G1 X142.971 Y147.846 E11.87729
G1 X142.265 Y147.961 E11.92725
G1 X141.775 Y147.993 E11.96155
G1 X141.454 Y148.002 E11.98398
G1 X141.275 Y148.005 E11.99648
G1 X69.102 Y148.005 E17.0375
G1 X69.019 Y148.004 E17.04329
G1 X68.321 Y147.995 E17.09205
G1 X67.608 Y147.946 E17.14197
G1 X66.904 Y147.818 E17.19195
G1 X66.219 Y147.612 E17.24191
G1 X65.562 Y147.33 E17.29185
G1 X64.94 Y146.977 E17.3418
G1 X64.361 Y146.557 E17.39176
G1 X63.832 Y146.075 E17.44175
G1 X63.361 Y145.537 E17.49169
G1 X62.953 Y144.95 E17.54162
G1 X62.613 Y144.32 E17.59162
G1 X62.345 Y143.657 E17.64157
G1 X62.153 Y142.968 E17.69153
G1 X62.039 Y142.262 E17.74148
G1 X62.006 Y141.769 E17.77599
G1 X61.997 Y141.436 E17.79926
G1 X61.995 Y141.263 E17.81134
G1 X61.995 Y69.069 E22.85382
G1 X61.996 Y68.982 E22.8599
G1 X62.005 Y68.317 E22.90635
G1 X62.054 Y67.604 E22.95627
G1 X62.183 Y66.9 E23.00626
G1 X62.39 Y66.216 E23.05618
G1 X62.672 Y65.558 E23.10618
G1 X63.025 Y64.936 E23.15613
G1 X63.445 Y64.358 E23.20603
G1 X63.928 Y63.83 E23.25602
M204 S3000
M205 X10 Y10
G0 F3000 X64.475 Y64.083
M204 S1800
M205 X8 Y8
G1 F2400 X65.007 Y63.654 E23.30375
G1 X65.585 Y63.289 E23.3515
G1 X66.202 Y62.995 E23.39923
G1 X66.848 Y62.775 E23.4469
G1 X67.516 Y62.632 E23.49461
G1 X68.24 Y62.566 E23.54539
G1 X68.561 Y62.557 E23.56782
G1 X68.725 Y62.555 E23.57928
G1 X140.898 Y62.555 E28.62029
G1 X140.982 Y62.556 E28.62616
G1 X141.68 Y62.566 E28.67492
G1 X142.361 Y62.615 E28.72261
G1 X143.032 Y62.744 E28.77033
G1 X143.683 Y62.951 E28.81805
G1 X144.306 Y63.232 E28.86578
G1 X144.892 Y63.584 E28.91353
G1 X145.432 Y64.002 E28.96122
G1 X145.92 Y64.48 E29.00894
G1 X146.349 Y65.012 E29.05667
G1 X146.713 Y65.59 E29.10438
G1 X147.007 Y66.207 E29.15212
G1 X147.226 Y66.854 E29.19983
G1 X147.369 Y67.522 E29.24754
G1 X147.434 Y68.241 E29.29797
G1 X147.443 Y68.561 E29.32033
G1 X147.445 Y68.725 E29.33178
G1 X147.445 Y140.941 E34.3758
G1 X147.436 Y141.668 E34.42658
G1 X147.387 Y142.35 E34.47434
G1 X147.259 Y143.021 E34.52205
G1 X147.054 Y143.673 E34.56979
G1 X146.774 Y144.296 E34.6175
G1 X146.424 Y144.882 E34.66517
G1 X146.007 Y145.424 E34.71294
G1 X145.53 Y145.913 E34.76065
G1 X144.999 Y146.342 E34.80833
G1 X144.421 Y146.707 E34.85608
G1 X143.805 Y147.002 E34.90378
G1 X143.158 Y147.223 E34.95154
G1 X142.49 Y147.367 E34.99926
G1 X141.76 Y147.434 E35.05047
G1 X141.439 Y147.443 E35.0729
G1 X141.275 Y147.445 E35.08435
G1 X69.027 Y147.445 E40.13061
G1 X68.329 Y147.436 E40.17936
G1 X67.647 Y147.387 E40.22712
G1 X66.976 Y147.259 E40.27483
G1 X66.325 Y147.053 E40.32253
G1 X65.701 Y146.773 E40.3703
G1 X65.115 Y146.422 E40.41801
G1 X64.574 Y146.005 E40.46572
G1 X64.085 Y145.527 E40.51348
G1 X63.656 Y144.996 E40.56116
G1 X63.291 Y144.418 E40.6089
G1 X62.997 Y143.802 E40.65658
G1 X62.776 Y143.155 E40.70433
G1 X62.632 Y142.487 E40.75206
G1 X62.566 Y141.754 E40.80347
G1 X62.557 Y141.421 E40.82673
G1 X62.555 Y141.263 E40.83777
G1 X62.555 Y69.069 E45.88025
G1 X62.556 Y68.99 E45.88577
G1 X62.565 Y68.325 E45.93222
G1 X62.614 Y67.644 E45.97991
G1 X62.742 Y66.972 E46.02769
G1 X62.948 Y66.321 E46.07538
G1 X63.229 Y65.698 E46.12312
G1 X63.58 Y65.112 E46.17083
G1 X63.998 Y64.571 E46.21858
G1 X64.475 Y64.083 E46.26625
M204 S3000
M205 X10 Y10
G0 F3000 X64.549 Y64.796
M204 S1800
M205 X8 Y8
G1 F2400 X65.021 Y64.35 E46.3116
G1 X65.544 Y63.966 E46.35692
G1 X66.111 Y63.648 E46.40233
G1 X66.712 Y63.402 E46.44769
G1 X67.339 Y63.232 E46.49306
G1 X68.256 Y63.126 E46.55754
G1 X68.577 Y63.117 E46.57997
G1 X68.725 Y63.115 E46.5903
G1 X140.898 Y63.115 E51.63132
G1 X140.974 Y63.116 E51.63663
G1 X141.672 Y63.126 E51.68539
G1 X142.319 Y63.175 E51.73071
G1 X142.956 Y63.303 E51.77609
G1 X143.572 Y63.509 E51.82145
G1 X144.159 Y63.789 E51.86688
G1 X144.706 Y64.138 E51.9122
G1 X145.207 Y64.552 E51.95759
G1 X145.652 Y65.025 E52.00295
G1 X146.037 Y65.549 E52.04837
G1 X146.354 Y66.116 E52.09374
G1 X146.599 Y66.717 E52.13907
G1 X146.768 Y67.344 E52.18443
G1 X146.874 Y68.257 E52.24863
G1 X146.883 Y68.577 E52.27099
G1 X146.885 Y68.725 E52.28133
G1 X146.885 Y140.934 E57.32486
G1 X146.876 Y141.661 E57.37564
G1 X146.828 Y142.309 E57.42102
G1 X146.7 Y142.946 E57.46641
G1 X146.496 Y143.563 E57.51179
G1 X146.217 Y144.15 E57.55719
G1 X145.869 Y144.698 E57.60253
G1 X145.456 Y145.199 E57.64788
G1 X144.984 Y145.646 E57.69329
G1 X144.461 Y146.031 E57.73865
G1 X143.895 Y146.349 E57.78399
G1 X143.293 Y146.596 E57.82944
G1 X142.667 Y146.766 E57.87475
G1 X141.744 Y146.874 E57.93966
G1 X141.423 Y146.883 E57.96209
G1 X141.275 Y146.885 E57.97242
G1 X69.034 Y146.885 E63.01819
G1 X68.336 Y146.876 E63.06695
G1 X67.688 Y146.827 E63.11234
G1 X67.051 Y146.7 E63.1577
G1 X66.435 Y146.495 E63.20305
G1 X65.848 Y146.216 E63.24844
G1 X65.3 Y145.867 E63.29382
G1 X64.799 Y145.454 E63.33917
G1 X64.352 Y144.982 E63.38458
G1 X63.967 Y144.459 E63.42994
G1 X63.649 Y143.892 E63.47534
G1 X63.403 Y143.291 E63.5207
G1 X63.233 Y142.664 E63.56608
G1 X63.126 Y141.739 E63.63112
G1 X63.117 Y141.406 E63.65438
G1 X63.115 Y141.263 E63.66437
G1 X63.115 Y68.998 E68.71181
G1 X63.124 Y68.333 E68.75827
G1 X63.173 Y67.685 E68.80366
G1 X63.301 Y67.048 E68.84904
G1 X63.506 Y66.431 E68.89445
G1 X63.786 Y65.845 E68.93981
G1 X64.135 Y65.297 E68.98519
G1 X64.549 Y64.796 E69.03058
M204 S3000
M205 X10 Y10
G1 F2400 E63.03058
;MESH:rgb_cube_bot_v9.stl
G0 F3000 X67.73 Y69.049
G0 X69.049 Y69.049
G0 X69.795 Y71.6
M204 S1800
M205 X8 Y8
;TYPE:WALL-INNER
G1 F2400 E69.03058
G1 F1500 X69.795 Y69.795 E69.15666
G1 X71.6 Y69.795 E69.28273
G1 X71.6 Y71.6 E69.4088
G1 X69.795 Y71.6 E69.53487
M204 S3000
M205 X10 Y10
G0 F3000 X72.688 Y72.692
G0 X94.731 Y89.649
G0 X99.4 Y90.4
M204 S1800
M205 X8 Y8
G1 F1500 X99.4 Y85.919 E69.84786
G1 X99.4 Y85.396 E69.88438
G1 X99.4 Y84.601 E69.93991
G1 X99.4 Y83.9 E69.98887
G1 X99.836 Y83.9 E70.01933
G1 X99.826 Y83.967
G1 X99.725 Y84.601 E70.04896
G1 X99.795 Y85.396 E70.08486
G1 X99.955 Y85.894 E70.11607
G1 X100.028 Y86.117 E70.13246
G1 X100.448 Y86.784 E70.18752
G1 X101.093 Y87.34 E70.247
G1 X101.516 Y87.502 E70.27863
G1 X101.706 Y87.575 E70.29285
G1 X101.74 Y87.588 E70.29539
G1 X101.649 Y87.724 E70.30156
G1 X101.572 Y87.912 E70.31212
G1 X101.367 Y88.414 E70.34999
G1 X101.226 Y89.143 E70.40185
G1 X101.227 Y89.885 E70.45368
G1 X101.375 Y90.614 E70.50564
G1 X101.662 Y91.3 E70.55758
G1 X102.078 Y91.917 E70.60955
G1 X102.595 Y92.431 E70.66047
G1 X103.21 Y92.844 E70.71221
G1 X103.899 Y93.13 E70.76432
G1 X104.629 Y93.274 E70.81629
G1 X105.371 Y93.274 E70.86812
G1 X106.101 Y93.13 E70.92009
G1 X106.79 Y92.844 E70.97219
G1 X107.405 Y92.431 E71.02393
G1 X107.93 Y91.909 E71.07564
G1 X108.344 Y91.288 E71.12777
G1 X108.63 Y90.598 E71.17994
G1 X108.774 Y89.86 E71.23246
G1 X108.774 Y89.13 E71.28345
G1 X108.63 Y88.4 E71.33542
G1 X108.344 Y87.711 E71.38753
G1 X108.253 Y87.577 E71.39884
G1 X108.304 Y87.564
G1 X108.733 Y87.448 E71.42719
G1 X109.408 Y86.968 E71.48504
G1 X109.886 Y86.335 E71.54044
G1 X110.046 Y85.944 E71.56995
G1 X110.173 Y85.63 E71.59361
G1 X110.292 Y84.887 E71.64616
G1 X110.253 Y84.136 E71.69869
G1 X110.217 Y84.009 E71.70791
G1 X110.186 Y83.9 E71.71582
G1 X110.253 Y83.9 E71.71592
G1 X110.6 Y83.9 E71.73213
G1 X110.6 Y84.136 E71.74359
G1 X110.6 Y84.887 E71.77426
G1 X110.6 Y85.63 E71.80827
G1 X110.6 Y85.969 E71.82919
G1 X110.6 Y90.4 E72.13868
G1 X114.769 Y90.4 E72.42987
G1 X115.452 Y90.349 E72.47771
G1 X115.671 Y90.333 E72.49305
G1 X115.821 Y90.172 E72.50842
G1 X115.821 Y90.333 E72.50892
G1 X115.821 Y90.553 E72.52019
G1 X115.821 Y93.485 E72.72497
G1 X116.612 Y94.401 E72.80951
G1 X119.6 Y94.401 E73.01821
G1 X119.6 Y115.61 E74.49958
G1 X134.72 Y129.65 E75.94074
G1 X135.829 Y129.164 E76.02531
G1 X136.221 Y128.993 E76.05518
G1 X136.221 Y129.42 E76.07252
G1 X136.221 Y129.421 E76.07259
G1 X136.221 Y136.222 E76.54762
G1 X130.427 Y136.222 E76.95231
G1 X130.426 Y136.222 E76.95238
G1 X130.009 Y136.222 E76.9815
G1 X130.168 Y135.836 E76.99855
G1 X130.65 Y134.67 E77.08667
G1 X115.58 Y119.6 E78.57525
G1 X110.6 Y119.6 E78.92308
G1 X110.6 Y124.04 E79.2332
G1 X110.6 Y124.362 E79.25569
G1 X110.6 Y125.108 E79.3078
G1 X110.6 Y125.928 E79.36507
G1 X110.6 Y126.1 E79.37709
G1 X110.242 Y126.1 E79.39594
G1 X110.187 Y126.1 E79.39801
G1 X110.225 Y125.981 E79.39802
G1 X110.242 Y125.928
G1 X110.296 Y125.108 E79.43198
G1 X110.168 Y124.362 E79.4669
G1 X110.045 Y124.065 E79.48683
G1 X109.875 Y123.653 E79.51796
G1 X109.402 Y123.025 E79.57287
G1 X108.721 Y122.547 E79.63098
G1 X108.668 Y122.533 E79.63481
G1 X108.385 Y122.458 E79.65526
G1 X108.373 Y122.455 E79.65613
G1 X108.252 Y122.423 E79.66487
G1 X108.257 Y122.413 E79.66565
G1 X108.278 Y122.374 E79.66874
G1 X108.303 Y122.326 E79.66914
G1 X108.509 Y121.938 E79.69264
G1 X108.512 Y121.926 E79.69349
G1 X108.721 Y121.229 E79.74431
G1 X108.793 Y120.498 E79.79562
G1 X108.718 Y119.749 E79.84819
G1 X108.498 Y119.036 E79.90031
G1 X108.147 Y118.383 E79.95209
G1 X107.671 Y117.807 E80.00428
G1 X107.095 Y117.341 E80.05603
G1 X106.44 Y116.991 E80.1079
G1 X105.727 Y116.78 E80.15984
G1 X104.987 Y116.708 E80.21177
G1 X104.249 Y116.783 E80.26358
G1 X103.536 Y117.002 E80.31568
G1 X102.883 Y117.354 E80.36749
G1 X102.318 Y117.818 E80.41856
G1 X101.846 Y118.393 E80.47052
G1 X101.496 Y119.049 E80.52245
G1 X101.28 Y119.76 E80.57435
G1 X101.207 Y120.5 E80.62629
G1 X101.28 Y121.241 E80.67829
G1 X101.492 Y121.935 E80.72898
G1 X101.496 Y121.951 E80.73013
G1 X101.7 Y122.335 E80.7605
G1 X101.751 Y122.43 E80.76803
G1 X101.63 Y122.461 E80.76944
G1 X101.614 Y122.465 E80.77057
G1 X101.303 Y122.547 E80.79304
G1 X100.615 Y123.033 E80.85187
G1 X100.136 Y123.669 E80.90748
G1 X99.955 Y124.113 E80.94097
G1 X99.847 Y124.38 E80.96109
G1 X99.726 Y125.154 E81.01581
G1 X99.807 Y126.063 E81.07955
G1 X99.809 Y126.075 E81.0804
G1 X99.818 Y126.1 E81.08225
G1 X99.4 Y126.1 E81.10198
G1 X99.4 Y126.075
G1 X99.4 Y125.154 E81.14422
G1 X99.4 Y124.38 E81.18149
G1 X99.4 Y124.091 E81.19968
G1 X99.4 Y119.6 E81.51336
G1 X94.39 Y119.6 E81.86329
G1 X80.35 Y134.72 E83.30445
G1 X80.836 Y135.83 E83.38909
G1 X81.007 Y136.222 E83.41896
G1 X80.58 Y136.222 E83.4363
G1 X80.579 Y136.222 E83.43637
G1 X73.779 Y136.221 E83.91132
G1 X73.779 Y130.427 E84.31601
G1 X73.779 Y130.426 E84.31608
G1 X73.779 Y130.009 E84.34521
G1 X74.165 Y130.168 E84.36225
G1 X75.33 Y130.65 E84.45031
G1 X90.4 Y115.58 E85.93889
G1 X90.4 Y94.39 E87.41893
G1 X75.28 Y80.35 E88.8601
G1 X74.171 Y80.836 E88.94467
G1 X73.779 Y81.007 E88.97454
G1 X73.779 Y80.58 E88.99188
G1 X73.779 Y80.579 E88.99195
G1 X73.78 Y73.778 E89.46697
G1 X79.573 Y73.778 E89.87159
G1 X79.574 Y73.778 E89.87166
G1 X79.991 Y73.778 E89.90079
G1 X79.832 Y74.164 E89.91783
G1 X79.35 Y75.33 E90.00596
G1 X94.42 Y90.4 E91.49453
G1 X99.4 Y90.4 E91.84237
M204 S3000
M205 X10 Y10
G0 F3000 X95.932 Y95.932
G0 X95.2 Y114.8
M204 S1800
M205 X8 Y8
G1 F1500 X114.785 Y114.8 E93.21031
G1 X114.8 Y95.48 E94.55974
G1 X114.8 Y95.2 E94.5793
G1 X114.52 Y95.2 E94.59196
G1 X95.2 Y95.2 E95.94139
G1 X95.2 Y114.8 E97.31037
M204 S3000
M205 X10 Y10
G0 F3000 X69.795 Y140.205
M204 S1800
M205 X8 Y8
G1 F1500 X69.795 Y138.4 E97.43645
G1 X71.6 Y138.4 E97.56252
G1 X71.6 Y140.205 E97.68859
G1 X69.795 Y140.205 E97.81466
M204 S3000
M205 X10 Y10
G0 F3000 X138.4 Y140.205
M204 S1800
M205 X8 Y8
G1 F1500 X138.4 Y138.4 E97.94074
G1 X140.205 Y138.4 E98.06681
G1 X140.205 Y140.205 E98.19288
G1 X138.4 Y140.205 E98.31895
M204 S3000
M205 X10 Y10
G0 F3000 X137.313 Y137.308
G0 X135.313 Y80.791
G0 X134.67 Y79.35
M204 S1800
M205 X8 Y8
G1 F1500 X129.098 Y84.922 E98.86934
G1 X128.621 Y85.4 E98.91651
G1 X128.621 Y84.725 E98.94188
G1 X128.621 Y84.724 E98.94195
G1 X128.621 Y82.518 E99.09603
G1 X127.834 Y81.601 E99.18043
G1 X124.423 Y81.601 E99.41868
G1 X124.422 Y81.601 E99.41875
G1 X123.781 Y81.601 E99.46352
G1 X124.217 Y81.131 E99.48778
G1 X129.65 Y75.28 E100.04546
G1 X129.164 Y74.17 E100.1301
G1 X128.993 Y73.778 E100.15997
G1 X129.42 Y73.778 E100.17731
G1 X129.421 Y73.778 E100.17738
G1 X136.221 Y73.778 E100.65233
G1 X136.221 Y79.573 E101.05709
G1 X136.221 Y79.574 E101.05716
G1 X136.221 Y79.991 E101.08629
G1 X135.835 Y79.832 E101.10333
G1 X134.67 Y79.35 E101.19139
M204 S3000
M205 X10 Y10
G0 F3000 X137.313 Y72.692
G0 X138.4 Y71.6
M204 S1800
M205 X8 Y8
G1 F1500 X138.4 Y69.795 E101.31747
G1 X140.205 Y69.795 E101.44354
G1 X140.205 Y71.6 E101.56961
G1 X138.4 Y71.6 E101.69568
M204 S3000
M205 X10 Y10
G0 F3000 X137.313 Y72.692
G0 X128.572 Y86.511
G0 X127.985 Y93.841
M204 S1800
M205 X8 Y8
G1 F1500 X128.061 Y92.453 E101.79277
G1 X128.061 Y86.432 E102.21332
G1 X128.061 Y86.143 E102.2335
G1 X128.061 Y82.725 E102.47224
G1 X127.577 Y82.161 E102.52415
G1 X123.069 Y82.161 E102.83902
G1 X122.794 Y82.161 E102.85822
G1 X116.89 Y82.161 E103.2706
G1 X116.7 Y82.362 E103.28992
G1 X116.588 Y82.481 E103.30133
G1 X116.381 Y82.702 E103.32248
G1 X116.381 Y89.093 E103.76887
G1 X116.381 Y89.397 E103.7901
G1 X116.381 Y93.277 E104.0611
G1 X116.868 Y93.841 E104.11315
G1 X120.16 Y93.841 E104.34308
G1 X127.985 Y93.841 E104.88963
M204 S3000
M205 X10 Y10
G0 F3000 X120.16 Y94.161
M204 S1800
M205 X8 Y8
G1 F1500 X120.16 Y115.366 E106.37072
G1 X134.832 Y128.99 E107.76918
G1 X135.84 Y128.549 E107.84603
G1 X135.84 Y80.439 E111.20634
G1 X134.802 Y80.01 E111.28479
G1 X128.585 Y86.228 E111.89894
G1 X128.381 Y86.432 E111.91509
G1 X128.381 Y92.453 E112.1554
G1 X128.381 Y93.841 E112.21737
G1 X128.381 Y94.161 E112.23757
G1 X127.985 Y94.161 E112.26164
G1 X120.16 Y94.161 E112.57395
M204 S3000
M205 X10 Y10
G0 F3000 X104.699 Y92.553
G0 X98.84 Y89.84
M204 S1800
M205 X8 Y8
G1 F1500 X98.84 Y83.34 E113.02795
G1 X100.383 Y83.34 E113.13572
G1 X100.411 Y83.34 E113.13768
G1 X100.646 Y83.34 E113.15409
G1 X100.411 Y83.852 E113.18026
G1 X100.407 Y83.879 E113.1821
G1 X100.289 Y84.621 E113.23458
G1 X100.347 Y85.284 E113.28106
G1 X100.539 Y85.878 E113.32467
G1 X100.877 Y86.415 E113.36898
G1 X101.384 Y86.852 E113.41574
G1 X101.973 Y87.077 E113.45977
G1 X102.332 Y87.078 E113.48485
G1 X102.497 Y87.078 E113.49637
G1 X102.876 Y87.079 E113.52285
G1 X102.497 Y87.46 E113.54088
