;FLAVOR:Marlin
;TIME:11209
;Filament used: 17.7087m
;Layer height: 0.3
;MINX:50.6
;MINY:50.6
;MINZ:0.3
;MAXX:129.4
;MAXY:129.4
;MAXZ:73.8
;Generated with Cura_SteamEngine 4.4.1
M82 ;absolute extrusion mode
G21 ;metric values
G90 ;absolute positioning
M82 ;set extruder to absolute mode
M107 ;start with the fan off

M104 S205 T0 ; start heating T0 to what is set in Cura
M140 S60 ; start heating the bed to what is set in Cura
M190 S60 ; start heating the bed to what is set in Cura
M109 S205 T0 ; start heating T0 to what is set in Cura

G28 X0 Y0 ;move X/Y to min endstops
G28 Z0 ;move Z to min endstops
G1 Z15.0 F2400 ;move the platform down 15mm
G92 E0 ;zero the extruded length
G1 F200 E3 ;extrude 3mm of feed stock
G92 E0 ;zero the extruded length again
G1 F2400
G0 Y20 F2400
M117 Printing...
G5
G92 E0
G92 E0
G1 F1500 E-6.5
;LAYER_COUNT:246
;LAYER:0
M107
G0 F3000 X52.016 Y51.784 Z0.3
;TYPE:SKIRT
G1 F1500 E0
G1 X52.477 Y51.411 E0.04142
G1 X52.984 Y51.103 E0.08285
G1 X53.527 Y50.866 E0.12423
G1 X54.098 Y50.704 E0.16569
G1 X54.886 Y50.611 E0.22111
G1 X55.207 Y50.602 E0.24354
G1 X55.33 Y50.6 E0.25213
G1 X124.356 Y50.6 E5.07334
G1 X125.054 Y50.61 E5.1221
G1 X125.645 Y50.659 E5.16352
G1 X126.224 Y50.786 E5.20492
G1 X126.781 Y50.99 E5.24636
G1 X127.305 Y51.268 E5.28779
G1 X127.787 Y51.613 E5.32919
G1 X128.219 Y52.02 E5.37064
G1 X128.591 Y52.481 E5.41202
G1 X128.899 Y52.988 E5.45345
G1 X129.135 Y53.532 E5.49487
G1 X129.296 Y54.102 E5.53624
G1 X129.389 Y54.886 E5.59138
G1 X129.398 Y55.206 E5.61374
G1 X129.4 Y55.33 E5.62241
G1 X129.4 Y124.318 E10.44096
G1 X129.391 Y125.045 E10.49174
G1 X129.343 Y125.637 E10.53323
G1 X129.217 Y126.216 E10.57462
G1 X129.014 Y126.773 E10.61602
G1 X128.738 Y127.298 E10.65745
G1 X128.394 Y127.781 E10.69887
G1 X127.988 Y128.213 E10.74028
G1 X127.527 Y128.586 E10.7817
G1 X127.021 Y128.895 E10.82311
G1 X126.478 Y129.132 E10.86449
G1 X125.907 Y129.295 E10.90596
G1 X125.114 Y129.389 E10.96174
G1 X124.793 Y129.398 E10.98417
G1 X124.67 Y129.4 E10.99276
G1 X55.65 Y129.4 E15.81355
G1 X54.952 Y129.391 E15.86231
G1 X54.361 Y129.343 E15.90372
G1 X53.782 Y129.216 E15.94513
G1 X53.225 Y129.013 E15.98653
G1 X52.7 Y128.737 E16.02796
G1 X52.218 Y128.392 E16.06936
G1 X51.786 Y127.986 E16.11077
G1 X51.412 Y127.525 E16.15223
G1 X51.104 Y127.019 E16.19361
G1 X50.867 Y126.475 E16.23505
G1 X50.705 Y125.905 E16.27644
G1 X50.611 Y125.11 E16.33236
G1 X50.602 Y124.777 E16.35562
G1 X50.6 Y124.658 E16.36394
G1 X50.6 Y55.614 E21.1864
G1 X50.609 Y54.949 E21.23286
G1 X50.657 Y54.358 E21.27427
G1 X50.784 Y53.779 E21.31567
G1 X50.988 Y53.222 E21.35711
G1 X51.265 Y52.698 E21.3985
G1 X51.61 Y52.216 E21.43991
G1 X52.016 Y51.784 E21.48131
G0 F3000 X52.562 Y52.05
G1 F1500 X53.013 Y51.729 E21.51998
G1 X53.505 Y51.476 E21.55862
G1 X54.029 Y51.296 E21.59732
G1 X54.574 Y51.194 E21.63605
G1 X54.901 Y51.171 E21.65894
G1 X55.222 Y51.162 E21.68137
G1 X55.33 Y51.16 E21.68892
G1 X124.348 Y51.16 E26.50957
G1 X125.046 Y51.17 E26.55832
G1 X125.598 Y51.218 E26.59702
G1 X126.137 Y51.345 E26.6357
G1 X126.652 Y51.548 E26.67437
G1 X127.133 Y51.823 E26.71307
G1 X127.569 Y52.164 E26.75173
G1 X127.952 Y52.565 E26.79046
G1 X128.273 Y53.016 E26.82912
G1 X128.526 Y53.509 E26.86783
G1 X128.705 Y54.033 E26.9065
G1 X128.807 Y54.578 E26.94523
G1 X128.829 Y54.902 E26.96791
G1 X128.838 Y55.222 E26.99027
G1 X128.84 Y55.33 E26.99782
G1 X128.84 Y124.312 E31.81595
G1 X128.831 Y125.039 E31.86674
G1 X128.784 Y125.59 E31.90536
G1 X128.658 Y126.13 E31.94409
G1 X128.456 Y126.646 E31.98279
G1 X128.182 Y127.127 E32.02146
G1 X127.842 Y127.564 E32.06013
G1 X127.442 Y127.947 E32.09881
G1 X126.991 Y128.269 E32.13752
G1 X126.499 Y128.523 E32.17619
G1 X125.975 Y128.703 E32.21489
G1 X125.431 Y128.806 E32.25356
G1 X125.099 Y128.829 E32.27681
G1 X124.778 Y128.838 E32.29924
G1 X124.67 Y128.84 E32.30678
G1 X55.657 Y128.84 E37.12708
G1 X54.959 Y128.831 E37.17584
G1 X54.408 Y128.784 E37.21446
G1 X53.868 Y128.658 E37.25319
G1 X53.353 Y128.455 E37.29186
G1 X52.871 Y128.181 E37.33058
G1 X52.435 Y127.84 E37.36924
G1 X52.052 Y127.44 E37.40793
G1 X51.73 Y126.989 E37.44663
G1 X51.477 Y126.497 E37.48527
G1 X51.297 Y125.973 E37.52397
G1 X51.194 Y125.429 E37.56264
G1 X51.17 Y125.095 E37.58603
G1 X51.161 Y124.762 E37.6093
G1 X51.16 Y124.658 E37.61656
G1 X51.16 Y55.622 E42.43847
G1 X51.169 Y54.957 E42.48492
G1 X51.217 Y54.405 E42.52362
G1 X51.343 Y53.866 E42.56229
G1 X51.546 Y53.35 E42.60102
G1 X51.82 Y52.869 E42.63968
G1 X52.161 Y52.433 E42.67834
G1 X52.562 Y52.05 E42.71707
G0 F3000 X52.711 Y52.668
G1 F1500 X53.103 Y52.339 E42.75282
G1 X53.542 Y52.075 E42.7886
G1 X54.016 Y51.883 E42.82432
G1 X54.514 Y51.766 E42.86005
G1 X54.917 Y51.73 E42.88831
G1 X55.238 Y51.721 E42.91074
G1 X55.33 Y51.72 E42.91716
G1 X124.34 Y51.72 E47.73725
G1 X125.038 Y51.73 E47.78601
G1 X125.548 Y51.778 E47.82179
G1 X126.044 Y51.904 E47.85754
G1 X126.514 Y52.105 E47.89324
G1 X126.948 Y52.378 E47.92905
G1 X127.333 Y52.714 E47.96474
G1 X127.662 Y53.106 E48.00049
G1 X127.926 Y53.545 E48.03627
G1 X128.118 Y54.02 E48.07205
G1 X128.234 Y54.518 E48.10777
G1 X128.27 Y54.918 E48.13582
G1 X128.279 Y55.238 E48.15818
G1 X128.28 Y55.33 E48.1646
G1 X128.28 Y124.305 E52.98225
G1 X128.271 Y125.032 E53.03303
G1 X128.224 Y125.541 E53.06874
G1 X128.099 Y126.038 E53.10453
G1 X127.899 Y126.509 E53.14027
G1 X127.627 Y126.943 E53.17605
G1 X127.292 Y127.329 E53.21175
G1 X126.9 Y127.658 E53.24749
G1 X126.462 Y127.923 E53.28325
G1 X125.988 Y128.116 E53.31899
G1 X125.489 Y128.233 E53.35479
G1 X125.083 Y128.27 E53.38327
G1 X124.762 Y128.279 E53.4057
G1 X124.67 Y128.28 E53.41212
G1 X55.665 Y128.28 E58.23186
G1 X54.967 Y128.271 E58.28062
G1 X54.457 Y128.224 E58.31639
G1 X53.961 Y128.099 E58.35212
G1 X53.49 Y127.898 E58.38789
G1 X53.056 Y127.626 E58.42366
G1 X52.67 Y127.29 E58.45941
G1 X52.341 Y126.898 E58.49515
G1 X52.076 Y126.46 E58.53091
G1 X51.884 Y125.986 E58.56663
G1 X51.767 Y125.488 E58.60236
G1 X51.73 Y125.08 E58.63097
G1 X51.721 Y124.747 E58.65424
G1 X51.72 Y124.658 E58.66046
G1 X51.72 Y55.63 E63.48181
G1 X51.729 Y54.965 E63.52826
G1 X51.776 Y54.455 E63.56403
G1 X51.902 Y53.959 E63.59978
G1 X52.103 Y53.488 E63.63554
G1 X52.375 Y53.054 E63.67132
G1 X52.711 Y52.668 E63.70706
G1 F1500 E57.20706
;MESH:rgb_cube_shell_v13.stl
G0 F3000 X55.854 Y54.335
G0 X55.854 Y55.854
G0 X55.91 Y124.09
G0 X55.84 Y124.16
;TYPE:WALL-INNER
G1 F1500 E63.70706
G1 X55.84 Y55.84 E68.47896
G1 X124.16 Y55.84 E73.25086
G1 X124.16 Y124.16 E78.02276
G1 X55.84 Y124.16 E82.79466
G0 F3000 X55.28 Y124.72
;TYPE:WALL-OUTER
G1 F1500 X55.28 Y55.28 E87.64478
G1 X124.72 Y55.28 E92.49491
G1 X124.72 Y124.72 E97.34503
G1 X55.28 Y124.72 E102.19516
G0 F3000 X55.28 Y124.52
G0 X55.896 Y124.104
G0 X56.39 Y123.61
;TYPE:SKIN
G1 F1500 X56.39 Y56.39 E106.89023
G1 X123.61 Y56.39 E111.58529
G1 X123.61 Y123.61 E116.28036
G1 X56.39 Y123.61 E120.97543
G0 F3000 X56.825 Y123.349
G1 F1500 X56.649 Y123.174 E120.99276
G0 F3000 X56.649 Y122.382
G1 F1500 X57.617 Y123.349 E121.08833
G0 F3000 X58.409 Y123.349
G1 F1500 X56.649 Y121.59 E121.26213
G0 F3000 X56.649 Y120.798
G1 F1500 X59.201 Y123.349 E121.51416
G0 F3000 X59.993 Y123.349
G1 F1500 X56.649 Y120.006 E121.84442
G0 F3000 X56.649 Y119.214
G1 F1500 X60.785 Y123.349 E122.25292
G0 F3000 X61.576 Y123.349
G1 F1500 X56.649 Y118.422 E122.73959
G0 F3000 X56.649 Y117.63
G1 F1500 X62.368 Y123.349 E123.3045
G0 F3000 X63.16 Y123.349
G1 F1500 X56.649 Y116.838 E123.94764
G0 F3000 X56.649 Y116.046
G1 F1500 X63.952 Y123.349 E124.66902
G0 F3000 X64.744 Y123.349
G1 F1500 X56.649 Y115.254 E125.46862
G0 F3000 X56.649 Y114.462
G1 F1500 X65.536 Y123.349 E126.34646
G0 F3000 X66.328 Y123.349
G1 F1500 X56.649 Y113.67 E127.30253
G0 F3000 X56.649 Y112.878
G1 F1500 X67.12 Y123.349 E128.33683
G0 F3000 X67.912 Y123.349
G1 F1500 X56.649 Y112.087 E129.44931
G0 F3000 X56.649 Y111.295
G1 F1500 X68.704 Y123.349 E130.64002
G0 F3000 X69.496 Y123.349
G1 F1500 X56.649 Y110.503 E131.90897
G0 F3000 X56.649 Y109.711
G1 F1500 X70.288 Y123.349 E133.25615
G0 F3000 X71.08 Y123.349
G1 F1500 X56.649 Y108.919 E134.68156
G0 F3000 X56.649 Y108.127
G1 F1500 X71.872 Y123.349 E136.1852
G0 F3000 X72.664 Y123.349
G1 F1500 X56.649 Y107.335 E137.76707
G0 F3000 X56.649 Y106.543
G1 F1500 X73.456 Y123.349 E139.42717
G0 F3000 X74.248 Y123.349
G1 F1500 X56.649 Y105.751 E141.16551
G0 F3000 X56.649 Y104.959
G1 F1500 X75.04 Y123.349 E142.98208
G0 F3000 X75.832 Y123.349
G1 F1500 X56.649 Y104.167 E144.87688
G0 F3000 X56.649 Y103.375
G1 F1500 X76.624 Y123.349 E146.84991
G0 F3000 X77.416 Y123.349
G1 F1500 X56.649 Y102.583 E148.90118
G0 F3000 X56.649 Y101.791
G1 F1500 X78.208 Y123.349 E151.03067
G0 F3000 X79 Y123.349
G1 F1500 X56.649 Y100.999 E153.2384
G0 F3000 X56.649 Y100.207
G1 F1500 X79.792 Y123.349 E155.52436
G0 F3000 X80.584 Y123.349
G1 F1500 X56.649 Y99.415 E157.88855
G0 F3000 X56.649 Y98.623
G1 F1500 X81.375 Y123.349 E160.33093
G0 F3000 X82.167 Y123.349
G1 F1500 X56.649 Y97.831 E162.85153
G0 F3000 X56.649 Y97.039
G1 F1500 X82.959 Y123.349 E165.45037
G0 F3000 X83.751 Y123.349
G1 F1500 X56.649 Y96.247 E168.12744
G0 F3000 X56.649 Y95.455
G1 F1500 X84.543 Y123.349 E170.88274
G0 F3000 X85.335 Y123.349
G1 F1500 X56.649 Y94.663 E173.71627
G0 F3000 X56.649 Y93.871
G1 F1500 X86.127 Y123.349 E176.62804
G0 F3000 X86.919 Y123.349
G1 F1500 X56.649 Y93.08 E179.61799
G0 F3000 X56.649 Y92.288
G1 F1500 X87.711 Y123.349 E182.68617
G0 F3000 X88.503 Y123.349
G1 F1500 X56.649 Y91.496 E185.83258
G0 F3000 X56.649 Y90.704
G1 F1500 X89.295 Y123.349 E189.05722
G0 F3000 X90.087 Y123.349
G1 F1500 X56.649 Y89.912 E192.36009
G0 F3000 X56.649 Y89.12
G1 F1500 X90.879 Y123.349 E195.7412
G0 F3000 X91.671 Y123.349
G1 F1500 X56.649 Y88.328 E199.20054
G0 F3000 X56.649 Y87.536
G1 F1500 X92.463 Y123.349 E202.73811
G0 F3000 X93.255 Y123.349
G1 F1500 X56.649 Y86.744 E206.35391
G0 F3000 X56.649 Y85.952
G1 F1500 X94.047 Y123.349 E210.04795
G0 F3000 X94.839 Y123.349
G1 F1500 X56.649 Y85.16 E213.82021
G0 F3000 X56.649 Y84.368
G1 F1500 X95.631 Y123.349 E217.67071
G0 F3000 X96.423 Y123.349
G1 F1500 X56.649 Y83.576 E221.59944
G0 F3000 X56.649 Y82.784
G1 F1500 X97.215 Y123.349 E225.6064
G0 F3000 X98.007 Y123.349
G1 F1500 X56.649 Y81.992 E229.69159
G0 F3000 X56.649 Y81.2
G1 F1500 X98.799 Y123.349 E233.85502
G0 F3000 X99.591 Y123.349
G1 F1500 X56.649 Y80.408 E238.09667
G0 F3000 X56.649 Y79.616
G1 F1500 X100.382 Y123.349 E242.41651
G0 F3000 X101.174 Y123.349
G1 F1500 X56.649 Y78.824 E246.81458
G0 F3000 X56.649 Y78.032
G1 F1500 X101.966 Y123.349 E251.29089
G0 F3000 X102.758 Y123.349
G1 F1500 X56.649 Y77.24 E255.84542
G0 F3000 X56.649 Y76.448
G1 F1500 X103.55 Y123.349 E260.47819
G0 F3000 X104.342 Y123.349
G1 F1500 X56.649 Y75.656 E265.18919
G0 F3000 X56.649 Y74.864
G1 F1500 X105.134 Y123.349 E269.97842
G0 F3000 X105.926 Y123.349
G1 F1500 X56.649 Y74.072 E274.84588
G0 F3000 X56.649 Y73.281
G1 F1500 X106.718 Y123.349 E279.79152
G0 F3000 X107.51 Y123.349
G1 F1500 X56.649 Y72.489 E284.8154
G0 F3000 X56.649 Y71.697
G1 F1500 X108.302 Y123.349 E289.91751
G0 F3000 X109.094 Y123.349
G1 F1500 X56.649 Y70.905 E295.09785
G0 F3000 X56.649 Y70.113
G1 F1500 X109.886 Y123.349 E300.35642
G0 F3000 X110.678 Y123.349
G1 F1500 X56.649 Y69.321 E305.69322
G0 F3000 X56.649 Y68.529
G1 F1500 X111.47 Y123.349 E311.10826
G0 F3000 X112.262 Y123.349
G1 F1500 X56.649 Y67.737 E316.60152
G0 F3000 X56.649 Y66.945
G1 F1500 X113.054 Y123.349 E322.17302
G0 F3000 X113.846 Y123.349
G1 F1500 X56.649 Y66.153 E327.82275
G0 F3000 X56.649 Y65.361
G1 F1500 X114.638 Y123.349 E333.55072
G0 F3000 X115.43 Y123.349
G1 F1500 X56.649 Y64.569 E339.35691
G0 F3000 X56.649 Y63.777
G1 F1500 X116.222 Y123.349 E345.24134
G0 F3000 X117.014 Y123.349
G1 F1500 X56.649 Y62.985 E351.20399
G0 F3000 X56.649 Y62.193
G1 F1500 X117.806 Y123.349 E357.24488
G0 F3000 X118.598 Y123.349
G1 F1500 X56.649 Y61.401 E363.36401
G0 F3000 X56.649 Y60.609
G1 F1500 X119.39 Y123.349 E369.56136
G0 F3000 X120.181 Y123.349
G1 F1500 X56.649 Y59.817 E375.8369
G0 F3000 X56.649 Y59.025
G1 F1500 X120.973 Y123.349 E382.19066
G0 F3000 X121.765 Y123.349
G1 F1500 X56.649 Y58.233 E388.62266
G0 F3000 X56.649 Y57.441
G1 F1500 X122.557 Y123.349 E395.1329
G0 F3000 X123.349 Y123.349
G1 F1500 X56.649 Y56.649 E401.72136
G0 F3000 X57.441 Y56.649
G1 F1500 X123.349 Y122.557 E408.23159
G0 F3000 X123.349 Y121.765
G1 F1500 X58.233 Y56.649 E414.66359
G0 F3000 X59.025 Y56.649
G1 F1500 X123.349 Y120.973 E421.01736
G0 F3000 X123.349 Y120.181
G1 F1500 X59.817 Y56.649 E427.29289
G0 F3000 X60.609 Y56.649
G1 F1500 X123.349 Y119.39 E433.49025
G0 F3000 X123.349 Y118.598
G1 F1500 X61.401 Y56.649 E439.60937
G0 F3000 X62.193 Y56.649
G1 F1500 X123.349 Y117.806 E445.65026
G0 F3000 X123.349 Y117.014
G1 F1500 X62.985 Y56.649 E451.61292
G0 F3000 X63.777 Y56.649
G1 F1500 X123.349 Y116.222 E457.49734
G0 F3000 X123.349 Y115.43
G1 F1500 X64.569 Y56.649 E463.30354
G0 F3000 X65.361 Y56.649
G1 F1500 X123.349 Y114.638 E469.0315
G0 F3000 X123.349 Y113.846
G1 F1500 X66.153 Y56.649 E474.68123
G0 F3000 X66.945 Y56.649
G1 F1500 X123.349 Y113.054 E480.25273
G0 F3000 X123.349 Y112.262
G1 F1500 X67.737 Y56.649 E485.746
G0 F3000 X68.529 Y56.649
G1 F1500 X123.349 Y111.47 E491.16103
G0 F3000 X123.349 Y110.678
G1 F1500 X69.321 Y56.649 E496.49784
G0 F3000 X70.113 Y56.649
G1 F1500 X123.349 Y109.886 E501.75641
G0 F3000 X123.349 Y109.094
G1 F1500 X70.905 Y56.649 E506.93675
G0 F3000 X71.697 Y56.649
G1 F1500 X123.349 Y108.302 E512.03886
G0 F3000 X123.349 Y107.51
G1 F1500 X72.489 Y56.649 E517.06273
G0 F3000 X73.281 Y56.649
G1 F1500 X123.349 Y106.718 E522.00838
G0 F3000 X123.349 Y105.926
G1 F1500 X74.072 Y56.649 E526.87584
G0 F3000 X74.864 Y56.649
G1 F1500 X123.349 Y105.134 E531.66507
G0 F3000 X123.349 Y104.342
G1 F1500 X75.656 Y56.649 E536.37607
G0 F3000 X76.448 Y56.649
G1 F1500 X123.349 Y103.55 E541.00883
G0 F3000 X123.349 Y102.758
G1 F1500 X77.24 Y56.649 E545.56337
G0 F3000 X78.032 Y56.649
G1 F1500 X123.349 Y101.966 E550.03967
G0 F3000 X123.349 Y101.174
G1 F1500 X78.824 Y56.649 E554.43774
G0 F3000 X79.616 Y56.649
G1 F1500 X123.349 Y100.382 E558.75758
G0 F3000 X123.349 Y99.591
G1 F1500 X80.408 Y56.649 E562.99924
G0 F3000 X81.2 Y56.649
G1 F1500 X123.349 Y98.799 E567.16266
G0 F3000 X123.349 Y98.007
G1 F1500 X81.992 Y56.649 E571.24785
G0 F3000 X82.784 Y56.649
G1 F1500 X123.349 Y97.215 E575.25482
G0 F3000 X123.349 Y96.423
G1 F1500 X83.576 Y56.649 E579.18355
G0 F3000 X84.368 Y56.649
G1 F1500 X123.349 Y95.631 E583.03404
G0 F3000 X123.349 Y94.839
G1 F1500 X85.16 Y56.649 E586.80631
G0 F3000 X85.952 Y56.649
G1 F1500 X123.349 Y94.047 E590.50034
G0 F3000 X123.349 Y93.255
G1 F1500 X86.744 Y56.649 E594.11614
G0 F3000 X87.536 Y56.649
G1 F1500 X123.349 Y92.463 E597.65371
G0 F3000 X123.349 Y91.671
G1 F1500 X88.328 Y56.649 E601.11305
G0 F3000 X89.12 Y56.649
G1 F1500 X123.349 Y90.879 E604.49416
G0 F3000 X123.349 Y90.087
G1 F1500 X89.912 Y56.649 E607.79703
G0 F3000 X90.704 Y56.649
G1 F1500 X123.349 Y89.295 E611.02168
G0 F3000 X123.349 Y88.503
G1 F1500 X91.496 Y56.649 E614.16809
G0 F3000 X92.288 Y56.649
G1 F1500 X123.349 Y87.711 E617.23627
G0 F3000 X123.349 Y86.919
G1 F1500 X93.08 Y56.649 E620.22621
G0 F3000 X93.871 Y56.649
G1 F1500 X123.349 Y86.127 E623.13798
G0 F3000 X123.349 Y85.335
G1 F1500 X94.663 Y56.649 E625.97151
G0 F3000 X95.455 Y56.649
G1 F1500 X123.349 Y84.543 E628.72681
G0 F3000 X123.349 Y83.751
G1 F1500 X96.247 Y56.649 E631.40388
G0 F3000 X97.039 Y56.649
G1 F1500 X123.349 Y82.959 E634.00272
G0 F3000 X123.349 Y82.167
G1 F1500 X97.831 Y56.649 E636.52333
G0 F3000 X98.623 Y56.649
G1 F1500 X123.349 Y81.375 E638.9657
G0 F3000 X123.349 Y80.584
G1 F1500 X99.415 Y56.649 E641.32989
G0 F3000 X100.207 Y56.649
G1 F1500 X123.349 Y79.792 E643.61585
G0 F3000 X123.349 Y79
G1 F1500 X100.999 Y56.649 E645.82358
G0 F3000 X101.791 Y56.649
G1 F1500 X123.349 Y78.208 E647.95308
G0 F3000 X123.349 Y77.416
G1 F1500 X102.583 Y56.649 E650.00434
G0 F3000 X103.375 Y56.649
G1 F1500 X123.349 Y76.624 E651.97737
G0 F3000 X123.349 Y75.832
G1 F1500 X104.167 Y56.649 E653.87217
G0 F3000 X104.959 Y56.649
G1 F1500 X123.349 Y75.04 E655.68874
G0 F3000 X123.349 Y74.248
G1 F1500 X105.751 Y56.649 E657.42708
G0 F3000 X106.543 Y56.649
