;FLAVOR:Marlin
;TIME:9247
;Filament used: 13.72m
;Layer height: 0.3
;MINX:49.295
;MINY:49.295
;MINZ:0.3
;MAXX:130.705
;MAXY:130.705
;MAXZ:76.2
;Generated with Cura_SteamEngine 4.12.1
M82 ;absolute extrusion mode
G21 ;metric values
G90 ;absolute positioning
M82 ;set extruder to absolute mode
M107 ;start with the fan off

M104 S200 T0 ; start heating T0 to what is set in Cura
M140 S60 ; start heating the bed to what is set in Cura
M190 S60 ; start heating the bed to what is set in Cura
M109 S200 T0 ; start heating T0 to what is set in Cura

G28 X0 Y0 ;move X/Y to min endstops
G28 Z0 ;move Z to min endstops
G1 Z15.0 F2400 ;move the platform down 15mm
G92 E0 ;zero the extruded length
G1 F200 E3 ;extrude 3mm of feed stock
G92 E0 ;zero the extruded length again
G1 F2400
G0 Y20 F2400
M117 Printing...
G5
G92 E0
G92 E0
G1 F2400 E-1.2
;LAYER_COUNT:254
;LAYER:0
M107
G0 F3000 X50.704 Y50.319 Z0.3
;TYPE:SKIRT
G1 F2400 E0
G1 F1500 X51.16 Y49.973 E0.03255
G1 X51.659 Y49.694 E0.06506
G1 X52.193 Y49.487 E0.09763
G1 X52.75 Y49.356 E0.13017
G1 X53.289 Y49.306 E0.16095
G1 X53.725 Y49.295 E0.18575
G1 X125.957 Y49.295 E4.29329
G1 X126.655 Y49.305 E4.33298
G1 X127.225 Y49.354 E4.36551
G1 X127.783 Y49.481 E4.39806
G1 X128.318 Y49.684 E4.4306
G1 X128.819 Y49.96 E4.46312
G1 X129.278 Y50.303 E4.49571
G1 X129.683 Y50.707 E4.52824
G1 X130.029 Y51.163 E4.56079
G1 X130.308 Y51.663 E4.59335
G1 X130.514 Y52.197 E4.6259
G1 X130.644 Y52.755 E4.65848
G1 X130.694 Y53.29 E4.68903
G1 X130.705 Y53.725 E4.71378
G1 X130.705 Y125.92 E8.81921
G1 X130.696 Y126.647 E8.86055
G1 X130.649 Y127.217 E8.89308
G1 X130.523 Y127.776 E8.92566
G1 X130.32 Y128.311 E8.9582
G1 X130.045 Y128.813 E8.99075
G1 X129.703 Y129.271 E9.02325
G1 X129.3 Y129.678 E9.05583
G1 X128.844 Y130.025 E9.08841
G1 X128.345 Y130.304 E9.12092
G1 X127.811 Y130.512 E9.15351
G1 X127.254 Y130.643 E9.18605
G1 X126.711 Y130.694 E9.21706
G1 X126.275 Y130.705 E9.24186
G1 X54.049 Y130.705 E13.34906
G1 X53.351 Y130.696 E13.38875
G1 X52.781 Y130.648 E13.42128
G1 X52.222 Y130.522 E13.45387
G1 X51.687 Y130.319 E13.48641
G1 X51.185 Y130.044 E13.51895
G1 X50.727 Y129.701 E13.55149
G1 X50.321 Y129.298 E13.58402
G1 X49.974 Y128.843 E13.61656
G1 X49.695 Y128.343 E13.64912
G1 X49.488 Y127.809 E13.68169
G1 X49.357 Y127.252 E13.71423
G1 X49.305 Y126.707 E13.74536
G1 X49.295 Y126.263 E13.77062
G1 X49.295 Y54.014 E17.87912
G1 X49.304 Y53.349 E17.91694
G1 X49.352 Y52.778 E17.94952
G1 X49.479 Y52.22 E17.98207
G1 X49.682 Y51.685 E18.0146
G1 X49.958 Y51.183 E18.04718
G1 X50.3 Y50.725 E18.07969
G1 X50.704 Y50.319 E18.11226
G0 F3000 X51.131 Y50.535
G1 F1500 X51.579 Y50.232 E18.14301
G1 X52.066 Y49.997 E18.17376
G1 X52.583 Y49.837 E18.20454
G1 X53.301 Y49.745 E18.2457
G1 X53.725 Y49.735 E18.26982
G1 X125.95 Y49.735 E22.37695
G1 X126.648 Y49.745 E22.41665
G1 X127.187 Y49.793 E22.44742
G1 X127.713 Y49.92 E22.47819
G1 X128.214 Y50.122 E22.50891
G1 X128.68 Y50.396 E22.53965
G1 X129.101 Y50.736 E22.57043
G1 X129.467 Y51.134 E22.60117
G1 X129.77 Y51.582 E22.63193
G1 X130.004 Y52.07 E22.6627
G1 X130.163 Y52.586 E22.69341
G1 X130.255 Y53.302 E22.73446
G1 X130.265 Y53.725 E22.75852
G1 X130.265 Y125.914 E26.86361
G1 X130.256 Y126.641 E26.90495
G1 X130.209 Y127.18 E26.93572
G1 X130.084 Y127.706 E26.96647
G1 X129.882 Y128.208 E26.99724
G1 X129.609 Y128.674 E27.02795
G1 X129.27 Y129.096 E27.05873
G1 X128.872 Y129.462 E27.08948
G1 X128.425 Y129.766 E27.12022
G1 X127.938 Y130.001 E27.15097
G1 X127.422 Y130.162 E27.18171
G1 X126.699 Y130.255 E27.22316
G1 X126.275 Y130.265 E27.24728
G1 X54.055 Y130.265 E31.35413
G1 X53.357 Y130.256 E31.39382
G1 X52.818 Y130.209 E31.42459
G1 X52.292 Y130.083 E31.45535
G1 X51.791 Y129.881 E31.48607
G1 X51.324 Y129.608 E31.51683
G1 X50.903 Y129.268 E31.5476
G1 X50.537 Y128.871 E31.57831
G1 X50.233 Y128.423 E31.60909
G1 X49.998 Y127.936 E31.63984
G1 X49.838 Y127.42 E31.67056
G1 X49.745 Y126.695 E31.71213
G1 X49.735 Y126.263 E31.7367
G1 X49.735 Y54.019 E35.84492
G1 X49.744 Y53.354 E35.88274
G1 X49.792 Y52.816 E35.91345
G1 X49.918 Y52.29 E35.94421
G1 X50.12 Y51.788 E35.97498
G1 X50.394 Y51.322 E36.00572
G1 X50.733 Y50.901 E36.03646
G1 X51.131 Y50.535 E36.06721
G0 F3000 X51.165 Y51.09
G1 F1500 X51.556 Y50.767 E36.09605
G1 X51.993 Y50.51 E36.12488
G1 X52.465 Y50.324 E36.15373
G1 X52.96 Y50.215 E36.18255
G1 X53.635 Y50.176 E36.221
G1 X125.944 Y50.175 E40.33291
G1 X126.642 Y50.185 E40.37261
G1 X127.147 Y50.233 E40.40145
G1 X127.638 Y50.358 E40.43027
G1 X128.104 Y50.56 E40.45915
G1 X128.532 Y50.832 E40.48798
G1 X128.912 Y51.168 E40.51683
G1 X129.234 Y51.559 E40.54563
G1 X129.491 Y51.996 E40.57446
G1 X129.677 Y52.468 E40.60331
G1 X129.786 Y52.964 E40.63219
G1 X129.824 Y53.634 E40.67035
G1 X129.825 Y125.909 E44.78033
G1 X129.816 Y126.636 E44.82168
G1 X129.77 Y127.141 E44.85051
G1 X129.645 Y127.632 E44.87932
G1 X129.444 Y128.098 E44.90818
G1 X129.173 Y128.527 E44.93704
G1 X128.838 Y128.907 E44.96585
G1 X128.447 Y129.231 E44.99472
G1 X128.01 Y129.489 E45.02358
G1 X127.539 Y129.675 E45.05238
G1 X127.044 Y129.785 E45.08121
G1 X126.365 Y129.824 E45.11989
G1 X54.06 Y129.825 E49.23157
G1 X53.362 Y129.816 E49.27127
G1 X52.857 Y129.769 E49.30011
G1 X52.366 Y129.644 E49.32892
G1 X51.9 Y129.443 E49.35778
G1 X51.472 Y129.172 E49.38659
G1 X51.091 Y128.837 E49.41544
G1 X50.768 Y128.446 E49.44428
G1 X50.511 Y128.009 E49.47311
G1 X50.325 Y127.537 E49.50196
G1 X50.215 Y127.042 E49.53079
G1 X50.176 Y126.35 E49.57021
G1 X50.175 Y54.025 E53.68303
G1 X50.184 Y53.36 E53.72085
G1 X50.231 Y52.855 E53.74969
G1 X50.357 Y52.364 E53.77852
G1 X50.558 Y51.898 E53.80737
G1 X50.829 Y51.47 E53.83618
G1 X51.165 Y51.09 E53.86503
G1 F2400 E52.66503
;MESH:rgb_led_bot_v14.stl
G0 F3000 X54.935 Y54.935
;TYPE:WALL-INNER
G1 F2400 E53.86503
G1 F1500 X56.46 Y54.935 E53.95175
G1 X56.46 Y56.46 E54.03847
G1 X54.935 Y56.46 E54.12519
G1 X54.935 Y54.935 E54.21191
G1 F2400 E53.01191
G0 F3000 X54.935 Y123.54
G1 F2400 E54.21191
G1 F1500 X56.46 Y123.54 E54.29863
G1 X56.46 Y125.065 E54.38535
G1 X54.935 Y125.065 E54.47207
G1 X54.935 Y123.54 E54.55879
G1 F2400 E53.35879
G0 F3000 X123.54 Y123.54
G1 F2400 E54.55879
G1 F1500 X125.065 Y123.54 E54.64551
G1 X125.065 Y125.065 E54.73223
G1 X123.54 Y125.065 E54.81895
G1 X123.54 Y123.54 E54.90567
G1 F2400 E53.70567
G0 F3000 X123.54 Y54.935
G1 F2400 E54.90567
G1 F1500 X125.065 Y54.935 E54.99239
G1 X125.065 Y56.46 E55.07911
G1 X123.54 Y56.46 E55.16583
G1 X123.54 Y54.935 E55.25255
G0 F3000 X123.1 Y54.495
G1 F1500 X125.505 Y54.495 E55.38932
G1 X125.505 Y56.9 E55.52608
G1 X125.505 Y123.1 E59.2906
G1 X125.505 Y125.505 E59.42736
G1 X123.1 Y125.505 E59.56412
G1 X56.9 Y125.505 E63.32864
G1 X54.495 Y125.505 E63.4654
G1 X54.495 Y123.1 E63.60217
G1 X54.495 Y56.9 E67.36669
G1 X54.495 Y54.495 E67.50345
G1 X56.9 Y54.495 E67.64021
G1 X123.1 Y54.495 E71.40473
G0 F3000 X122.66 Y54.959
G1 F1500 X57.34 Y54.96 E75.11921
G1 X57.34 Y57.34 E75.25455
G1 X54.96 Y57.34 E75.38989
G1 X54.96 Y122.66 E79.10437
G1 X57.34 Y122.66 E79.23971
G1 X57.34 Y125.041 E79.3751
G1 X122.66 Y125.041 E83.08958
G1 X122.66 Y122.66 E83.22498
G1 X125.04 Y122.66 E83.36032
G1 X125.039 Y57.34 E87.0748
G1 X122.66 Y57.34 E87.21008
G1 X122.66 Y54.959 E87.34548
G0 F3000 X122.22 Y55.399
;TYPE:WALL-OUTER
G1 F1500 X57.78 Y55.4 E91.00991
G1 X57.78 Y57.598 E91.13491
G1 X122.22 Y57.598 E94.79934
G1 X122.22 Y55.399 E94.92439
G0 F3000 X122.02 Y55.399
G0 X122.021 Y54.915
G1 F2400 E93.72439
G0 F3000 X121.961 Y58.038
;TYPE:WALL-INNER
G1 F2400 E94.92439
G1 F1500 X121.961 Y121.962 E98.55948
G1 X58.039 Y121.961 E102.19446
G1 X58.04 Y58.038 E105.8295
G1 X121.961 Y58.038 E109.46442
G1 F2400 E108.26442
G0 F3000 X124.599 Y57.78
;TYPE:WALL-OUTER
G1 F2400 E109.46442
G1 F1500 X122.401 Y57.78 E109.58941
G1 X122.401 Y122.22 E113.25384
G1 X124.6 Y122.22 E113.37889
G1 X124.599 Y57.78 E117.04333
G0 F3000 X124.399 Y57.78
G0 X124.399 Y57.296
G1 F2400 E115.84333
G0 F3000 X119.742 Y64.702
;TYPE:WALL-INNER
G1 F2400 E117.04333
G1 F1500 X104.9 Y79.545 E118.23697
G1 X104.9 Y100.48 E119.42746
G1 X119.78 Y114.295 E120.58208
G1 X121.1 Y113.72 E120.66396
G1 X121.1 Y65.265 E123.41939
G1 X119.742 Y64.702 E123.50299
G0 F3000 X119.845 Y65.221
G1 F1500 X105.34 Y79.727 E124.66953
G1 X105.34 Y100.288 E125.83875
G1 X119.868 Y113.777 E126.96609
G1 X120.66 Y113.432 E127.01522
G1 X120.66 Y65.559 E129.73756
G1 X119.845 Y65.221 E129.78773
G0 F3000 X119.948 Y65.74
;TYPE:WALL-OUTER
G1 F1500 X105.78 Y79.909 E130.92717
G1 X105.78 Y100.096 E132.07512
G1 X119.956 Y113.259 E133.17518
G1 X120.22 Y113.144 E133.19155
G1 X120.22 Y65.853 E135.8808
G1 X119.948 Y65.74 E135.89755
G0 F3000 X119.807 Y65.881
G0 X119.466 Y65.539
G1 F2400 E134.69755
G0 F3000 X113.72 Y58.9
;TYPE:WALL-INNER
G1 F2400 E135.89755
G1 F1500 X65.265 Y58.9 E138.65298
G1 X64.702 Y60.258 E138.73658
G1 X79.545 Y75.1 E139.93022
G1 X84.1 Y75.1 E140.18924
G1 X84.1 Y68.6 E140.55887
G1 X85.24 Y68.6 E140.6237
G1 X85.172 Y68.748 E140.63296
G1 X85.039 Y69.425 E140.67219
G1 X85.054 Y70.112 E140.71127
G1 X85.218 Y70.783 E140.75055
G1 X85.538 Y71.399 E140.79002
G1 X86.023 Y71.921 E140.83054
G1 X86.649 Y72.258 E140.87097
G1 X87.273 Y72.349 E140.90683
G1 X87.093 Y72.572 E140.92313
G1 X86.771 Y73.175 E140.962
G1 X86.575 Y73.831 E141.00093
G1 X86.51 Y74.51 E141.03972
G1 X86.58 Y75.194 E141.07882
G1 X86.78 Y75.846 E141.1176
G1 X87.104 Y76.448 E141.15648
G1 X87.533 Y76.969 E141.19486
G1 X88.062 Y77.403 E141.23377
G1 X88.665 Y77.723 E141.27259
G1 X89.318 Y77.924 E141.31144
G1 X90 Y77.99 E141.35041
G1 X90.682 Y77.924 E141.38937
G1 X91.335 Y77.723 E141.42822
G1 X91.938 Y77.403 E141.46704
G1 X92.469 Y76.969 E141.50604
G1 X92.903 Y76.438 E141.54504
G1 X93.223 Y75.835 E141.58386
G1 X93.424 Y75.182 E141.62271
G1 X93.49 Y74.5 E141.66167
G1 X93.424 Y73.818 E141.70064
G1 X93.223 Y73.165 E141.73949
G1 X92.903 Y72.56 E141.77841
G1 X92.729 Y72.35 E141.79392
G1 X92.934 Y72.35 E141.79624
G1 X93.596 Y72.171 E141.83523
G1 X94.172 Y71.776 E141.87495
G1 X94.622 Y71.186 E141.91715
G1 X94.882 Y70.544 E141.95654
G1 X94.993 Y69.861 E141.99588
G1 X94.952 Y69.185 E142.0344
G1 X94.789 Y68.6 E142.06893
G1 X95.9 Y68.6 E142.13211
G1 X95.9 Y75.1 E142.50174
G1 X100.48 Y75.1 E142.76218
G1 X114.295 Y60.22 E143.91681
G1 X113.72 Y58.9 E143.99868
G0 F3000 X113.432 Y59.34
G1 F1500 X65.559 Y59.34 E146.72102
G1 X65.221 Y60.155 E146.7712
G1 X79.727 Y74.66 E147.93773
G1 X83.66 Y74.66 E148.16139
G1 X83.66 Y68.16 E148.53102
G1 X85.996 Y68.16 E148.66385
G1 X85.836 Y68.353 E148.67811
G1 X85.594 Y68.884 E148.71129
G1 X85.48 Y69.463 E148.74485
G1 X85.493 Y70.054 E148.77847
G1 X85.633 Y70.627 E148.81201
G1 X85.901 Y71.143 E148.84508
G1 X86.296 Y71.568 E148.87807
G1 X86.797 Y71.838 E148.91043
G1 X87.175 Y71.909 E148.9323
G1 X88.415 Y71.909 E149.00282
G1 X88.298 Y71.973 E149.0104
G1 X87.837 Y72.352 E149.04434
G1 X87.461 Y72.816 E149.0783
G1 X87.18 Y73.343 E149.11226
G1 X87.009 Y73.916 E149.14627
G1 X86.952 Y74.509 E149.18014
G1 X87.013 Y75.106 E149.21427
G1 X87.188 Y75.676 E149.24818
G1 X87.471 Y76.202 E149.28214
G1 X87.845 Y76.656 E149.31559
G1 X88.307 Y77.035 E149.34957
G1 X88.834 Y77.315 E149.38351
G1 X89.405 Y77.49 E149.41747
G1 X90 Y77.548 E149.45146
G1 X90.595 Y77.49 E149.48546
G1 X91.166 Y77.315 E149.51942
G1 X91.693 Y77.035 E149.55336
G1 X92.156 Y76.656 E149.58738
G1 X92.535 Y76.193 E149.62141
G1 X92.815 Y75.666 E149.65534
G1 X92.99 Y75.095 E149.6893
G1 X93.048 Y74.5 E149.7233
G1 X92.99 Y73.905 E149.75729
G1 X92.815 Y73.334 E149.79126
G1 X92.535 Y72.806 E149.82524
G1 X92.147 Y72.337 E149.85986
G1 X91.684 Y71.962 E149.89374
G1 X91.586 Y71.91 E149.90005
G1 X92.147 Y71.91 E149.91786
G1 X92.876 Y71.91 E149.95932
G1 X93.409 Y71.766 E149.99071
G1 X93.865 Y71.453 E150.02217
G1 X94.236 Y70.966 E150.05698
G1 X94.456 Y70.424 E150.09024
G1 X94.551 Y69.839 E150.12395
G1 X94.516 Y69.258 E150.15705
G1 X94.358 Y68.692 E150.19046
G1 X94.071 Y68.186 E150.22354
G1 X94.044 Y68.16 E150.22567
G1 X96.34 Y68.16 E150.35624
G1 X96.34 Y74.66 E150.72587
G1 X100.288 Y74.66 E150.95037
G1 X113.777 Y60.132 E152.07772
G1 X113.432 Y59.34 E152.12684
G0 F3000 X113.144 Y59.78
;TYPE:WALL-OUTER
G1 F1500 X65.853 Y59.78 E154.81609
G1 X65.74 Y60.052 E154.83283
G1 X79.909 Y74.22 E155.97227
G1 X83.22 Y74.22 E156.16055
G1 X83.22 Y67.72 E156.53018
G1 X86.864 Y67.72 E156.7374
G1 X92.872 Y67.72 E157.07905
G1 X93.402 Y67.72 E157.10919
G1 X96.78 Y67.72 E157.30128
G1 X96.78 Y74.22 E157.67091
G1 X100.096 Y74.22 E157.85948
G1 X113.259 Y60.044 E158.95954
G1 X113.144 Y59.78 E158.97592
G0 F3000 X112.944 Y59.78
G0 X112.944 Y59.296
G1 F2400 E157.77592
G0 F3000 X93.949 Y68.862
G1 F2400 E158.97592
G1 F1500 X93.719 Y68.457 E159.0024
G1 X93.402 Y68.146 E159.02765
G1 X93.017 Y67.964 E159.04581
G1 X92.872 Y67.936
G1 X87.301 Y67.93 E159.19276
G1 X86.864 Y68.012 E159.21805
G1 X86.5 Y68.242 E159.24253
G1 X86.212 Y68.589 E159.26818
G1 X86.016 Y69.02 E159.2951
G1 X85.921 Y69.501 E159.32298
G1 X85.932 Y69.996 E159.35114
G1 X86.048 Y70.471 E159.37894
G1 X86.264 Y70.887 E159.4056
G1 X86.569 Y71.215 E159.43107
G1 X86.946 Y71.418 E159.45542
G1 X87.216 Y71.469 E159.47104
G1 X89.991 Y71.469 E159.62884
G1 X92.818 Y71.47 E159.7896
G1 X93.222 Y71.361 E159.8134
G1 X93.558 Y71.13 E159.83659
G1 X93.85 Y70.746 E159.86402
G1 X94.03 Y70.304 E159.89116
G1 X94.109 Y69.817 E159.91921
G1 X94.08 Y69.331 E159.9469
G1 X93.949 Y68.862 E159.97459
G0 F3000 X93.851 Y68.688
G0 X94.272 Y68.45
G1 F2400 E158.77459
G0 F3000 X91.44 Y72.33
G1 F2400 E159.97459
G1 F1500 X90.989 Y72.089 E160.00367
G1 X90.499 Y71.944 E160.03273
G1 X89.991 Y71.895 E160.06175
G1 X89.483 Y71.947 E160.09079
G1 X88.994 Y72.096 E160.11986
G1 X88.545 Y72.34 E160.14892
G1 X88.151 Y72.664 E160.17792
G1 X87.829 Y73.06 E160.20695
G1 X87.589 Y73.511 E160.236
G1 X87.443 Y74.001 E160.26507
G1 X87.394 Y74.508 E160.29404
G1 X87.446 Y75.018 E160.32319
G1 X87.596 Y75.506 E160.35222
G1 X87.838 Y75.956 E160.38128
G1 X88.157 Y76.343 E160.4098
G1 X88.552 Y76.667 E160.43885
G1 X89.003 Y76.907 E160.4679
G1 X89.492 Y77.056 E160.49697
G1 X90 Y77.106 E160.526
G1 X90.508 Y77.056 E160.55503
G1 X90.997 Y76.907 E160.5841
G1 X91.448 Y76.667 E160.61315
G1 X91.843 Y76.343 E160.6422
G1 X92.167 Y75.948 E160.67125
G1 X92.407 Y75.497 E160.7003
G1 X92.556 Y75.008 E160.72937
G1 X92.606 Y74.5 E160.7584
G1 X92.556 Y73.992 E160.78743
G1 X92.407 Y73.503 E160.8165
G1 X92.167 Y73.052 E160.84555
G1 X91.836 Y72.651 E160.87512
G1 X91.44 Y72.33 E160.90411
G0 F3000 X91.264 Y72.236
G1 F2400 E159.70411
G0 F3000 X99.94 Y80.06
;TYPE:WALL-INNER
G1 F2400 E160.90411
G1 F1500 X80.06 Y80.06 E162.0346
G1 X80.06 Y99.94 E163.16509
G1 X99.94 Y99.94 E164.29559
G1 X99.94 Y80.06 E165.42608
G0 F3000 X99.5 Y80.5
G1 F1500 X80.5 Y80.5 E166.50653
G1 X80.5 Y99.5 E167.58698
G1 X99.5 Y99.5 E168.66743
G1 X99.5 Y80.5 E169.74788
G0 F3000 X99.06 Y80.94
G1 F1500 X80.94 Y80.94 E170.77829
G1 X80.94 Y99.06 E171.8087
G1 X99.06 Y99.06 E172.83911
G1 X99.06 Y80.94 E173.86952
G0 F3000 X98.62 Y81.38
;TYPE:WALL-OUTER
G1 F1500 X81.38 Y81.38 E174.84989
G1 X81.38 Y98.62 E175.83025
G1 X98.62 Y98.62 E176.81062
G1 X98.62 Y81.38 E177.79099
G0 F3000 X98.42 Y81.38
G0 X98.42 Y80.896
G1 F2400 E176.59099
G0 F3000 X91.928 Y102.594
;TYPE:WALL-INNER
G1 F2400 E177.79099
G1 F1500 X91.325 Y102.271 E177.82989
G1 X90.667 Y102.076 E177.86891
G1 X89.99 Y102.011 E177.90759
G1 X89.309 Y102.081 E177.94652
G1 X88.652 Y102.28 E177.98556
G1 X88.053 Y102.606 E178.02434
G1 X87.531 Y103.031 E178.06262
G1 X87.097 Y103.563 E178.10166
G1 X86.777 Y104.165 E178.14043
G1 X86.576 Y104.818 E178.17928
G1 X86.51 Y105.5 E178.21824
G1 X86.576 Y106.183 E178.25726
G1 X86.777 Y106.835 E178.29606
G1 X87.097 Y107.438 E178.33488
G1 X87.271 Y107.651 E178.35052
G1 X87.109 Y107.651 E178.35118
G1 X86.465 Y107.806 E178.38885
G1 X85.865 Y108.215 E178.43014
G1 X85.427 Y108.764 E178.47008
G1 X85.143 Y109.449 E178.51225
G1 X85.032 Y110.129 E178.55143
G1 X85.069 Y110.81 E178.59021
G1 X85.229 Y111.4 E178.62498
G1 X84.1 Y111.4 E178.68918
G1 X84.1 Y104.9 E179.05881
G1 X79.52 Y104.9 E179.31925
G1 X65.705 Y119.78 E180.47388
G1 X66.28 Y121.1 E180.55575
G1 X114.735 Y121.1 E183.31119
G1 X115.298 Y119.742 E183.39479
G1 X100.455 Y104.9 E184.58843
G1 X95.9 Y104.9 E184.84745
G1 X95.9 Y111.4 E185.21708
