;FLAVOR:Marlin
;TIME:1520
;Filament used: 1.76779m
;Layer height: 0.3
;MINX:50.52
;MINY:52.9
;MINZ:0.3
;MAXX:129.38
;MAXY:127.1
;MAXZ:0.9
;Generated with Cura_SteamEngine 4.12.1
M82 ;absolute extrusion mode
G21 ;metric values
G90 ;absolute positioning
M82 ;set extruder to absolute mode
M107 ;start with the fan off

M104 S200 T0 ; start heating T0 to what is set in Cura
M140 S60 ; start heating the bed to what is set in Cura
M190 S60 ; start heating the bed to what is set in Cura
M109 S200 T0 ; start heating T0 to what is set in Cura

G28 X0 Y0 ;move X/Y to min endstops
G28 Z0 ;move Z to min endstops
G1 Z15.0 F2400 ;move the platform down 15mm
G92 E0 ;zero the extruded length
G1 F200 E3 ;extrude 3mm of feed stock
G92 E0 ;zero the extruded length again
G1 F2400
G0 Y20 F2400
M117 Printing...
G5
G92 E0
G92 E0
G1 F2400 E-1.2
;LAYER_COUNT:3
;LAYER:0
M107
G0 F3000 X51.929 Y53.924 Z0.3
;TYPE:SKIRT
G1 F2400 E0
G1 F1500 X52.385 Y53.578 E0.03255
G1 X52.884 Y53.299 E0.06506
G1 X53.418 Y53.092 E0.09763
G1 X53.975 Y52.961 E0.13017
G1 X54.514 Y52.911 E0.16095
G1 X54.95 Y52.9 E0.18575
G1 X124.632 Y52.9 E4.14828
G1 X125.33 Y52.91 E4.18797
G1 X125.9 Y52.959 E4.22051
G1 X126.458 Y53.086 E4.25305
G1 X126.993 Y53.289 E4.28559
G1 X127.494 Y53.565 E4.31812
G1 X127.953 Y53.908 E4.3507
G1 X128.358 Y54.312 E4.38323
G1 X128.704 Y54.768 E4.41578
G1 X128.983 Y55.268 E4.44834
G1 X129.189 Y55.802 E4.48089
G1 X129.319 Y56.36 E4.51347
G1 X129.369 Y56.895 E4.54402
G1 X129.38 Y57.33 E4.56877
G1 X129.38 Y122.315 E8.2642
G1 X129.371 Y123.042 E8.30554
G1 X129.324 Y123.612 E8.33806
G1 X129.198 Y124.171 E8.37065
G1 X128.995 Y124.706 E8.40319
G1 X128.72 Y125.208 E8.43574
G1 X128.378 Y125.666 E8.46824
G1 X127.975 Y126.073 E8.50081
G1 X127.519 Y126.42 E8.5334
G1 X127.02 Y126.699 E8.56591
G1 X126.486 Y126.907 E8.5985
G1 X125.929 Y127.038 E8.63104
G1 X125.386 Y127.089 E8.66205
G1 X124.95 Y127.1 E8.68685
G1 X55.274 Y127.1 E12.64904
G1 X54.576 Y127.091 E12.68873
G1 X54.006 Y127.043 E12.72126
G1 X53.447 Y126.917 E12.75385
G1 X52.912 Y126.714 E12.78639
G1 X52.41 Y126.439 E12.81894
G1 X51.952 Y126.096 E12.85147
G1 X51.546 Y125.693 E12.88401
G1 X51.199 Y125.238 E12.91654
G1 X50.92 Y124.738 E12.9491
G1 X50.713 Y124.204 E12.98167
G1 X50.582 Y123.647 E13.01421
G1 X50.53 Y123.102 E13.04534
G1 X50.52 Y122.658 E13.0706
G1 X50.52 Y57.619 E16.7691
G1 X50.529 Y56.954 E16.80692
G1 X50.577 Y56.383 E16.8395
G1 X50.704 Y55.825 E16.87204
G1 X50.907 Y55.29 E16.90458
G1 X51.183 Y54.788 E16.93716
G1 X51.525 Y54.33 E16.96966
G1 X51.929 Y53.924 E17.00224
G0 F3000 X52.356 Y54.14
G1 F1500 X52.804 Y53.837 E17.03299
G1 X53.291 Y53.602 E17.06374
G1 X53.808 Y53.442 E17.09452
G1 X54.526 Y53.35 E17.13568
G1 X54.95 Y53.34 E17.1598
G1 X124.625 Y53.34 E21.12192
G1 X125.323 Y53.35 E21.16162
G1 X125.862 Y53.398 E21.19239
G1 X126.388 Y53.525 E21.22316
G1 X126.889 Y53.727 E21.25388
G1 X127.355 Y54.001 E21.28462
G1 X127.776 Y54.341 E21.3154
G1 X128.142 Y54.739 E21.34614
G1 X128.445 Y55.187 E21.3769
G1 X128.679 Y55.675 E21.40768
G1 X128.838 Y56.191 E21.43838
G1 X128.93 Y56.907 E21.47943
G1 X128.94 Y57.33 E21.50349
G1 X128.94 Y122.309 E25.19858
G1 X128.931 Y123.036 E25.23992
G1 X128.884 Y123.575 E25.27069
G1 X128.759 Y124.101 E25.30143
G1 X128.557 Y124.603 E25.3322
G1 X128.284 Y125.069 E25.36292
G1 X127.945 Y125.491 E25.3937
G1 X127.547 Y125.857 E25.42445
G1 X127.1 Y126.161 E25.45519
G1 X126.613 Y126.396 E25.48594
G1 X126.097 Y126.557 E25.51667
G1 X125.374 Y126.65 E25.55813
G1 X124.95 Y126.66 E25.58224
G1 X55.28 Y126.66 E29.54409
G1 X54.582 Y126.651 E29.58378
G1 X54.043 Y126.604 E29.61455
G1 X53.517 Y126.478 E29.64531
G1 X53.016 Y126.276 E29.67603
G1 X52.549 Y126.003 E29.70679
G1 X52.128 Y125.663 E29.73756
G1 X51.762 Y125.266 E29.76827
G1 X51.458 Y124.818 E29.79905
G1 X51.223 Y124.331 E29.8298
G1 X51.063 Y123.815 E29.86052
G1 X50.97 Y123.09 E29.90209
G1 X50.96 Y122.658 E29.92666
G1 X50.96 Y57.624 E33.62488
G1 X50.969 Y56.959 E33.66269
G1 X51.017 Y56.421 E33.69341
G1 X51.143 Y55.895 E33.72417
G1 X51.345 Y55.393 E33.75494
G1 X51.619 Y54.927 E33.78568
G1 X51.958 Y54.506 E33.81642
G1 X52.356 Y54.14 E33.84716
G0 F3000 X52.39 Y54.695
G1 F1500 X52.781 Y54.372 E33.876
G1 X53.218 Y54.115 E33.90483
G1 X53.69 Y53.929 E33.93368
G1 X54.185 Y53.82 E33.96251
G1 X54.86 Y53.781 E34.00095
G1 X124.619 Y53.78 E37.96786
G1 X125.317 Y53.79 E38.00756
G1 X125.822 Y53.838 E38.0364
G1 X126.313 Y53.963 E38.06521
G1 X126.779 Y54.165 E38.0941
G1 X127.207 Y54.437 E38.12293
G1 X127.587 Y54.773 E38.15178
G1 X127.909 Y55.164 E38.18058
G1 X128.166 Y55.601 E38.20941
G1 X128.352 Y56.073 E38.23826
G1 X128.461 Y56.569 E38.26714
G1 X128.499 Y57.239 E38.3053
G1 X128.5 Y122.304 E42.00528
G1 X128.491 Y123.031 E42.04662
G1 X128.445 Y123.536 E42.07546
G1 X128.32 Y124.027 E42.10427
G1 X128.119 Y124.493 E42.13313
G1 X127.848 Y124.922 E42.16199
G1 X127.513 Y125.302 E42.19079
G1 X127.122 Y125.626 E42.21967
G1 X126.685 Y125.884 E42.24853
G1 X126.214 Y126.07 E42.27732
G1 X125.719 Y126.18 E42.30616
G1 X125.04 Y126.219 E42.34483
G1 X55.285 Y126.22 E46.31151
G1 X54.587 Y126.211 E46.35121
G1 X54.082 Y126.164 E46.38005
G1 X53.591 Y126.039 E46.40886
G1 X53.125 Y125.838 E46.43772
G1 X52.697 Y125.567 E46.46653
G1 X52.316 Y125.232 E46.49538
G1 X51.993 Y124.841 E46.52422
G1 X51.736 Y124.404 E46.55305
G1 X51.55 Y123.932 E46.5819
G1 X51.44 Y123.437 E46.61073
G1 X51.401 Y122.745 E46.65014
G1 X51.4 Y57.63 E50.35296
G1 X51.409 Y56.965 E50.39078
G1 X51.456 Y56.46 E50.41963
G1 X51.582 Y55.969 E50.44845
G1 X51.783 Y55.503 E50.47731
G1 X52.054 Y55.075 E50.50612
G1 X52.39 Y54.695 E50.53496
G1 F2400 E49.33496
;MESH:rgb_led_side_v15.stl
G0 F3000 X56.16 Y58.54
;TYPE:WALL-INNER
G1 F2400 E50.53496
G1 F1500 X123.74 Y58.54 E54.37796
G1 X123.74 Y121.46 E57.95596
G1 X56.16 Y121.46 E61.79895
G1 X56.16 Y58.54 E65.37695
G0 F3000 X55.72 Y58.1
G1 F1500 X124.18 Y58.1 E69.26999
G1 X124.18 Y121.9 E72.89803
G1 X55.72 Y121.9 E76.79106
G1 X55.72 Y58.1 E80.4191
G0 F3000 X55.28 Y57.66
G1 F1500 X124.62 Y57.66 E84.36218
G1 X124.62 Y122.34 E88.04027
G1 X55.28 Y122.34 E91.98334
G1 X55.28 Y57.66 E95.66143
G0 F3000 X54.84 Y57.22
;TYPE:WALL-OUTER
G1 F1500 X125.06 Y57.22 E99.65455
G1 X125.06 Y122.78 E103.38267
G1 X54.84 Y122.78 E107.37579
G1 X54.84 Y57.22 E111.10392
G0 F3000 X55.04 Y57.22
G0 X55.324 Y57.704
G1 F2400 E109.90392
G0 F3000 X56.59 Y58.97
;TYPE:SKIN
G1 F2400 E111.10392
G1 F1500 X123.31 Y58.97 E114.97051
G1 X123.31 Y121.03 E118.56704
G1 X56.59 Y121.03 E122.43362
G1 X56.59 Y58.97 E126.03015
G1 F2400 E124.83015
G0 F3000 X57.359 Y120.829
G1 F2400 E126.03015
G1 F1500 X56.789 Y120.259 E126.07687
G0 F3000 X56.789 Y119.637
G1 F1500 X57.982 Y120.829 E126.1746
G0 F3000 X58.604 Y120.829
G1 F1500 X56.789 Y119.015 E126.32331
G0 F3000 X56.789 Y118.393
G1 F1500 X59.226 Y120.829 E126.523
G0 F3000 X59.848 Y120.829
G1 F1500 X56.789 Y117.77 E126.77371
G0 F3000 X56.789 Y117.148
G1 F1500 X60.471 Y120.829 E127.07543
G0 F3000 X61.093 Y120.829
G1 F1500 X56.789 Y116.526 E127.42814
G0 F3000 X56.789 Y115.903
G1 F1500 X61.715 Y120.829 E127.83186
G0 F3000 X62.337 Y120.829
G1 F1500 X56.789 Y115.281 E128.28656
G0 F3000 X56.789 Y114.659
G1 F1500 X62.96 Y120.829 E128.79227
G0 F3000 X63.582 Y120.829
G1 F1500 X56.789 Y114.037 E129.34897
G0 F3000 X56.789 Y113.414
G1 F1500 X64.204 Y120.829 E129.95668
G0 F3000 X64.826 Y120.829
G1 F1500 X56.789 Y112.792 E130.61537
G0 F3000 X56.789 Y112.17
G1 F1500 X65.449 Y120.829 E131.32508
G0 F3000 X66.071 Y120.829
G1 F1500 X56.789 Y111.548 E132.08576
G0 F3000 X56.789 Y110.925
G1 F1500 X66.693 Y120.829 E132.89747
G0 F3000 X67.315 Y120.829
G1 F1500 X56.789 Y110.303 E133.76015
G0 F3000 X56.789 Y109.681
G1 F1500 X67.938 Y120.829 E134.67385
G0 F3000 X68.56 Y120.829
G1 F1500 X56.789 Y109.059 E135.63852
G0 F3000 X56.789 Y108.436
G1 F1500 X69.182 Y120.829 E136.65422
G0 F3000 X69.804 Y120.829
G1 F1500 X56.789 Y107.814 E137.72089
G0 F3000 X56.789 Y107.192
G1 F1500 X70.427 Y120.829 E138.83858
G0 F3000 X71.049 Y120.829
G1 F1500 X56.789 Y106.57 E140.00725
G0 F3000 X56.789 Y105.947
G1 F1500 X71.671 Y120.829 E141.22694
G0 F3000 X72.293 Y120.829
G1 F1500 X56.789 Y105.325 E142.4976
G0 F3000 X56.789 Y104.703
G1 F1500 X72.916 Y120.829 E143.81928
G0 F3000 X73.538 Y120.829
G1 F1500 X56.789 Y104.081 E145.19194
G0 F3000 X56.789 Y103.458
G1 F1500 X74.16 Y120.829 E146.61562
G0 F3000 X74.782 Y120.829
G1 F1500 X56.789 Y102.836 E148.09027
G0 F3000 X56.789 Y102.214
G1 F1500 X75.405 Y120.829 E149.61595
G0 F3000 X76.027 Y120.829
G1 F1500 X56.789 Y101.592 E151.1926
G0 F3000 X56.789 Y100.969
G1 F1500 X76.649 Y120.829 E152.82027
G0 F3000 X77.271 Y120.829
G1 F1500 X56.789 Y100.347 E154.49891
G0 F3000 X56.789 Y99.725
G1 F1500 X77.894 Y120.829 E156.22858
G0 F3000 X78.516 Y120.829
G1 F1500 X56.789 Y99.103 E158.00922
G0 F3000 X56.789 Y98.48
G1 F1500 X79.138 Y120.829 E159.84088
G0 F3000 X79.76 Y120.829
G1 F1500 X56.789 Y97.858 E161.72352
G0 F3000 X56.789 Y97.236
G1 F1500 X80.383 Y120.829 E163.65717
G0 F3000 X81.005 Y120.829
G1 F1500 X56.789 Y96.614 E165.64181
G0 F3000 X56.789 Y95.991
G1 F1500 X81.627 Y120.829 E167.67746
G0 F3000 X82.249 Y120.829
G1 F1500 X56.789 Y95.369 E169.76409
G0 F3000 X56.789 Y94.747
G1 F1500 X82.872 Y120.829 E171.90174
G0 F3000 X83.494 Y120.829
G1 F1500 X56.789 Y94.125 E174.09036
G0 F3000 X56.789 Y93.502
G1 F1500 X84.116 Y120.829 E176.33
G0 F3000 X84.738 Y120.829
G1 F1500 X56.789 Y92.88 E178.62062
G0 F3000 X56.789 Y92.258
G1 F1500 X85.361 Y120.829 E180.96226
G0 F3000 X85.983 Y120.829
G1 F1500 X56.789 Y91.636 E183.35488
G0 F3000 X56.789 Y91.013
G1 F1500 X86.605 Y120.829 E185.79851
G0 F3000 X87.227 Y120.829
G1 F1500 X56.789 Y90.391 E188.29313
G0 F3000 X56.789 Y89.769
G1 F1500 X87.85 Y120.829 E190.83876
G0 F3000 X88.472 Y120.829
G1 F1500 X56.789 Y89.147 E193.43536
G0 F3000 X56.789 Y88.524
G1 F1500 X89.094 Y120.829 E196.08299
G0 F3000 X89.717 Y120.829
G1 F1500 X56.789 Y87.902 E198.78163
G0 F3000 X56.789 Y87.28
G1 F1500 X90.339 Y120.829 E201.53125
G0 F3000 X90.961 Y120.829
G1 F1500 X56.789 Y86.658 E204.33185
G0 F3000 X56.789 Y86.035
G1 F1500 X91.583 Y120.829 E207.18347
G0 F3000 X92.206 Y120.829
G1 F1500 X56.789 Y85.413 E210.08611
G0 F3000 X56.789 Y84.791
G1 F1500 X92.828 Y120.829 E213.03972
G0 F3000 X93.45 Y120.829
G1 F1500 X56.789 Y84.169 E216.04431
G0 F3000 X56.789 Y83.546
G1 F1500 X94.072 Y120.829 E219.09992
G0 F3000 X94.695 Y120.829
G1 F1500 X56.789 Y82.924 E222.20655
G0 F3000 X56.789 Y82.302
G1 F1500 X95.317 Y120.829 E225.36415
G0 F3000 X95.939 Y120.829
G1 F1500 X56.789 Y81.68 E228.57273
G0 F3000 X56.789 Y81.057
G1 F1500 X96.561 Y120.829 E231.83233
G0 F3000 X97.184 Y120.829
G1 F1500 X56.789 Y80.435 E235.14295
G0 F3000 X56.789 Y79.813
G1 F1500 X97.806 Y120.829 E238.50454
G0 F3000 X98.428 Y120.829
G1 F1500 X56.789 Y79.191 E241.91712
G0 F3000 X56.789 Y78.568
G1 F1500 X99.05 Y120.829 E245.38071
G0 F3000 X99.673 Y120.829
G1 F1500 X56.789 Y77.946 E248.89532
G0 F3000 X56.789 Y77.324
G1 F1500 X100.295 Y120.829 E252.46091
G0 F3000 X100.917 Y120.829
G1 F1500 X56.789 Y76.701 E256.07751
G0 F3000 X56.789 Y76.079
G1 F1500 X101.539 Y120.829 E259.74509
G0 F3000 X102.162 Y120.829
G1 F1500 X56.789 Y75.457 E263.46369
G0 F3000 X56.789 Y74.835
G1 F1500 X102.784 Y120.829 E267.23327
G0 F3000 X103.406 Y120.829
G1 F1500 X56.789 Y74.212 E271.05387
G0 F3000 X56.789 Y73.59
G1 F1500 X104.028 Y120.829 E274.92544
G0 F3000 X104.651 Y120.829
G1 F1500 X56.789 Y72.968 E278.84804
G0 F3000 X56.789 Y72.346
G1 F1500 X105.273 Y120.829 E282.82161
G0 F3000 X105.895 Y120.829
G1 F1500 X56.789 Y71.723 E286.84619
G0 F3000 X56.789 Y71.101
G1 F1500 X106.517 Y120.829 E290.92176
G0 F3000 X107.14 Y120.829
G1 F1500 X56.789 Y70.479 E295.04834
G0 F3000 X56.789 Y69.857
G1 F1500 X107.762 Y120.829 E299.2259
G0 F3000 X108.384 Y120.829
G1 F1500 X56.789 Y69.234 E303.45448
G0 F3000 X56.789 Y68.612
G1 F1500 X109.006 Y120.829 E307.73404
G0 F3000 X109.629 Y120.829
G1 F1500 X56.789 Y67.99 E312.06461
G0 F3000 X56.789 Y67.368
G1 F1500 X110.251 Y120.829 E316.44617
G0 F3000 X110.873 Y120.829
G1 F1500 X56.789 Y66.745 E320.87874
G0 F3000 X56.789 Y66.123
G1 F1500 X111.495 Y120.829 E325.36229
G0 F3000 X112.118 Y120.829
G1 F1500 X56.789 Y65.501 E329.89685
G0 F3000 X56.789 Y64.879
G1 F1500 X112.74 Y120.829 E334.4824
G0 F3000 X113.362 Y120.829
G1 F1500 X56.789 Y64.256 E339.11896
G0 F3000 X56.789 Y63.634
G1 F1500 X113.984 Y120.829 E343.8065
G0 F3000 X114.607 Y120.829
G1 F1500 X56.789 Y63.012 E348.54506
G0 F3000 X56.789 Y62.39
G1 F1500 X115.229 Y120.829 E353.33459
G0 F3000 X115.851 Y120.829
G1 F1500 X56.789 Y61.767 E358.17514
G0 F3000 X56.789 Y61.145
G1 F1500 X116.473 Y120.829 E363.06667
G0 F3000 X117.096 Y120.829
G1 F1500 X56.789 Y60.523 E368.00922
G0 F3000 X56.789 Y59.901
G1 F1500 X117.718 Y120.829 E373.00275
G0 F3000 X118.34 Y120.829
G1 F1500 X56.789 Y59.278 E378.04729
G0 F3000 X57.303 Y59.169
G1 F1500 X118.962 Y120.829 E383.10073
G0 F3000 X119.585 Y120.829
G1 F1500 X57.925 Y59.169 E388.15421
G0 F3000 X58.547 Y59.169
G1 F1500 X120.207 Y120.829 E393.20769
G0 F3000 X120.829 Y120.829
G1 F1500 X59.169 Y59.169 E398.26117
G0 F3000 X59.792 Y59.169
G1 F1500 X121.451 Y120.829 E403.3146
G0 F3000 X122.074 Y120.829
G1 F1500 X60.414 Y59.169 E408.36808
G0 F3000 X61.036 Y59.169
G1 F1500 X122.696 Y120.829 E413.42156
G0 F3000 X123.109 Y120.62
G1 F1500 X61.659 Y59.169 E418.45787
G0 F3000 X62.281 Y59.169
G1 F1500 X123.109 Y119.998 E423.4432
G0 F3000 X123.109 Y119.375
G1 F1500 X62.903 Y59.169 E428.37751
G0 F3000 X63.525 Y59.169
G1 F1500 X123.109 Y118.753 E433.26085
G0 F3000 X123.109 Y118.131
G1 F1500 X64.148 Y59.169 E438.09316
G0 F3000 X64.77 Y59.169
G1 F1500 X123.109 Y117.509 E442.8745
G0 F3000 X123.109 Y116.886
G1 F1500 X65.392 Y59.169 E447.60482
G0 F3000 X66.014 Y59.169
G1 F1500 X123.109 Y116.264 E452.28417
G0 F3000 X123.109 Y115.642
G1 F1500 X66.637 Y59.169 E456.91249
G0 F3000 X67.259 Y59.169
G1 F1500 X123.109 Y115.02 E461.48984
G0 F3000 X123.109 Y114.397
G1 F1500 X67.881 Y59.169 E466.01617
G0 F3000 X68.503 Y59.169
G1 F1500 X123.109 Y113.775 E470.49152
G0 F3000 X123.109 Y113.153
G1 F1500 X69.126 Y59.169 E474.91586
G0 F3000 X69.748 Y59.169
G1 F1500 X123.109 Y112.531 E479.28921
G0 F3000 X123.109 Y111.908
G1 F1500 X70.37 Y59.169 E483.61155
G0 F3000 X70.992 Y59.169
G1 F1500 X123.109 Y111.286 E487.88291
G0 F3000 X123.109 Y110.664
G1 F1500 X71.615 Y59.169 E492.10325
G0 F3000 X72.237 Y59.169
G1 F1500 X123.109 Y110.042 E496.27262
G0 F3000 X123.109 Y109.419
G1 F1500 X72.859 Y59.169 E500.39097
G0 F3000 X73.481 Y59.169
G1 F1500 X123.109 Y108.797 E504.45834
G0 F3000 X123.109 Y108.175
G1 F1500 X74.104 Y59.169 E508.47469
G0 F3000 X74.726 Y59.169
G1 F1500 X123.109 Y107.553 E512.44006
G0 F3000 X123.109 Y106.93
G1 F1500 X75.348 Y59.169 E516.35442
G0 F3000 X75.97 Y59.169
G1 F1500 X123.109 Y106.308 E520.2178
G0 F3000 X123.109 Y105.686
G1 F1500 X76.593 Y59.169 E524.03016
G0 F3000 X77.215 Y59.169
G1 F1500 X123.109 Y105.064 E527.79154
G0 F3000 X123.109 Y104.441
G1 F1500 X77.837 Y59.169 E531.5019
G0 F3000 X78.459 Y59.169
G1 F1500 X123.109 Y103.819 E535.16129
G0 F3000 X123.109 Y103.197
G1 F1500 X79.082 Y59.169 E538.76966
G0 F3000 X79.704 Y59.169
G1 F1500 X123.109 Y102.575 E542.32705
G0 F3000 X123.109 Y101.952
G1 F1500 X80.326 Y59.169 E545.83342
G0 F3000 X80.948 Y59.169
G1 F1500 X123.109 Y101.33 E549.28882
G0 F3000 X123.109 Y100.708
G1 F1500 X81.571 Y59.169 E552.6932
G0 F3000 X82.193 Y59.169
G1 F1500 X123.109 Y100.086 E556.0466
G0 F3000 X123.109 Y99.463
G1 F1500 X82.815 Y59.169 E559.34898
G0 F3000 X83.437 Y59.169
G1 F1500 X123.109 Y98.841 E562.60038
G0 F3000 X123.109 Y98.219
G1 F1500 X84.06 Y59.169 E565.80077
G0 F3000 X84.682 Y59.169
G1 F1500 X123.109 Y97.596 E568.95013
G0 F3000 X123.109 Y96.974
G1 F1500 X85.304 Y59.169 E572.04852
G0 F3000 X85.926 Y59.169
G1 F1500 X123.109 Y96.352 E575.09594
G0 F3000 X123.109 Y95.73
G1 F1500 X86.549 Y59.169 E578.09233
G0 F3000 X87.171 Y59.169
G1 F1500 X123.109 Y95.107 E581.03771
G0 F3000 X123.109 Y94.485
G1 F1500 X87.793 Y59.169 E583.93211
G0 F3000 X88.415 Y59.169
G1 F1500 X123.109 Y93.863 E586.77553
G0 F3000 X123.109 Y93.241
G1 F1500 X89.038 Y59.169 E589.56793
G0 F3000 X89.66 Y59.169
G1 F1500 X123.109 Y92.618 E592.30932
G0 F3000 X123.109 Y91.996
