;FLAVOR:Marlin
;TIME:319
;Filament used: 0.460663m
;Layer height: 0.3
;MINX:83.1
;MINY:50.6
;MINZ:0.3
;MAXX:96.9
;MAXY:129.4
;MAXZ:4.8
;Generated with Cura_SteamEngine 4.4.1
M82 ;absolute extrusion mode
G21 ;metric values
G90 ;absolute positioning
M82 ;set extruder to absolute mode
M107 ;start with the fan off

M104 S200 T0 ; start heating T0 to what is set in Cura
M140 S60 ; start heating the bed to what is set in Cura
M190 S60 ; start heating the bed to what is set in Cura
M109 S200 T0 ; start heating T0 to what is set in Cura

G28 X0 Y0 ;move X/Y to min endstops
G28 Z0 ;move Z to min endstops
G1 Z15.0 F2400 ;move the platform down 15mm
G92 E0 ;zero the extruded length
G1 F200 E3 ;extrude 3mm of feed stock
G92 E0 ;zero the extruded length again
G1 F2400
G0 Y20 F2400
M117 Printing...
G5
G92 E0
G92 E0
G1 F1500 E-6.5
;LAYER_COUNT:16
;LAYER:0
M107
G0 F3000 X83.765 Y52.698 Z0.3
;TYPE:SKIRT
G1 F1500 E0
G1 X84.11 Y52.216 E0.0414
G1 X84.516 Y51.784 E0.08281
G1 X84.977 Y51.411 E0.12423
G1 X85.484 Y51.103 E0.16566
G1 X86.027 Y50.866 E0.20704
G1 X86.598 Y50.704 E0.2485
G1 X87.386 Y50.611 E0.30392
G1 X87.707 Y50.602 E0.32635
G1 X87.83 Y50.6 E0.33494
G1 X91.856 Y50.6 E0.61614
G1 X92.554 Y50.61 E0.6649
G1 X93.145 Y50.659 E0.70632
G1 X93.724 Y50.786 E0.74772
G1 X94.281 Y50.99 E0.78916
G1 X94.805 Y51.268 E0.83059
G1 X95.287 Y51.613 E0.87199
G1 X95.719 Y52.02 E0.91344
G1 X96.091 Y52.481 E0.95482
G1 X96.399 Y52.988 E0.99625
G1 X96.635 Y53.532 E1.03767
G1 X96.796 Y54.102 E1.07904
G1 X96.889 Y54.886 E1.13419
G1 X96.898 Y55.206 E1.15654
G1 X96.9 Y55.33 E1.16521
G1 X96.9 Y124.318 E5.98376
G1 X96.891 Y125.045 E6.03454
G1 X96.843 Y125.637 E6.07603
G1 X96.717 Y126.216 E6.11742
G1 X96.514 Y126.773 E6.15882
G1 X96.238 Y127.298 E6.20025
G1 X95.894 Y127.781 E6.24167
G1 X95.488 Y128.213 E6.28308
G1 X95.027 Y128.586 E6.3245
G1 X94.521 Y128.895 E6.36591
G1 X93.978 Y129.132 E6.40729
G1 X93.407 Y129.295 E6.44876
G1 X92.614 Y129.389 E6.50454
G1 X92.293 Y129.398 E6.52697
G1 X92.17 Y129.4 E6.53556
G1 X88.15 Y129.4 E6.81634
G1 X87.452 Y129.391 E6.8651
G1 X86.861 Y129.343 E6.90652
G1 X86.282 Y129.216 E6.94792
G1 X85.725 Y129.013 E6.98933
G1 X85.2 Y128.737 E7.03075
G1 X84.718 Y128.392 E7.07215
G1 X84.286 Y127.986 E7.11356
G1 X83.912 Y127.525 E7.15503
G1 X83.604 Y127.019 E7.1964
G1 X83.367 Y126.475 E7.23785
G1 X83.205 Y125.905 E7.27923
G1 X83.111 Y125.11 E7.33515
G1 X83.102 Y124.777 E7.35842
G1 X83.1 Y124.658 E7.36673
G1 X83.1 Y55.614 E12.1892
G1 X83.109 Y54.949 E12.23565
G1 X83.157 Y54.358 E12.27706
G1 X83.284 Y53.779 E12.31847
G1 X83.488 Y53.222 E12.3599
G1 X83.765 Y52.698 E12.4013
G0 F3000 X84.32 Y52.869
G1 F1500 X84.661 Y52.433 E12.43996
G1 X85.062 Y52.05 E12.47869
G1 X85.513 Y51.729 E12.51735
G1 X86.005 Y51.476 E12.55599
G1 X86.529 Y51.296 E12.59469
G1 X87.074 Y51.194 E12.63342
G1 X87.401 Y51.171 E12.65632
G1 X87.722 Y51.162 E12.67875
G1 X87.83 Y51.16 E12.68629
G1 X91.848 Y51.16 E12.96693
G1 X92.546 Y51.17 E13.01569
G1 X93.098 Y51.218 E13.05439
G1 X93.637 Y51.345 E13.09307
G1 X94.152 Y51.548 E13.13173
G1 X94.633 Y51.823 E13.17043
G1 X95.069 Y52.164 E13.20909
G1 X95.452 Y52.565 E13.24782
G1 X95.773 Y53.016 E13.28649
G1 X96.026 Y53.509 E13.32519
G1 X96.205 Y54.033 E13.36387
G1 X96.307 Y54.578 E13.4026
G1 X96.329 Y54.902 E13.42528
G1 X96.338 Y55.222 E13.44764
G1 X96.34 Y55.33 E13.45518
G1 X96.34 Y124.312 E18.27332
G1 X96.331 Y125.039 E18.3241
G1 X96.284 Y125.59 E18.36273
G1 X96.158 Y126.13 E18.40146
G1 X95.956 Y126.646 E18.44016
G1 X95.682 Y127.127 E18.47883
G1 X95.342 Y127.564 E18.5175
G1 X94.942 Y127.947 E18.55618
G1 X94.491 Y128.269 E18.59488
G1 X93.999 Y128.523 E18.63356
G1 X93.475 Y128.703 E18.67226
G1 X92.931 Y128.806 E18.71093
G1 X92.599 Y128.829 E18.73417
G1 X92.278 Y128.838 E18.7566
G1 X92.17 Y128.84 E18.76415
G1 X88.157 Y128.84 E19.04444
G1 X87.459 Y128.831 E19.0932
G1 X86.908 Y128.784 E19.13182
G1 X86.368 Y128.658 E19.17055
G1 X85.853 Y128.455 E19.20922
G1 X85.371 Y128.181 E19.24794
G1 X84.935 Y127.84 E19.2866
G1 X84.552 Y127.44 E19.32528
G1 X84.23 Y126.989 E19.36399
G1 X83.977 Y126.497 E19.40263
G1 X83.797 Y125.973 E19.44133
G1 X83.694 Y125.429 E19.48
G1 X83.67 Y125.095 E19.50339
G1 X83.661 Y124.762 E19.52666
G1 X83.66 Y124.658 E19.53392
G1 X83.66 Y55.622 E24.35583
G1 X83.669 Y54.957 E24.40228
G1 X83.717 Y54.405 E24.44098
G1 X83.843 Y53.866 E24.47964
G1 X84.046 Y53.35 E24.51837
G1 X84.32 Y52.869 E24.55704
G0 F3000 X84.603 Y53.488
G1 F1500 X84.875 Y53.054 E24.59281
G1 X85.211 Y52.668 E24.62856
G1 X85.603 Y52.339 E24.6643
G1 X86.042 Y52.075 E24.70008
G1 X86.516 Y51.883 E24.7358
G1 X87.014 Y51.766 E24.77153
G1 X87.417 Y51.73 E24.79979
G1 X87.738 Y51.721 E24.82222
G1 X87.83 Y51.72 E24.82865
G1 X91.84 Y51.72 E25.10873
G1 X92.538 Y51.73 E25.15749
G1 X93.048 Y51.778 E25.19327
G1 X93.544 Y51.904 E25.22901
G1 X94.014 Y52.105 E25.26472
G1 X94.448 Y52.378 E25.30053
G1 X94.833 Y52.714 E25.33622
G1 X95.162 Y53.106 E25.37196
G1 X95.426 Y53.545 E25.40774
G1 X95.618 Y54.02 E25.44353
G1 X95.734 Y54.518 E25.47924
G1 X95.77 Y54.918 E25.5073
G1 X95.779 Y55.238 E25.52965
G1 X95.78 Y55.33 E25.53608
G1 X95.78 Y124.305 E30.35373
G1 X95.771 Y125.032 E30.40451
G1 X95.724 Y125.541 E30.44021
G1 X95.599 Y126.038 E30.47601
G1 X95.399 Y126.509 E30.51175
G1 X95.127 Y126.943 E30.54752
G1 X94.792 Y127.329 E30.58322
G1 X94.4 Y127.658 E30.61897
G1 X93.962 Y127.923 E30.65472
G1 X93.488 Y128.116 E30.69047
G1 X92.989 Y128.233 E30.72627
G1 X92.583 Y128.27 E30.75474
G1 X92.262 Y128.279 E30.77717
G1 X92.17 Y128.28 E30.7836
G1 X88.165 Y128.28 E31.06333
G1 X87.467 Y128.271 E31.11209
G1 X86.957 Y128.224 E31.14786
G1 X86.461 Y128.099 E31.18359
G1 X85.99 Y127.898 E31.21936
G1 X85.556 Y127.626 E31.25513
G1 X85.17 Y127.29 E31.29088
G1 X84.841 Y126.898 E31.32662
G1 X84.576 Y126.46 E31.36238
G1 X84.384 Y125.986 E31.3981
G1 X84.267 Y125.488 E31.43383
G1 X84.23 Y125.08 E31.46244
G1 X84.221 Y124.747 E31.48571
G1 X84.22 Y124.658 E31.49193
G1 X84.22 Y55.63 E36.31328
G1 X84.229 Y54.965 E36.35973
G1 X84.276 Y54.455 E36.3955
G1 X84.402 Y53.959 E36.43124
G1 X84.603 Y53.488 E36.46701
G1 F1500 E29.96701
;MESH:rgb_led_cube_mk2_v1.stl
G0 F3000 X86.835 Y55.854
G0 X88.354 Y55.854
G0 X88.41 Y124.09
G0 X88.34 Y124.16
;TYPE:WALL-INNER
G1 F1500 E36.46701
G1 X88.34 Y55.84 E41.23891
G1 X91.66 Y55.84 E41.4708
G1 X91.66 Y124.16 E46.2427
G1 X88.34 Y124.16 E46.47459
G0 F3000 X87.78 Y124.72
;TYPE:WALL-OUTER
G1 F1500 X87.78 Y55.28 E51.32471
G1 X92.22 Y55.28 E51.63483
G1 X92.22 Y124.72 E56.48496
G1 X87.78 Y124.72 E56.79507
G0 F3000 X87.78 Y124.52
G0 X88.396 Y124.104
G0 X88.89 Y123.61
;TYPE:SKIN
G1 F1500 X88.89 Y56.39 E61.49014
G1 X91.11 Y56.39 E61.6452
G1 X91.11 Y123.61 E66.34027
G1 X88.89 Y123.61 E66.49533
G0 F3000 X89.294 Y123.349
G1 F1500 X89.149 Y123.203 E66.5097
G0 F3000 X89.149 Y122.411
G1 F1500 X90.086 Y123.349 E66.6023
G0 F3000 X90.85 Y123.32
G1 F1500 X89.149 Y121.619 E66.77032
G0 F3000 X89.149 Y120.827
G1 F1500 X90.85 Y122.528 E66.93834
G0 F3000 X90.85 Y121.736
G1 F1500 X89.149 Y120.035 E67.10636
G0 F3000 X89.149 Y119.243
G1 F1500 X90.85 Y120.944 E67.27438
G0 F3000 X90.85 Y120.152
G1 F1500 X89.149 Y118.451 E67.44241
G0 F3000 X89.149 Y117.659
G1 F1500 X90.85 Y119.361 E67.61048
G0 F3000 X90.85 Y118.569
G1 F1500 X89.149 Y116.867 E67.77855
G0 F3000 X89.149 Y116.075
G1 F1500 X90.85 Y117.777 E67.94662
G0 F3000 X90.85 Y116.985
G1 F1500 X89.149 Y115.283 E68.11469
G0 F3000 X89.149 Y114.491
G1 F1500 X90.85 Y116.193 E68.28276
G0 F3000 X90.85 Y115.401
G1 F1500 X89.149 Y113.699 E68.45083
G0 F3000 X89.149 Y112.907
G1 F1500 X90.85 Y114.609 E68.6189
G0 F3000 X90.85 Y113.817
G1 F1500 X89.149 Y112.116 E68.78692
G0 F3000 X89.149 Y111.324
G1 F1500 X90.85 Y113.025 E68.95494
G0 F3000 X90.85 Y112.233
G1 F1500 X89.149 Y110.532 E69.12296
G0 F3000 X89.149 Y109.74
G1 F1500 X90.85 Y111.441 E69.29098
G0 F3000 X90.85 Y110.649
G1 F1500 X89.149 Y108.948 E69.459
G0 F3000 X89.149 Y108.156
G1 F1500 X90.85 Y109.857 E69.62702
G0 F3000 X90.85 Y109.065
G1 F1500 X89.149 Y107.364 E69.79504
G0 F3000 X89.149 Y106.572
G1 F1500 X90.85 Y108.273 E69.96306
G0 F3000 X90.85 Y107.481
G1 F1500 X89.149 Y105.78 E70.13108
G0 F3000 X89.149 Y104.988
G1 F1500 X90.85 Y106.689 E70.2991
G0 F3000 X90.85 Y105.897
G1 F1500 X89.149 Y104.196 E70.46712
G0 F3000 X89.149 Y103.404
G1 F1500 X90.85 Y105.105 E70.63514
G0 F3000 X90.85 Y104.313
G1 F1500 X89.149 Y102.612 E70.80316
G0 F3000 X89.149 Y101.82
G1 F1500 X90.85 Y103.521 E70.97118
G0 F3000 X90.85 Y102.729
G1 F1500 X89.149 Y101.028 E71.13921
G0 F3000 X89.149 Y100.236
G1 F1500 X90.85 Y101.937 E71.30723
G0 F3000 X90.85 Y101.145
G1 F1500 X89.149 Y99.444 E71.47525
G0 F3000 X89.149 Y98.652
G1 F1500 X90.85 Y100.354 E71.64332
G0 F3000 X90.85 Y99.562
G1 F1500 X89.149 Y97.86 E71.81139
G0 F3000 X89.149 Y97.068
G1 F1500 X90.85 Y98.77 E71.97946
G0 F3000 X90.85 Y97.978
G1 F1500 X89.149 Y96.276 E72.14753
G0 F3000 X89.149 Y95.484
G1 F1500 X90.85 Y97.186 E72.3156
G0 F3000 X90.85 Y96.394
G1 F1500 X89.149 Y94.692 E72.48367
G0 F3000 X89.149 Y93.9
G1 F1500 X90.85 Y95.602 E72.65174
G0 F3000 X90.85 Y94.81
G1 F1500 X89.149 Y93.108 E72.81981
G0 F3000 X89.149 Y92.317
G1 F1500 X90.85 Y94.018 E72.98783
G0 F3000 X90.85 Y93.226
G1 F1500 X89.149 Y91.525 E73.15585
G0 F3000 X89.149 Y90.733
G1 F1500 X90.85 Y92.434 E73.32387
G0 F3000 X90.85 Y91.642
G1 F1500 X89.149 Y89.941 E73.49189
G0 F3000 X89.149 Y89.149
G1 F1500 X90.85 Y90.85 E73.65991
G0 F3000 X90.85 Y90.058
G1 F1500 X89.149 Y88.357 E73.82793
G0 F3000 X89.149 Y87.565
G1 F1500 X90.85 Y89.266 E73.99595
G0 F3000 X90.85 Y88.474
G1 F1500 X89.149 Y86.773 E74.16397
G0 F3000 X89.149 Y85.981
G1 F1500 X90.85 Y87.682 E74.33199
G0 F3000 X90.85 Y86.89
G1 F1500 X89.149 Y85.189 E74.50001
G0 F3000 X89.149 Y84.397
G1 F1500 X90.85 Y86.098 E74.66803
G0 F3000 X90.85 Y85.306
G1 F1500 X89.149 Y83.605 E74.83605
G0 F3000 X89.149 Y82.813
G1 F1500 X90.85 Y84.514 E75.00408
G0 F3000 X90.85 Y83.722
G1 F1500 X89.149 Y82.021 E75.1721
G0 F3000 X89.149 Y81.229
G1 F1500 X90.85 Y82.93 E75.34012
G0 F3000 X90.85 Y82.138
G1 F1500 X89.149 Y80.437 E75.50814
G0 F3000 X89.149 Y79.645
G1 F1500 X90.85 Y81.346 E75.67616
G0 F3000 X90.85 Y80.555
G1 F1500 X89.149 Y78.853 E75.84423
G0 F3000 X89.149 Y78.061
G1 F1500 X90.85 Y79.763 E76.0123
G0 F3000 X90.85 Y78.971
G1 F1500 X89.149 Y77.269 E76.18037
G0 F3000 X89.149 Y76.477
G1 F1500 X90.85 Y78.179 E76.34844
G0 F3000 X90.85 Y77.387
G1 F1500 X89.149 Y75.685 E76.51651
G0 F3000 X89.149 Y74.893
G1 F1500 X90.85 Y76.595 E76.68458
G0 F3000 X90.85 Y75.803
G1 F1500 X89.149 Y74.101 E76.85265
G0 F3000 X89.149 Y73.31
G1 F1500 X90.85 Y75.011 E77.02067
G0 F3000 X90.85 Y74.219
G1 F1500 X89.149 Y72.518 E77.18869
G0 F3000 X89.149 Y71.726
G1 F1500 X90.85 Y73.427 E77.35671
G0 F3000 X90.85 Y72.635
G1 F1500 X89.149 Y70.934 E77.52473
G0 F3000 X89.149 Y70.142
G1 F1500 X90.85 Y71.843 E77.69275
G0 F3000 X90.85 Y71.051
G1 F1500 X89.149 Y69.35 E77.86077
G0 F3000 X89.149 Y68.558
G1 F1500 X90.85 Y70.259 E78.02879
G0 F3000 X90.85 Y69.467
G1 F1500 X89.149 Y67.766 E78.19681
G0 F3000 X89.149 Y66.974
G1 F1500 X90.85 Y68.675 E78.36483
G0 F3000 X90.85 Y67.883
G1 F1500 X89.149 Y66.182 E78.53285
G0 F3000 X89.149 Y65.39
G1 F1500 X90.85 Y67.091 E78.70087
G0 F3000 X90.85 Y66.299
G1 F1500 X89.149 Y64.598 E78.8689
G0 F3000 X89.149 Y63.806
G1 F1500 X90.85 Y65.507 E79.03692
G0 F3000 X90.85 Y64.715
G1 F1500 X89.149 Y63.014 E79.20494
G0 F3000 X89.149 Y62.222
G1 F1500 X90.85 Y63.923 E79.37296
G0 F3000 X90.85 Y63.131
G1 F1500 X89.149 Y61.43 E79.54098
G0 F3000 X89.149 Y60.638
G1 F1500 X90.85 Y62.339 E79.709
G0 F3000 X90.85 Y61.547
G1 F1500 X89.149 Y59.846 E79.87702
G0 F3000 X89.149 Y59.054
G1 F1500 X90.85 Y60.756 E80.04509
G0 F3000 X90.85 Y59.964
G1 F1500 X89.149 Y58.262 E80.21316
G0 F3000 X89.149 Y57.47
G1 F1500 X90.85 Y59.172 E80.38123
G0 F3000 X90.85 Y58.38
G1 F1500 X89.149 Y56.678 E80.5493
G0 F3000 X89.912 Y56.65
G1 F1500 X90.85 Y57.588 E80.64195
G0 F3000 X90.85 Y56.796
M104 S200
G1 F1500 X90.704 Y56.65 E80.65637
;MESH:NONMESH
G0 F600 X90.704 Y56.65 Z0.6
G0 F3000 X88.41 Y124.09
G0 X88.1 Y124.4
;TIME_ELAPSED:55.318063
;LAYER:1
M140 S60
M106 S255
;TYPE:WALL-INNER
;MESH:rgb_led_cube_mk2_v1.stl
G1 F2250 X88.1 Y55.6 E84.08882
G1 X91.9 Y55.6 E84.2784
G1 X91.9 Y124.4 E87.71085
G1 X88.1 Y124.4 E87.90043
G0 F4500 X87.7 Y124.8
;TYPE:WALL-OUTER
G1 F2250 X87.7 Y55.2 E91.37279
G1 X92.3 Y55.2 E91.60228
G1 X92.3 Y124.8 E95.07464
G1 X87.7 Y124.8 E95.30414
G0 F4500 X87.7 Y124.6
G0 X88.14 Y124.36
G0 X88.49 Y124.01
;TYPE:SKIN
G1 F1350 X88.49 Y55.99 E98.69767
G1 X91.51 Y55.99 E98.84834
G1 X91.51 Y124.01 E102.24187
G1 X88.49 Y124.01 E102.39254
G0 F4500 X91.131 Y123.829
G1 F1350 X91.329 Y123.63 E102.40654
G0 F4500 X91.329 Y123.064
G1 F1350 X90.565 Y123.829 E102.46048
G0 F4500 X89.999 Y123.829
G1 F1350 X91.329 Y122.499 E102.55432
G0 F4500 X91.329 Y121.933
G1 F1350 X89.434 Y123.829 E102.68806
G0 F4500 X88.868 Y123.829
G1 F1350 X91.329 Y121.367 E102.86173
G0 F4500 X91.329 Y120.802
G1 F1350 X88.67 Y123.461 E103.04934
G0 F4500 X88.67 Y122.895
G1 F1350 X91.329 Y120.236 E103.23694
G0 F4500 X91.329 Y119.67
G1 F1350 X88.67 Y122.33 E103.42459
G0 F4500 X88.67 Y121.764
G1 F1350 X91.329 Y119.105 E103.61219
G0 F4500 X91.329 Y118.539
G1 F1350 X88.67 Y121.198 E103.7998
G0 F4500 X88.67 Y120.633
G1 F1350 X91.329 Y117.973 E103.98744
G0 F4500 X91.329 Y117.408
G1 F1350 X88.67 Y120.067 E104.17505
G0 F4500 X88.67 Y119.501
G1 F1350 X91.329 Y116.842 E104.36266
G0 F4500 X91.329 Y116.276
G1 F1350 X88.67 Y118.936 E104.5503
G0 F4500 X88.67 Y118.37
G1 F1350 X91.329 Y115.71 E104.73794
G0 F4500 X91.329 Y115.145
G1 F1350 X88.67 Y117.804 E104.92555
G0 F4500 X88.67 Y117.239
G1 F1350 X91.329 Y114.579 E105.11319
G0 F4500 X91.329 Y114.013
G1 F1350 X88.67 Y116.673 E105.30083
G0 F4500 X88.67 Y116.107
G1 F1350 X91.329 Y113.448 E105.48844
G0 F4500 X91.329 Y112.882
G1 F1350 X88.67 Y115.541 E105.67604
G0 F4500 X88.67 Y114.976
G1 F1350 X91.329 Y112.316 E105.86369
G0 F4500 X91.329 Y111.751
G1 F1350 X88.67 Y114.41 E106.05129
G0 F4500 X88.67 Y113.844
G1 F1350 X91.329 Y111.185 E106.2389
G0 F4500 X91.329 Y110.619
G1 F1350 X88.67 Y113.279 E106.42654
G0 F4500 X88.67 Y112.713
G1 F1350 X91.329 Y110.054 E106.61415
G0 F4500 X91.329 Y109.488
G1 F1350 X88.67 Y112.147 E106.80176
G0 F4500 X88.67 Y111.582
G1 F1350 X91.329 Y108.922 E106.9894
G0 F4500 X91.329 Y108.357
G1 F1350 X88.67 Y111.016 E107.17701
G0 F4500 X88.67 Y110.45
G1 F1350 X91.329 Y107.791 E107.36461
G0 F4500 X91.329 Y107.225
G1 F1350 X88.67 Y109.885 E107.55225
G0 F4500 X88.67 Y109.319
G1 F1350 X91.329 Y106.659 E107.7399
G0 F4500 X91.329 Y106.094
G1 F1350 X88.67 Y108.753 E107.9275
G0 F4500 X88.67 Y108.188
G1 F1350 X91.329 Y105.528 E108.11515
G0 F4500 X91.329 Y104.962
G1 F1350 X88.67 Y107.622 E108.30279
G0 F4500 X88.67 Y107.056
G1 F1350 X91.329 Y104.397 E108.49039
G0 F4500 X91.329 Y103.831
G1 F1350 X88.67 Y106.49 E108.678
G0 F4500 X88.67 Y105.925
G1 F1350 X91.329 Y103.265 E108.86564
G0 F4500 X91.329 Y102.7
G1 F1350 X88.67 Y105.359 E109.05325
G0 F4500 X88.67 Y104.793
G1 F1350 X91.329 Y102.134 E109.24086
G0 F4500 X91.329 Y101.568
G1 F1350 X88.67 Y104.228 E109.4285
G0 F4500 X88.67 Y103.662
G1 F1350 X91.329 Y101.003 E109.61611
G0 F4500 X91.329 Y100.437
G1 F1350 X88.67 Y103.096 E109.80371
G0 F4500 X88.67 Y102.531
G1 F1350 X91.329 Y99.871 E109.99135
G0 F4500 X91.329 Y99.306
G1 F1350 X88.67 Y101.965 E110.17896
G0 F4500 X88.67 Y101.399
G1 F1350 X91.329 Y98.74 E110.36657
G0 F4500 X91.329 Y98.174
G1 F1350 X88.67 Y100.834 E110.55421
G0 F4500 X88.67 Y100.268
G1 F1350 X91.329 Y97.609 E110.74182
G0 F4500 X91.329 Y97.043
G1 F1350 X88.67 Y99.702 E110.92942
G0 F4500 X88.67 Y99.137
G1 F1350 X91.329 Y96.477 E111.11707
G0 F4500 X91.329 Y95.911
G1 F1350 X88.67 Y98.571 E111.30471
G0 F4500 X88.67 Y98.005
G1 F1350 X91.329 Y95.346 E111.49231
G0 F4500 X91.329 Y94.78
G1 F1350 X88.67 Y97.44 E111.67996
G0 F4500 X88.67 Y96.874
G1 F1350 X91.329 Y94.214 E111.8676
G0 F4500 X91.329 Y93.649
G1 F1350 X88.67 Y96.308 E112.05521
G0 F4500 X88.67 Y95.742
G1 F1350 X91.329 Y93.083 E112.24281
G0 F4500 X91.329 Y92.517
G1 F1350 X88.67 Y95.177 E112.43045
G0 F4500 X88.67 Y94.611
G1 F1350 X91.329 Y91.952 E112.61806
G0 F4500 X91.329 Y91.386
G1 F1350 X88.67 Y94.045 E112.80567
