;FLAVOR:Marlin
;TIME:978
;Filament used: 1.15685m
;Layer height: 0.3
;MINX:50.57
;MINY:52.9
;MINZ:0.3
;MAXX:129.43
;MAXY:127.1
;MAXZ:0.6
;Generated with Cura_SteamEngine 4.12.1
M82 ;absolute extrusion mode
G21 ;metric values
G90 ;absolute positioning
M82 ;set extruder to absolute mode
M107 ;start with the fan off

M104 S200 T0 ; start heating T0 to what is set in Cura
M140 S60 ; start heating the bed to what is set in Cura
M190 S60 ; start heating the bed to what is set in Cura
M109 S200 T0 ; start heating T0 to what is set in Cura

G28 X0 Y0 ;move X/Y to min endstops
G28 Z0 ;move Z to min endstops
G1 Z15.0 F2400 ;move the platform down 15mm
G92 E0 ;zero the extruded length
G1 F200 E3 ;extrude 3mm of feed stock
G92 E0 ;zero the extruded length again
G1 F2400
G0 Y20 F2400
M117 Printing...
G5
G92 E0
G92 E0
G1 F2400 E-1.2
;LAYER_COUNT:2
;LAYER:0
M107
G0 F3000 X51.979 Y53.924 Z0.3
;TYPE:SKIRT
G1 F2400 E0
G1 F1500 X52.435 Y53.578 E0.02959
G1 X52.934 Y53.299 E0.05915
G1 X53.468 Y53.092 E0.08875
G1 X54.025 Y52.961 E0.11833
G1 X54.564 Y52.911 E0.14632
G1 X55 Y52.9 E0.16886
G1 X124.682 Y52.9 E3.77116
G1 X125.38 Y52.91 E3.80725
G1 X125.95 Y52.959 E3.83682
G1 X126.508 Y53.086 E3.86641
G1 X127.043 Y53.289 E3.89599
G1 X127.544 Y53.565 E3.92556
G1 X128.003 Y53.908 E3.95518
G1 X128.408 Y54.312 E3.98475
G1 X128.754 Y54.768 E4.01435
G1 X129.033 Y55.268 E4.04395
G1 X129.239 Y55.802 E4.07353
G1 X129.369 Y56.36 E4.10315
G1 X129.419 Y56.895 E4.13093
G1 X129.43 Y57.33 E4.15343
G1 X129.43 Y122.315 E7.51291
G1 X129.421 Y123.042 E7.55049
G1 X129.374 Y123.612 E7.58006
G1 X129.248 Y124.171 E7.60968
G1 X129.045 Y124.706 E7.63926
G1 X128.77 Y125.208 E7.66885
G1 X128.428 Y125.666 E7.6984
G1 X128.025 Y126.073 E7.72801
G1 X127.569 Y126.42 E7.75764
G1 X127.07 Y126.699 E7.78719
G1 X126.536 Y126.907 E7.81682
G1 X125.979 Y127.038 E7.8464
G1 X125.436 Y127.089 E7.87459
G1 X125 Y127.1 E7.89714
G1 X55.324 Y127.1 E11.49913
G1 X54.626 Y127.091 E11.53521
G1 X54.056 Y127.043 E11.56478
G1 X53.497 Y126.917 E11.59441
G1 X52.962 Y126.714 E11.62399
G1 X52.46 Y126.439 E11.65358
G1 X52.002 Y126.096 E11.68316
G1 X51.596 Y125.693 E11.71273
G1 X51.249 Y125.238 E11.74231
G1 X50.97 Y124.738 E11.77191
G1 X50.763 Y124.204 E11.80152
G1 X50.632 Y123.647 E11.8311
G1 X50.58 Y123.102 E11.8594
G1 X50.57 Y122.658 E11.88236
G1 X50.57 Y57.619 E15.24463
G1 X50.579 Y56.954 E15.27901
G1 X50.627 Y56.383 E15.30864
G1 X50.754 Y55.825 E15.33822
G1 X50.957 Y55.29 E15.3678
G1 X51.233 Y54.788 E15.39742
G1 X51.575 Y54.33 E15.42697
G1 X51.979 Y53.924 E15.45658
G0 F3000 X52.406 Y54.14
G1 F1500 X52.854 Y53.837 E15.48454
G1 X53.341 Y53.602 E15.51249
G1 X53.858 Y53.442 E15.54047
G1 X54.576 Y53.35 E15.57789
G1 X55 Y53.34 E15.59982
G1 X124.675 Y53.34 E19.20175
G1 X125.373 Y53.35 E19.23784
G1 X125.912 Y53.398 E19.26581
G1 X126.438 Y53.525 E19.29379
G1 X126.939 Y53.727 E19.32171
G1 X127.405 Y54.001 E19.34966
G1 X127.826 Y54.341 E19.37763
G1 X128.192 Y54.739 E19.40559
G1 X128.495 Y55.187 E19.43354
G1 X128.729 Y55.675 E19.46152
G1 X128.888 Y56.191 E19.48944
G1 X128.98 Y56.907 E19.52675
G1 X128.99 Y57.33 E19.54863
G1 X128.99 Y122.309 E22.9078
G1 X128.981 Y123.036 E22.94538
G1 X128.934 Y123.575 E22.97335
G1 X128.809 Y124.101 E23.0013
G1 X128.607 Y124.603 E23.02928
G1 X128.334 Y125.069 E23.0572
G1 X127.995 Y125.491 E23.08518
G1 X127.597 Y125.857 E23.11313
G1 X127.15 Y126.161 E23.14108
G1 X126.663 Y126.396 E23.16903
G1 X126.147 Y126.557 E23.19698
G1 X125.424 Y126.65 E23.23466
G1 X125 Y126.66 E23.25659
G1 X55.33 Y126.66 E26.85826
G1 X54.632 Y126.651 E26.89435
G1 X54.093 Y126.604 E26.92232
G1 X53.567 Y126.478 E26.95028
G1 X53.066 Y126.276 E26.97821
G1 X52.599 Y126.003 E27.00617
G1 X52.178 Y125.663 E27.03415
G1 X51.812 Y125.266 E27.06206
G1 X51.508 Y124.818 E27.09005
G1 X51.273 Y124.331 E27.118
G1 X51.113 Y123.815 E27.14593
G1 X51.02 Y123.09 E27.18372
G1 X51.01 Y122.658 E27.20606
G1 X51.01 Y57.624 E30.56807
G1 X51.019 Y56.959 E30.60245
G1 X51.067 Y56.421 E30.63037
G1 X51.193 Y55.895 E30.65833
G1 X51.395 Y55.393 E30.68631
G1 X51.669 Y54.927 E30.71425
G1 X52.008 Y54.506 E30.7422
G1 X52.406 Y54.14 E30.77015
G0 F3000 X52.44 Y54.695
G1 F1500 X52.831 Y54.372 E30.79637
G1 X53.268 Y54.115 E30.82258
G1 X53.74 Y53.929 E30.8488
G1 X54.235 Y53.82 E30.87501
G1 X54.91 Y53.781 E30.90996
G1 X124.669 Y53.78 E34.51624
G1 X125.367 Y53.79 E34.55232
G1 X125.872 Y53.838 E34.57855
G1 X126.363 Y53.963 E34.60474
G1 X126.829 Y54.165 E34.631
G1 X127.257 Y54.437 E34.65721
G1 X127.637 Y54.773 E34.68344
G1 X127.959 Y55.164 E34.70962
G1 X128.216 Y55.601 E34.73583
G1 X128.402 Y56.073 E34.76206
G1 X128.511 Y56.569 E34.78831
G1 X128.549 Y57.239 E34.823
G1 X128.55 Y122.304 E38.18662
G1 X128.541 Y123.031 E38.2242
G1 X128.495 Y123.536 E38.25042
G1 X128.37 Y124.027 E38.27661
G1 X128.169 Y124.493 E38.30285
G1 X127.898 Y124.922 E38.32908
G1 X127.563 Y125.302 E38.35527
G1 X127.172 Y125.626 E38.38152
G1 X126.735 Y125.884 E38.40775
G1 X126.264 Y126.07 E38.43393
G1 X125.769 Y126.18 E38.46014
G1 X125.09 Y126.219 E38.4953
G1 X55.335 Y126.22 E42.10137
G1 X54.637 Y126.211 E42.13746
G1 X54.132 Y126.164 E42.16368
G1 X53.641 Y126.039 E42.18987
G1 X53.175 Y125.838 E42.21611
G1 X52.747 Y125.567 E42.2423
G1 X52.366 Y125.232 E42.26852
G1 X52.043 Y124.841 E42.29474
G1 X51.786 Y124.404 E42.32095
G1 X51.6 Y123.932 E42.34718
G1 X51.49 Y123.437 E42.37339
G1 X51.451 Y122.745 E42.40922
G1 X51.45 Y57.63 E45.77542
G1 X51.459 Y56.965 E45.8098
G1 X51.506 Y56.46 E45.83602
G1 X51.632 Y55.969 E45.86223
G1 X51.833 Y55.503 E45.88846
G1 X52.104 Y55.075 E45.91465
G1 X52.44 Y54.695 E45.94088
G1 F2400 E44.74088
;MESH:rgb_led_side_v16.stl
G0 F3000 X55.33 Y57.66
;TYPE:WALL-INNER
G1 F2400 E45.94088
G1 F1500 X124.67 Y57.66 E49.52549
G1 X124.67 Y122.34 E52.8692
G1 X55.33 Y122.34 E56.45382
G1 X55.33 Y57.66 E59.79753
G0 F3000 X54.89 Y57.22
;TYPE:WALL-OUTER
G1 F1500 X125.11 Y57.22 E63.42764
G1 X125.11 Y122.78 E66.81685
G1 X54.89 Y122.78 E70.44695
G1 X54.89 Y57.22 E73.83616
G0 F3000 X55.09 Y57.22
G0 X55.374 Y57.704
G0 X55.76 Y58.09
;TYPE:SKIN
G1 F1500 X124.24 Y58.09 E77.44396
G1 X124.24 Y121.91 E80.80626
G1 X55.76 Y121.91 E84.41406
G1 X55.76 Y58.09 E87.77636
G1 F2400 E86.57636
G0 F3000 X56.372 Y121.709
G1 F2400 E87.77636
G1 F1500 X55.959 Y121.296 E87.80713
G0 F3000 X55.959 Y120.674
G1 F1500 X56.994 Y121.709 E87.88425
G0 F3000 X57.617 Y121.709
G1 F1500 X55.959 Y120.051 E88.00778
G0 F3000 X55.959 Y119.429
G1 F1500 X58.239 Y121.709 E88.17765
G0 F3000 X58.861 Y121.709
G1 F1500 X55.959 Y118.807 E88.39387
G0 F3000 X55.959 Y118.185
G1 F1500 X59.483 Y121.709 E88.65643
G0 F3000 X60.106 Y121.709
G1 F1500 X55.959 Y117.562 E88.96541
G0 F3000 X55.959 Y116.94
G1 F1500 X60.728 Y121.709 E89.32073
G0 F3000 X61.35 Y121.709
G1 F1500 X55.959 Y116.318 E89.7224
G0 F3000 X55.959 Y115.696
G1 F1500 X61.972 Y121.709 E90.1704
G0 F3000 X62.595 Y121.709
G1 F1500 X55.959 Y115.073 E90.66483
G0 F3000 X55.959 Y114.451
G1 F1500 X63.217 Y121.709 E91.2056
G0 F3000 X63.839 Y121.709
G1 F1500 X55.959 Y113.829 E91.79271
G0 F3000 X55.959 Y113.207
G1 F1500 X64.461 Y121.709 E92.42616
G0 F3000 X65.084 Y121.709
G1 F1500 X55.959 Y112.584 E93.10603
G0 F3000 X55.959 Y111.962
G1 F1500 X65.706 Y121.709 E93.83225
G0 F3000 X66.328 Y121.709
G1 F1500 X55.959 Y111.34 E94.60481
G0 F3000 X55.959 Y110.718
G1 F1500 X66.95 Y121.709 E95.42371
G0 F3000 X67.573 Y121.709
G1 F1500 X55.959 Y110.095 E96.28903
G0 F3000 X55.959 Y109.473
G1 F1500 X68.195 Y121.709 E97.20069
G0 F3000 X68.817 Y121.709
G1 F1500 X55.959 Y108.851 E98.15869
G0 F3000 X55.959 Y108.229
G1 F1500 X69.44 Y121.709 E99.16308
G0 F3000 X70.062 Y121.709
G1 F1500 X55.959 Y107.606 E100.21384
G0 F3000 X55.959 Y106.984
G1 F1500 X70.684 Y121.709 E101.31095
G0 F3000 X71.306 Y121.709
G1 F1500 X55.959 Y106.362 E102.4544
G0 F3000 X55.959 Y105.74
G1 F1500 X71.929 Y121.709 E103.64423
G0 F3000 X72.551 Y121.709
G1 F1500 X55.959 Y105.117 E104.88045
G0 F3000 X55.959 Y104.495
G1 F1500 X73.173 Y121.709 E106.163
G0 F3000 X73.795 Y121.709
G1 F1500 X55.959 Y103.873 E107.4919
G0 F3000 X55.959 Y103.251
G1 F1500 X74.418 Y121.709 E108.86718
G0 F3000 X75.04 Y121.709
G1 F1500 X55.959 Y102.628 E110.28884
G0 F3000 X55.959 Y102.006
G1 F1500 X75.662 Y121.709 E111.75684
G0 F3000 X76.284 Y121.709
G1 F1500 X55.959 Y101.384 E113.27118
G0 F3000 X55.959 Y100.762
G1 F1500 X76.907 Y121.709 E114.83191
G0 F3000 X77.529 Y121.709
G1 F1500 X55.959 Y100.139 E116.43901
G0 F3000 X55.959 Y99.517
G1 F1500 X78.151 Y121.709 E118.09246
G0 F3000 X78.773 Y121.709
G1 F1500 X55.959 Y98.895 E119.79225
G0 F3000 X55.959 Y98.272
G1 F1500 X79.396 Y121.709 E121.53846
G0 F3000 X80.018 Y121.709
G1 F1500 X55.959 Y97.65 E123.33101
G0 F3000 X55.959 Y97.028
G1 F1500 X80.64 Y121.709 E125.16991
G0 F3000 X81.262 Y121.709
G1 F1500 X55.959 Y96.406 E127.05515
G0 F3000 X55.959 Y95.783
G1 F1500 X81.885 Y121.709 E128.9868
G0 F3000 X82.507 Y121.709
G1 F1500 X55.959 Y95.161 E130.9648
G0 F3000 X55.959 Y94.539
G1 F1500 X83.129 Y121.709 E132.98914
G0 F3000 X83.751 Y121.709
G1 F1500 X55.959 Y93.917 E135.05983
G0 F3000 X55.959 Y93.294
G1 F1500 X84.374 Y121.709 E137.17693
G0 F3000 X84.996 Y121.709
G1 F1500 X55.959 Y92.672 E139.34037
G0 F3000 X55.959 Y92.05
G1 F1500 X85.618 Y121.709 E141.55016
G0 F3000 X86.24 Y121.709
G1 F1500 X55.959 Y91.428 E143.80629
G0 F3000 X55.959 Y90.805
G1 F1500 X86.863 Y121.709 E146.10884
G0 F3000 X87.485 Y121.709
G1 F1500 X55.959 Y90.183 E148.45774
G0 F3000 X55.959 Y89.561
G1 F1500 X88.107 Y121.709 E150.85297
G0 F3000 X88.729 Y121.709
G1 F1500 X55.959 Y88.939 E153.29455
G0 F3000 X55.959 Y88.316
G1 F1500 X89.352 Y121.709 E155.78254
G0 F3000 X89.974 Y121.709
G1 F1500 X55.959 Y87.694 E158.31688
G0 F3000 X55.959 Y87.072
G1 F1500 X90.596 Y121.709 E160.89756
G0 F3000 X91.218 Y121.709
G1 F1500 X55.959 Y86.45 E163.52459
G0 F3000 X55.959 Y85.827
G1 F1500 X91.841 Y121.709 E166.19803
G0 F3000 X92.463 Y121.709
G1 F1500 X55.959 Y85.205 E168.91782
G0 F3000 X55.959 Y84.583
G1 F1500 X93.085 Y121.709 E171.68395
G0 F3000 X93.707 Y121.709
G1 F1500 X55.959 Y83.961 E174.49642
G0 F3000 X55.959 Y83.338
G1 F1500 X94.33 Y121.709 E177.35531
G0 F3000 X94.952 Y121.709
G1 F1500 X55.959 Y82.716 E180.26054
G0 F3000 X55.959 Y82.094
G1 F1500 X95.574 Y121.709 E183.21211
G0 F3000 X96.196 Y121.709
G1 F1500 X55.959 Y81.472 E186.21003
G0 F3000 X55.959 Y80.849
G1 F1500 X96.819 Y121.709 E189.25437
G0 F3000 X97.441 Y121.709
G1 F1500 X55.959 Y80.227 E192.34505
G0 F3000 X55.959 Y79.605
G1 F1500 X98.063 Y121.709 E195.48207
G0 F3000 X98.685 Y121.709
G1 F1500 X55.959 Y78.983 E198.66543
G0 F3000 X55.959 Y78.36
G1 F1500 X99.308 Y121.709 E201.89522
G0 F3000 X99.93 Y121.709
G1 F1500 X55.959 Y77.738 E205.17134
G0 F3000 X55.959 Y77.116
G1 F1500 X100.552 Y121.709 E208.49381
G0 F3000 X101.174 Y121.709
G1 F1500 X55.959 Y76.494 E211.86262
G0 F3000 X55.959 Y75.871
G1 F1500 X101.797 Y121.709 E215.27785
G0 F3000 X102.419 Y121.709
G1 F1500 X55.959 Y75.249 E218.73942
G0 F3000 X55.959 Y74.627
G1 F1500 X103.041 Y121.709 E222.24734
G0 F3000 X103.663 Y121.709
G1 F1500 X55.959 Y74.005 E225.8016
G0 F3000 X55.959 Y73.382
G1 F1500 X104.286 Y121.709 E229.40227
G0 F3000 X104.908 Y121.709
G1 F1500 X55.959 Y72.76 E233.04929
G0 F3000 X55.959 Y72.138
G1 F1500 X105.53 Y121.709 E236.74265
G0 F3000 X106.152 Y121.709
G1 F1500 X55.959 Y71.516 E240.48236
G0 F3000 X55.959 Y70.893
G1 F1500 X106.775 Y121.709 E244.26848
G0 F3000 X107.397 Y121.709
G1 F1500 X55.959 Y70.271 E248.10094
G0 F3000 X55.959 Y69.649
G1 F1500 X108.019 Y121.709 E251.97975
G0 F3000 X108.642 Y121.709
G1 F1500 X55.959 Y69.027 E255.90494
G0 F3000 X55.959 Y68.404
G1 F1500 X109.264 Y121.709 E259.87651
G0 F3000 X109.886 Y121.709
G1 F1500 X55.959 Y67.782 E263.89442
G0 F3000 X55.959 Y67.16
G1 F1500 X110.508 Y121.709 E267.95868
G0 F3000 X111.131 Y121.709
G1 F1500 X55.959 Y66.538 E272.06931
G0 F3000 X55.959 Y65.915
G1 F1500 X111.753 Y121.709 E276.22633
G0 F3000 X112.375 Y121.709
G1 F1500 X55.959 Y65.293 E280.42969
G0 F3000 X55.959 Y64.671
G1 F1500 X112.997 Y121.709 E284.67939
G0 F3000 X113.62 Y121.709
G1 F1500 X55.959 Y64.049 E288.97547
G0 F3000 X55.959 Y63.426
G1 F1500 X114.242 Y121.709 E293.31794
G0 F3000 X114.864 Y121.709
G1 F1500 X55.959 Y62.804 E297.70674
G0 F3000 X55.959 Y62.182
G1 F1500 X115.486 Y121.709 E302.14189
G0 F3000 X116.109 Y121.709
G1 F1500 X55.959 Y61.56 E306.62342
G0 F3000 X55.959 Y60.937
G1 F1500 X116.731 Y121.709 E311.15133
G0 F3000 X117.353 Y121.709
G1 F1500 X55.959 Y60.315 E315.72558
G0 F3000 X55.959 Y59.693
G1 F1500 X117.975 Y121.709 E320.34618
G0 F3000 X118.598 Y121.709
G1 F1500 X55.959 Y59.07 E325.01319
G0 F3000 X55.959 Y58.448
G1 F1500 X119.22 Y121.709 E329.72654
G0 F3000 X119.842 Y121.709
G1 F1500 X56.422 Y58.289 E334.45175
G0 F3000 X57.045 Y58.289
G1 F1500 X120.464 Y121.709 E339.17691
G0 F3000 X121.087 Y121.709
G1 F1500 X57.667 Y58.289 E343.90211
G0 F3000 X58.289 Y58.289
G1 F1500 X121.709 Y121.709 E348.62732
G0 F3000 X122.331 Y121.709
G1 F1500 X58.911 Y58.289 E353.35252
G0 F3000 X59.534 Y58.289
G1 F1500 X122.953 Y121.709 E358.07768
G0 F3000 X123.576 Y121.709
G1 F1500 X60.156 Y58.289 E362.80289
G0 F3000 X60.778 Y58.289
G1 F1500 X124.039 Y121.55 E367.51624
G0 F3000 X124.039 Y120.927
G1 F1500 X61.4 Y58.289 E372.18322
G0 F3000 X62.023 Y58.289
G1 F1500 X124.039 Y120.305 E376.80381
G0 F3000 X124.039 Y119.683
G1 F1500 X62.645 Y58.289 E381.37807
G0 F3000 X63.267 Y58.289
G1 F1500 X124.039 Y119.061 E385.90598
G0 F3000 X124.039 Y118.438
G1 F1500 X63.889 Y58.289 E390.3875
G0 F3000 X64.512 Y58.289
G1 F1500 X124.039 Y117.816 E394.82265
G0 F3000 X124.039 Y117.194
G1 F1500 X65.134 Y58.289 E399.21146
G0 F3000 X65.756 Y58.289
G1 F1500 X124.039 Y116.572 E403.55392
G0 F3000 X124.039 Y115.949
G1 F1500 X66.378 Y58.289 E407.85
G0 F3000 X67.001 Y58.289
G1 F1500 X124.039 Y115.327 E412.09971
G0 F3000 X124.039 Y114.705
G1 F1500 X67.623 Y58.289 E416.30306
G0 F3000 X68.245 Y58.289
G1 F1500 X124.039 Y114.083 E420.46008
G0 F3000 X124.039 Y113.46
G1 F1500 X68.867 Y58.289 E424.57072
G0 F3000 X69.49 Y58.289
G1 F1500 X124.039 Y112.838 E428.63497
G0 F3000 X124.039 Y112.216
G1 F1500 X70.112 Y58.289 E432.65288
G0 F3000 X70.734 Y58.289
G1 F1500 X124.039 Y111.594 E436.62445
G0 F3000 X124.039 Y110.971
G1 F1500 X71.356 Y58.289 E440.54964
G0 F3000 X71.979 Y58.289
G1 F1500 X124.039 Y110.349 E444.42845
G0 F3000 X124.039 Y109.727
G1 F1500 X72.601 Y58.289 E448.26092
G0 F3000 X73.223 Y58.289
G1 F1500 X124.039 Y109.105 E452.04704
G0 F3000 X124.039 Y108.482
G1 F1500 X73.845 Y58.289 E455.78678
G0 F3000 X74.468 Y58.289
G1 F1500 X124.039 Y107.86 E459.48014
G0 F3000 X124.039 Y107.238
G1 F1500 X75.09 Y58.289 E463.12716
G0 F3000 X75.712 Y58.289
G1 F1500 X124.039 Y106.616 E466.72784
G0 F3000 X124.039 Y105.993
G1 F1500 X76.335 Y58.289 E470.2821
G0 F3000 X76.957 Y58.289
G1 F1500 X124.039 Y105.371 E473.79001
G0 F3000 X124.039 Y104.749
G1 F1500 X77.579 Y58.289 E477.25158
G0 F3000 X78.201 Y58.289
G1 F1500 X124.039 Y104.127 E480.66681
G0 F3000 X124.039 Y103.504
G1 F1500 X78.824 Y58.289 E484.03562
G0 F3000 X79.446 Y58.289
G1 F1500 X124.039 Y102.882 E487.35809
G0 F3000 X124.039 Y102.26
G1 F1500 X80.068 Y58.289 E490.63422
G0 F3000 X80.69 Y58.289
G1 F1500 X124.039 Y101.638 E493.864
G0 F3000 X124.039 Y101.015
G1 F1500 X81.313 Y58.289 E497.04736
G0 F3000 X81.935 Y58.289
G1 F1500 X124.039 Y100.393 E500.18439
G0 F3000 X124.039 Y99.771
G1 F1500 X82.557 Y58.289 E503.27507
G0 F3000 X83.179 Y58.289
G1 F1500 X124.039 Y99.149 E506.3194
G0 F3000 X124.039 Y98.526
G1 F1500 X83.802 Y58.289 E509.31732
G0 F3000 X84.424 Y58.289
G1 F1500 X124.039 Y97.904 E512.26889
G0 F3000 X124.039 Y97.282
G1 F1500 X85.046 Y58.289 E515.17413
G0 F3000 X85.668 Y58.289
G1 F1500 X124.039 Y96.66 E518.03302
G0 F3000 X124.039 Y96.037
G1 F1500 X86.291 Y58.289 E520.84549
G0 F3000 X86.913 Y58.289
G1 F1500 X124.039 Y95.415 E523.61162
G0 F3000 X124.039 Y94.793
G1 F1500 X87.535 Y58.289 E526.3314
G0 F3000 X88.157 Y58.289
G1 F1500 X124.039 Y94.171 E529.00484
G0 F3000 X124.039 Y93.548
G1 F1500 X88.78 Y58.289 E531.63187
G0 F3000 X89.402 Y58.289
G1 F1500 X124.039 Y92.926 E534.21255
G0 F3000 X124.039 Y92.304
G1 F1500 X90.024 Y58.289 E536.74689
G0 F3000 X90.646 Y58.289
G1 F1500 X124.039 Y91.682 E539.23488
G0 F3000 X124.039 Y91.059
